director/public/luts/action_orange.cube
TITLE "Action Orange"
LUT_3D_SIZE 5
0.000000 0.000000 0.000000
0.243500 0.000000 0.000000
0.527000 0.000000 0.000000
0.810500 0.000000 0.000000
1.000000 0.000000 0.000000
0.000000 0.230000 0.000000
0.243500 0.230000 0.000000
0.527000 0.230000 0.000000
0.810500 0.230000 0.000000
1.000000 0.230000 0.000000
0.000000 0.500000 0.000000
0.243500 0.500000 0.000000
0.527000 0.500000 0.000000
0.810500 0.500000 0.000000
1.000000 0.500000 0.000000
0.000000 0.770000 0.000000
0.243500 0.770000 0.000000
0.527000 0.770000 0.000000
0.810500 0.770000 0.000000
1.000000 0.770000 0.000000
0.000000 1.000000 0.000000
0.243500 1.000000 0.000000
0.527000 1.000000 0.000000
0.810500 1.000000 0.000000
1.000000 1.000000 0.000000
0.000000 0.000000 0.208400
0.243500 0.000000 0.208400
0.527000 0.000000 0.208400
0.810500 0.000000 0.208400
1.000000 0.000000 0.208400
0.000000 0.230000 0.208400
0.243500 0.230000 0.208400
0.527000 0.230000 0.208400
0.810500 0.230000 0.208400
1.000000 0.230000 0.208400
0.000000 0.500000 0.208400
0.243500 0.500000 0.208400
0.527000 0.500000 0.208400
0.810500 0.500000 0.208400
1.000000 0.500000 0.208400
0.000000 0.770000 0.208400
0.243500 0.770000 0.208400
0.527000 0.770000 0.208400
0.810500 0.770000 0.208400
1.000000 0.770000 0.208400
0.000000 1.000000 0.208400
0.243500 1.000000 0.208400
0.527000 1.000000 0.208400
0.810500 1.000000 0.208400
1.000000 1.000000 0.208400
0.000000 0.000000 0.456800
0.243500 0.000000 0.456800
0.527000 0.000000 0.456800
0.810500 0.000000 0.456800
1.000000 0.000000 0.456800
0.000000 0.230000 0.456800
0.243500 0.230000 0.456800
0.527000 0.230000 0.456800
0.810500 0.230000 0.456800
1.000000 0.230000 0.456800
0.000000 0.500000 0.456800
0.243500 0.500000 0.456800
0.527000 0.500000 0.456800
0.810500 0.500000 0.456800
1.000000 0.500000 0.456800
0.000000 0.770000 0.456800
0.243500 0.770000 0.456800
0.527000 0.770000 0.456800
0.810500 0.770000 0.456800
1.000000 0.770000 0.456800
0.000000 1.000000 0.456800
0.243500 1.000000 0.456800
0.527000 1.000000 0.456800
0.810500 1.000000 0.456800
1.000000 1.000000 0.456800
0.000000 0.000000 0.705200
0.243500 0.000000 0.705200
0.527000 0.000000 0.705200
0.810500 0.000000 0.705200
1.000000 0.000000 0.705200
0.000000 0.230000 0.705200
0.243500 0.230000 0.705200
0.527000 0.230000 0.705200
0.810500 0.230000 0.705200
1.000000 0.230000 0.705200
0.000000 0.500000 0.705200
0.243500 0.500000 0.705200
0.527000 0.500000 0.705200
0.810500 0.500000 0.705200
1.000000 0.500000 0.705200
0.000000 0.770000 0.705200
0.243500 0.770000 0.705200
0.527000 0.770000 0.705200
0.810500 0.770000 0.705200
1.000000 0.770000 0.705200
0.000000 1.000000 0.705200
0.243500 1.000000 0.705200
0.527000 1.000000 0.705200
0.810500 1.000000 0.705200
1.000000 1.000000 0.705200
0.000000 0.000000 0.953600
0.243500 0.000000 0.953600
0.527000 0.000000 0.953600
0.810500 0.000000 0.953600
1.000000 0.000000 0.953600
0.000000 0.230000 0.953600
0.243500 0.230000 0.953600
0.527000 0.230000 0.953600
0.810500 0.230000 0.953600
1.000000 0.230000 0.953600
0.000000 0.500000 0.953600
0.243500 0.500000 0.953600
0.527000 0.500000 0.953600
0.810500 0.500000 0.953600
1.000000 0.500000 0.953600
0.000000 0.770000 0.953600
0.243500 0.770000 0.953600
0.527000 0.770000 0.953600
0.810500 0.770000 0.953600
1.000000 0.770000 0.953600
0.000000 1.000000 0.953600
0.243500 1.000000 0.953600
0.527000 1.000000 0.953600
0.810500 1.000000 0.953600
1.000000 1.000000 0.953600
