director/public/luts/action_orange.cube
TITLE "Action Orange"
LUT_3D_SIZE 17
0.000000 0.000000 0.000000
0.030875 0.000000 0.000000
0.101750 0.000000 0.000000
0.172625 0.000000 0.000000
0.243500 0.000000 0.000000
0.314375 0.000000 0.000000
0.385250 0.000000 0.000000
0.456125 0.000000 0.000000
0.527000 0.000000 0.000000
0.597875 0.000000 0.000000
0.668750 0.000000 0.000000
0.739625 0.000000 0.000000
0.810500 0.000000 0.000000
0.881375 0.000000 0.000000
0.952250 0.000000 0.000000
1.000000 0.000000 0.000000
1.000000 0.000000 0.000000
0.000000 0.027500 0.000000
0.030875 0.027500 0.000000
0.101750 0.027500 0.000000
0.172625 0.027500 0.000000
0.243500 0.027500 0.000000
0.314375 0.027500 0.000000
0.385250 0.027500 0.000000
0.456125 0.027500 0.000000
0.527000 0.027500 0.000000
0.597875 0.027500 0.000000
0.668750 0.027500 0.000000
0.739625 0.027500 0.000000
0.810500 0.027500 0.000000
0.881375 0.027500 0.000000
0.952250 0.027500 0.000000
1.000000 0.027500 0.000000
1.000000 0.027500 0.000000
0.000000 0.095000 0.000000
0.030875 0.095000 0.000000
0.101750 0.095000 0.000000
0.172625 0.095000 0.000000
0.243500 0.095000 0.000000
0.314375 0.095000 0.000000
0.385250 0.095000 0.000000
0.456125 0.095000 0.000000
0.527000 0.095000 0.000000
0.597875 0.095000 0.000000
0.668750 0.095000 0.000000
0.739625 0.095000 0.000000
0.810500 0.095000 0.000000
0.881375 0.095000 0.000000
0.952250 0.095000 0.000000
1.000000 0.095000 0.000000
1.000000 0.095000 0.000000
0.000000 0.162500 0.000000
0.030875 0.162500 0.000000
0.101750 0.162500 0.000000
0.172625 0.162500 0.000000
0.243500 0.162500 0.000000
0.314375 0.162500 0.000000
0.385250 0.162500 0.000000
0.456125 0.162500 0.000000
0.527000 0.162500 0.000000
0.597875 0.162500 0.000000
0.668750 0.162500 0.000000
0.739625 0.162500 0.000000
0.810500 0.162500 0.000000
0.881375 0.162500 0.000000
0.952250 0.162500 0.000000
1.000000 0.162500 0.000000
1.000000 0.162500 0.000000
0.000000 0.230000 0.000000
0.030875 0.230000 0.000000
0.101750 0.230000 0.000000
0.172625 0.230000 0.000000
0.243500 0.230000 0.000000
0.314375 0.230000 0.000000
0.385250 0.230000 0.000000
0.456125 0.230000 0.000000
0.527000 0.230000 0.000000
0.597875 0.230000 0.000000
0.668750 0.230000 0.000000
0.739625 0.230000 0.000000
0.810500 0.230000 0.000000
0.881375 0.230000 0.000000
0.952250 0.230000 0.000000
1.000000 0.230000 0.000000
1.000000 0.230000 0.000000
0.000000 0.297500 0.000000
0.030875 0.297500 0.000000
0.101750 0.297500 0.000000
0.172625 0.297500 0.000000
0.243500 0.297500 0.000000
0.314375 0.297500 0.000000
0.385250 0.297500 0.000000
0.456125 0.297500 0.000000
0.527000 0.297500 0.000000
0.597875 0.297500 0.000000
0.668750 0.297500 0.000000
0.739625 0.297500 0.000000
0.810500 0.297500 0.000000
0.881375 0.297500 0.000000
0.952250 0.297500 0.000000
1.000000 0.297500 0.000000
1.000000 0.297500 0.000000
0.000000 0.365000 0.000000
0.030875 0.365000 0.000000
0.101750 0.365000 0.000000
0.172625 0.365000 0.000000
0.243500 0.365000 0.000000
0.314375 0.365000 0.000000
0.385250 0.365000 0.000000
0.456125 0.365000 0.000000
0.527000 0.365000 0.000000
0.597875 0.365000 0.000000
0.668750 0.365000 0.000000
0.739625 0.365000 0.000000
0.810500 0.365000 0.000000
0.881375 0.365000 0.000000
0.952250 0.365000 0.000000
1.000000 0.365000 0.000000
1.000000 0.365000 0.000000
0.000000 0.432500 0.000000
0.030875 0.432500 0.000000
0.101750 0.432500 0.000000
0.172625 0.432500 0.000000
0.243500 0.432500 0.000000
0.314375 0.432500 0.000000
0.385250 0.432500 0.000000
0.456125 0.432500 0.000000
0.527000 0.432500 0.000000
0.597875 0.432500 0.000000
0.668750 0.432500 0.000000
0.739625 0.432500 0.000000
0.810500 0.432500 0.000000
0.881375 0.432500 0.000000
0.952250 0.432500 0.000000
1.000000 0.432500 0.000000
1.000000 0.432500 0.000000
0.000000 0.500000 0.000000
0.030875 0.500000 0.000000
0.101750 0.500000 0.000000
0.172625 0.500000 0.000000
0.243500 0.500000 0.000000
0.314375 0.500000 0.000000
0.385250 0.500000 0.000000
0.456125 0.500000 0.000000
0.527000 0.500000 0.000000
0.597875 0.500000 0.000000
0.668750 0.500000 0.000000
0.739625 0.500000 0.000000
0.810500 0.500000 0.000000
0.881375 0.500000 0.000000
0.952250 0.500000 0.000000
1.000000 0.500000 0.000000
1.000000 0.500000 0.000000
0.000000 0.567500 0.000000
0.030875 0.567500 0.000000
0.101750 0.567500 0.000000
0.172625 0.567500 0.000000
0.243500 0.567500 0.000000
0.314375 0.567500 0.000000
0.385250 0.567500 0.000000
0.456125 0.567500 0.000000
0.527000 0.567500 0.000000
0.597875 0.567500 0.000000
0.668750 0.567500 0.000000
0.739625 0.567500 0.000000
0.810500 0.567500 0.000000
0.881375 0.567500 0.000000
0.952250 0.567500 0.000000
1.000000 0.567500 0.000000
1.000000 0.567500 0.000000
0.000000 0.635000 0.000000
0.030875 0.635000 0.000000
0.101750 0.635000 0.000000
0.172625 0.635000 0.000000
0.243500 0.635000 0.000000
0.314375 0.635000 0.000000
0.385250 0.635000 0.000000
0.456125 0.635000 0.000000
0.527000 0.635000 0.000000
0.597875 0.635000 0.000000
0.668750 0.635000 0.000000
0.739625 0.635000 0.000000
0.810500 0.635000 0.000000
0.881375 0.635000 0.000000
0.952250 0.635000 0.000000
1.000000 0.635000 0.000000
1.000000 0.635000 0.000000
0.000000 0.702500 0.000000
0.030875 0.702500 0.000000
0.101750 0.702500 0.000000
0.172625 0.702500 0.000000
0.243500 0.702500 0.000000
0.314375 0.702500 0.000000
0.385250 0.702500 0.000000
0.456125 0.702500 0.000000
0.527000 0.702500 0.000000
0.597875 0.702500 0.000000
0.668750 0.702500 0.000000
0.739625 0.702500 0.000000
0.810500 0.702500 0.000000
0.881375 0.702500 0.000000
0.952250 0.702500 0.000000
1.000000 0.702500 0.000000
1.000000 0.702500 0.000000
0.000000 0.770000 0.000000
0.030875 0.770000 0.000000
0.101750 0.770000 0.000000
0.172625 0.770000 0.000000
0.243500 0.770000 0.000000
0.314375 0.770000 0.000000
0.385250 0.770000 0.000000
0.456125 0.770000 0.000000
0.527000 0.770000 0.000000
0.597875 0.770000 0.000000
0.668750 0.770000 0.000000
0.739625 0.770000 0.000000
0.810500 0.770000 0.000000
0.881375 0.770000 0.000000
0.952250 0.770000 0.000000
1.000000 0.770000 0.000000
1.000000 0.770000 0.000000
0.000000 0.837500 0.000000
0.030875 0.837500 0.000000
0.101750 0.837500 0.000000
0.172625 0.837500 0.000000
0.243500 0.837500 0.000000
0.314375 0.837500 0.000000
0.385250 0.837500 0.000000
0.456125 0.837500 0.000000
0.527000 0.837500 0.000000
0.597875 0.837500 0.000000
0.668750 0.837500 0.000000
0.739625 0.837500 0.000000
0.810500 0.837500 0.000000
0.881375 0.837500 0.000000
0.952250 0.837500 0.000000
1.000000 0.837500 0.000000
1.000000 0.837500 0.000000
0.000000 0.905000 0.000000
0.030875 0.905000 0.000000
0.101750 0.905000 0.000000
0.172625 0.905000 0.000000
0.243500 0.905000 0.000000
0.314375 0.905000 0.000000
0.385250 0.905000 0.000000
0.456125 0.905000 0.000000
0.527000 0.905000 0.000000
0.597875 0.905000 0.000000
0.668750 0.905000 0.000000
0.739625 0.905000 0.000000
0.810500 0.905000 0.000000
0.881375 0.905000 0.000000
0.952250 0.905000 0.000000
1.000000 0.905000 0.000000
1.000000 0.905000 0.000000
0.000000 0.972500 0.000000
0.030875 0.972500 0.000000
0.101750 0.972500 0.000000
0.172625 0.972500 0.000000
0.243500 0.972500 0.000000
0.314375 0.972500 0.000000
0.385250 0.972500 0.000000
0.456125 0.972500 0.000000
0.527000 0.972500 0.000000
0.597875 0.972500 0.000000
0.668750 0.972500 0.000000
0.739625 0.972500 0.000000
0.810500 0.972500 0.000000
0.881375 0.972500 0.000000
0.952250 0.972500 0.000000
1.000000 0.972500 0.000000
1.000000 0.972500 0.000000
0.000000 1.000000 0.000000
0.030875 1.000000 0.000000
0.101750 1.000000 0.000000
0.172625 1.000000 0.000000
0.243500 1.000000 0.000000
0.314375 1.000000 0.000000
0.385250 1.000000 0.000000
0.456125 1.000000 0.000000
0.527000 1.000000 0.000000
0.597875 1.000000 0.000000
0.668750 1.000000 0.000000
0.739625 1.000000 0.000000
0.810500 1.000000 0.000000
0.881375 1.000000 0.000000
0.952250 1.000000 0.000000
1.000000 1.000000 0.000000
1.000000 1.000000 0.000000
0.000000 0.000000 0.022100
0.030875 0.000000 0.022100
0.101750 0.000000 0.022100
0.172625 0.000000 0.022100
0.243500 0.000000 0.022100
0.314375 0.000000 0.022100
0.385250 0.000000 0.022100
0.456125 0.000000 0.022100
0.527000 0.000000 0.022100
0.597875 0.000000 0.022100
0.668750 0.000000 0.022100
0.739625 0.000000 0.022100
0.810500 0.000000 0.022100
0.881375 0.000000 0.022100
0.952250 0.000000 0.022100
1.000000 0.000000 0.022100
1.000000 0.000000 0.022100
0.000000 0.027500 0.022100
0.030875 0.027500 0.022100
0.101750 0.027500 0.022100
0.172625 0.027500 0.022100
0.243500 0.027500 0.022100
0.314375 0.027500 0.022100
0.385250 0.027500 0.022100
0.456125 0.027500 0.022100
0.527000 0.027500 0.022100
0.597875 0.027500 0.022100
0.668750 0.027500 0.022100
0.739625 0.027500 0.022100
0.810500 0.027500 0.022100
0.881375 0.027500 0.022100
0.952250 0.027500 0.022100
1.000000 0.027500 0.022100
1.000000 0.027500 0.022100
0.000000 0.095000 0.022100
0.030875 0.095000 0.022100
0.101750 0.095000 0.022100
0.172625 0.095000 0.022100
0.243500 0.095000 0.022100
0.314375 0.095000 0.022100
0.385250 0.095000 0.022100
0.456125 0.095000 0.022100
0.527000 0.095000 0.022100
0.597875 0.095000 0.022100
0.668750 0.095000 0.022100
0.739625 0.095000 0.022100
0.810500 0.095000 0.022100
0.881375 0.095000 0.022100
0.952250 0.095000 0.022100
1.000000 0.095000 0.022100
1.000000 0.095000 0.022100
0.000000 0.162500 0.022100
0.030875 0.162500 0.022100
0.101750 0.162500 0.022100
0.172625 0.162500 0.022100
0.243500 0.162500 0.022100
0.314375 0.162500 0.022100
0.385250 0.162500 0.022100
0.456125 0.162500 0.022100
0.527000 0.162500 0.022100
0.597875 0.162500 0.022100
0.668750 0.162500 0.022100
0.739625 0.162500 0.022100
0.810500 0.162500 0.022100
0.881375 0.162500 0.022100
0.952250 0.162500 0.022100
1.000000 0.162500 0.022100
1.000000 0.162500 0.022100
0.000000 0.230000 0.022100
0.030875 0.230000 0.022100
0.101750 0.230000 0.022100
0.172625 0.230000 0.022100
0.243500 0.230000 0.022100
0.314375 0.230000 0.022100
0.385250 0.230000 0.022100
0.456125 0.230000 0.022100
0.527000 0.230000 0.022100
0.597875 0.230000 0.022100
0.668750 0.230000 0.022100
0.739625 0.230000 0.022100
0.810500 0.230000 0.022100
0.881375 0.230000 0.022100
0.952250 0.230000 0.022100
1.000000 0.230000 0.022100
1.000000 0.230000 0.022100
0.000000 0.297500 0.022100
0.030875 0.297500 0.022100
0.101750 0.297500 0.022100
0.172625 0.297500 0.022100
0.243500 0.297500 0.022100
0.314375 0.297500 0.022100
0.385250 0.297500 0.022100
0.456125 0.297500 0.022100
0.527000 0.297500 0.022100
0.597875 0.297500 0.022100
0.668750 0.297500 0.022100
0.739625 0.297500 0.022100
0.810500 0.297500 0.022100
0.881375 0.297500 0.022100
0.952250 0.297500 0.022100
1.000000 0.297500 0.022100
1.000000 0.297500 0.022100
0.000000 0.365000 0.022100
0.030875 0.365000 0.022100
0.101750 0.365000 0.022100
0.172625 0.365000 0.022100
0.243500 0.365000 0.022100
0.314375 0.365000 0.022100
0.385250 0.365000 0.022100
0.456125 0.365000 0.022100
0.527000 0.365000 0.022100
0.597875 0.365000 0.022100
0.668750 0.365000 0.022100
0.739625 0.365000 0.022100
0.810500 0.365000 0.022100
0.881375 0.365000 0.022100
0.952250 0.365000 0.022100
1.000000 0.365000 0.022100
1.000000 0.365000 0.022100
0.000000 0.432500 0.022100
0.030875 0.432500 0.022100
0.101750 0.432500 0.022100
0.172625 0.432500 0.022100
0.243500 0.432500 0.022100
0.314375 0.432500 0.022100
0.385250 0.432500 0.022100
0.456125 0.432500 0.022100
0.527000 0.432500 0.022100
0.597875 0.432500 0.022100
0.668750 0.432500 0.022100
0.739625 0.432500 0.022100
0.810500 0.432500 0.022100
0.881375 0.432500 0.022100
0.952250 0.432500 0.022100
1.000000 0.432500 0.022100
1.000000 0.432500 0.022100
0.000000 0.500000 0.022100
0.030875 0.500000 0.022100
0.101750 0.500000 0.022100
0.172625 0.500000 0.022100
0.243500 0.500000 0.022100
0.314375 0.500000 0.022100
0.385250 0.500000 0.022100
0.456125 0.500000 0.022100
0.527000 0.500000 0.022100
0.597875 0.500000 0.022100
0.668750 0.500000 0.022100
0.739625 0.500000 0.022100
0.810500 0.500000 0.022100
0.881375 0.500000 0.022100
0.952250 0.500000 0.022100
1.000000 0.500000 0.022100
1.000000 0.500000 0.022100
0.000000 0.567500 0.022100
0.030875 0.567500 0.022100
0.101750 0.567500 0.022100
0.172625 0.567500 0.022100
0.243500 0.567500 0.022100
0.314375 0.567500 0.022100
0.385250 0.567500 0.022100
0.456125 0.567500 0.022100
0.527000 0.567500 0.022100
0.597875 0.567500 0.022100
0.668750 0.567500 0.022100
0.739625 0.567500 0.022100
0.810500 0.567500 0.022100
0.881375 0.567500 0.022100
0.952250 0.567500 0.022100
1.000000 0.567500 0.022100
1.000000 0.567500 0.022100
0.000000 0.635000 0.022100
0.030875 0.635000 0.022100
0.101750 0.635000 0.022100
0.172625 0.635000 0.022100
0.243500 0.635000 0.022100
0.314375 0.635000 0.022100
0.385250 0.635000 0.022100
0.456125 0.635000 0.022100
0.527000 0.635000 0.022100
0.597875 0.635000 0.022100
0.668750 0.635000 0.022100
0.739625 0.635000 0.022100
0.810500 0.635000 0.022100
0.881375 0.635000 0.022100
0.952250 0.635000 0.022100
1.000000 0.635000 0.022100
1.000000 0.635000 0.022100
0.000000 0.702500 0.022100
0.030875 0.702500 0.022100
0.101750 0.702500 0.022100
0.172625 0.702500 0.022100
0.243500 0.702500 0.022100
0.314375 0.702500 0.022100
0.385250 0.702500 0.022100
0.456125 0.702500 0.022100
0.527000 0.702500 0.022100
0.597875 0.702500 0.022100
0.668750 0.702500 0.022100
0.739625 0.702500 0.022100
0.810500 0.702500 0.022100
0.881375 0.702500 0.022100
0.952250 0.702500 0.022100
1.000000 0.702500 0.022100
1.000000 0.702500 0.022100
0.000000 0.770000 0.022100
0.030875 0.770000 0.022100
0.101750 0.770000 0.022100
0.172625 0.770000 0.022100
0.243500 0.770000 0.022100
0.314375 0.770000 0.022100
0.385250 0.770000 0.022100
0.456125 0.770000 0.022100
0.527000 0.770000 0.022100
0.597875 0.770000 0.022100
0.668750 0.770000 0.022100
0.739625 0.770000 0.022100
0.810500 0.770000 0.022100
0.881375 0.770000 0.022100
0.952250 0.770000 0.022100
1.000000 0.770000 0.022100
1.000000 0.770000 0.022100
0.000000 0.837500 0.022100
0.030875 0.837500 0.022100
0.101750 0.837500 0.022100
0.172625 0.837500 0.022100
0.243500 0.837500 0.022100
0.314375 0.837500 0.022100
0.385250 0.837500 0.022100
0.456125 0.837500 0.022100
0.527000 0.837500 0.022100
0.597875 0.837500 0.022100
0.668750 0.837500 0.022100
0.739625 0.837500 0.022100
0.810500 0.837500 0.022100
0.881375 0.837500 0.022100
0.952250 0.837500 0.022100
1.000000 0.837500 0.022100
1.000000 0.837500 0.022100
0.000000 0.905000 0.022100
0.030875 0.905000 0.022100
0.101750 0.905000 0.022100
0.172625 0.905000 0.022100
0.243500 0.905000 0.022100
0.314375 0.905000 0.022100
0.385250 0.905000 0.022100
0.456125 0.905000 0.022100
0.527000 0.905000 0.022100
0.597875 0.905000 0.022100
0.668750 0.905000 0.022100
0.739625 0.905000 0.022100
0.810500 0.905000 0.022100
0.881375 0.905000 0.022100
0.952250 0.905000 0.022100
1.000000 0.905000 0.022100
1.000000 0.905000 0.022100
0.000000 0.972500 0.022100
0.030875 0.972500 0.022100
0.101750 0.972500 0.022100
0.172625 0.972500 0.022100
0.243500 0.972500 0.022100
0.314375 0.972500 0.022100
0.385250 0.972500 0.022100
0.456125 0.972500 0.022100
0.527000 0.972500 0.022100
0.597875 0.972500 0.022100
0.668750 0.972500 0.022100
0.739625 0.972500 0.022100
0.810500 0.972500 0.022100
0.881375 0.972500 0.022100
0.952250 0.972500 0.022100
1.000000 0.972500 0.022100
1.000000 0.972500 0.022100
0.000000 1.000000 0.022100
0.030875 1.000000 0.022100
0.101750 1.000000 0.022100
0.172625 1.000000 0.022100
0.243500 1.000000 0.022100
0.314375 1.000000 0.022100
0.385250 1.000000 0.022100
0.456125 1.000000 0.022100
0.527000 1.000000 0.022100
0.597875 1.000000 0.022100
0.668750 1.000000 0.022100
0.739625 1.000000 0.022100
0.810500 1.000000 0.022100
0.881375 1.000000 0.022100
0.952250 1.000000 0.022100
1.000000 1.000000 0.022100
1.000000 1.000000 0.022100
0.000000 0.000000 0.084200
0.030875 0.000000 0.084200
0.101750 0.000000 0.084200
0.172625 0.000000 0.084200
0.243500 0.000000 0.084200
0.314375 0.000000 0.084200
0.385250 0.000000 0.084200
0.456125 0.000000 0.084200
0.527000 0.000000 0.084200
0.597875 0.000000 0.084200
0.668750 0.000000 0.084200
0.739625 0.000000 0.084200
0.810500 0.000000 0.084200
0.881375 0.000000 0.084200
0.952250 0.000000 0.084200
1.000000 0.000000 0.084200
1.000000 0.000000 0.084200
0.000000 0.027500 0.084200
0.030875 0.027500 0.084200
0.101750 0.027500 0.084200
0.172625 0.027500 0.084200
0.243500 0.027500 0.084200
0.314375 0.027500 0.084200
0.385250 0.027500 0.084200
0.456125 0.027500 0.084200
0.527000 0.027500 0.084200
0.597875 0.027500 0.084200
0.668750 0.027500 0.084200
0.739625 0.027500 0.084200
0.810500 0.027500 0.084200
0.881375 0.027500 0.084200
0.952250 0.027500 0.084200
1.000000 0.027500 0.084200
1.000000 0.027500 0.084200
0.000000 0.095000 0.084200
0.030875 0.095000 0.084200
0.101750 0.095000 0.084200
0.172625 0.095000 0.084200
0.243500 0.095000 0.084200
0.314375 0.095000 0.084200
0.385250 0.095000 0.084200
0.456125 0.095000 0.084200
0.527000 0.095000 0.084200
0.597875 0.095000 0.084200
0.668750 0.095000 0.084200
0.739625 0.095000 0.084200
0.810500 0.095000 0.084200
0.881375 0.095000 0.084200
0.952250 0.095000 0.084200
1.000000 0.095000 0.084200
1.000000 0.095000 0.084200
0.000000 0.162500 0.084200
0.030875 0.162500 0.084200
0.101750 0.162500 0.084200
0.172625 0.162500 0.084200
0.243500 0.162500 0.084200
0.314375 0.162500 0.084200
0.385250 0.162500 0.084200
0.456125 0.162500 0.084200
0.527000 0.162500 0.084200
0.597875 0.162500 0.084200
0.668750 0.162500 0.084200
0.739625 0.162500 0.084200
0.810500 0.162500 0.084200
0.881375 0.162500 0.084200
0.952250 0.162500 0.084200
1.000000 0.162500 0.084200
1.000000 0.162500 0.084200
0.000000 0.230000 0.084200
0.030875 0.230000 0.084200
0.101750 0.230000 0.084200
0.172625 0.230000 0.084200
0.243500 0.230000 0.084200
0.314375 0.230000 0.084200
0.385250 0.230000 0.084200
0.456125 0.230000 0.084200
0.527000 0.230000 0.084200
0.597875 0.230000 0.084200
0.668750 0.230000 0.084200
0.739625 0.230000 0.084200
0.810500 0.230000 0.084200
0.881375 0.230000 0.084200
0.952250 0.230000 0.084200
1.000000 0.230000 0.084200
1.000000 0.230000 0.084200
0.000000 0.297500 0.084200
0.030875 0.297500 0.084200
0.101750 0.297500 0.084200
0.172625 0.297500 0.084200
0.243500 0.297500 0.084200
0.314375 0.297500 0.084200
0.385250 0.297500 0.084200
0.456125 0.297500 0.084200
0.527000 0.297500 0.084200
0.597875 0.297500 0.084200
0.668750 0.297500 0.084200
0.739625 0.297500 0.084200
0.810500 0.297500 0.084200
0.881375 0.297500 0.084200
0.952250 0.297500 0.084200
1.000000 0.297500 0.084200
1.000000 0.297500 0.084200
0.000000 0.365000 0.084200
0.030875 0.365000 0.084200
0.101750 0.365000 0.084200
0.172625 0.365000 0.084200
0.243500 0.365000 0.084200
0.314375 0.365000 0.084200
0.385250 0.365000 0.084200
0.456125 0.365000 0.084200
0.527000 0.365000 0.084200
0.597875 0.365000 0.084200
0.668750 0.365000 0.084200
0.739625 0.365000 0.084200
0.810500 0.365000 0.084200
0.881375 0.365000 0.084200
0.952250 0.365000 0.084200
1.000000 0.365000 0.084200
1.000000 0.365000 0.084200
0.000000 0.432500 0.084200
0.030875 0.432500 0.084200
0.101750 0.432500 0.084200
0.172625 0.432500 0.084200
0.243500 0.432500 0.084200
0.314375 0.432500 0.084200
0.385250 0.432500 0.084200
0.456125 0.432500 0.084200
0.527000 0.432500 0.084200
0.597875 0.432500 0.084200
0.668750 0.432500 0.084200
0.739625 0.432500 0.084200
0.810500 0.432500 0.084200
0.881375 0.432500 0.084200
0.952250 0.432500 0.084200
1.000000 0.432500 0.084200
1.000000 0.432500 0.084200
0.000000 0.500000 0.084200
0.030875 0.500000 0.084200
0.101750 0.500000 0.084200
0.172625 0.500000 0.084200
0.243500 0.500000 0.084200
0.314375 0.500000 0.084200
0.385250 0.500000 0.084200
0.456125 0.500000 0.084200
0.527000 0.500000 0.084200
0.597875 0.500000 0.084200
0.668750 0.500000 0.084200
0.739625 0.500000 0.084200
0.810500 0.500000 0.084200
0.881375 0.500000 0.084200
0.952250 0.500000 0.084200
1.000000 0.500000 0.084200
1.000000 0.500000 0.084200
0.000000 0.567500 0.084200
0.030875 0.567500 0.084200
0.101750 0.567500 0.084200
0.172625 0.567500 0.084200
0.243500 0.567500 0.084200
0.314375 0.567500 0.084200
0.385250 0.567500 0.084200
0.456125 0.567500 0.084200
0.527000 0.567500 0.084200
0.597875 0.567500 0.084200
0.668750 0.567500 0.084200
0.739625 0.567500 0.084200
0.810500 0.567500 0.084200
0.881375 0.567500 0.084200
0.952250 0.567500 0.084200
1.000000 0.567500 0.084200
1.000000 0.567500 0.084200
0.000000 0.635000 0.084200
0.030875 0.635000 0.084200
0.101750 0.635000 0.084200
0.172625 0.635000 0.084200
0.243500 0.635000 0.084200
0.314375 0.635000 0.084200
0.385250 0.635000 0.084200
0.456125 0.635000 0.084200
0.527000 0.635000 0.084200
0.597875 0.635000 0.084200
0.668750 0.635000 0.084200
0.739625 0.635000 0.084200
0.810500 0.635000 0.084200
0.881375 0.635000 0.084200
0.952250 0.635000 0.084200
1.000000 0.635000 0.084200
1.000000 0.635000 0.084200
0.000000 0.702500 0.084200
0.030875 0.702500 0.084200
0.101750 0.702500 0.084200
0.172625 0.702500 0.084200
0.243500 0.702500 0.084200
0.314375 0.702500 0.084200
0.385250 0.702500 0.084200
0.456125 0.702500 0.084200
0.527000 0.702500 0.084200
0.597875 0.702500 0.084200
0.668750 0.702500 0.084200
0.739625 0.702500 0.084200
0.810500 0.702500 0.084200
0.881375 0.702500 0.084200
0.952250 0.702500 0.084200
1.000000 0.702500 0.084200
1.000000 0.702500 0.084200
0.000000 0.770000 0.084200
0.030875 0.770000 0.084200
0.101750 0.770000 0.084200
0.172625 0.770000 0.084200
0.243500 0.770000 0.084200
0.314375 0.770000 0.084200
0.385250 0.770000 0.084200
0.456125 0.770000 0.084200
0.527000 0.770000 0.084200
0.597875 0.770000 0.084200
0.668750 0.770000 0.084200
0.739625 0.770000 0.084200
0.810500 0.770000 0.084200
0.881375 0.770000 0.084200
0.952250 0.770000 0.084200
1.000000 0.770000 0.084200
1.000000 0.770000 0.084200
0.000000 0.837500 0.084200
0.030875 0.837500 0.084200
0.101750 0.837500 0.084200
0.172625 0.837500 0.084200
0.243500 0.837500 0.084200
0.314375 0.837500 0.084200
0.385250 0.837500 0.084200
0.456125 0.837500 0.084200
0.527000 0.837500 0.084200
0.597875 0.837500 0.084200
0.668750 0.837500 0.084200
0.739625 0.837500 0.084200
0.810500 0.837500 0.084200
0.881375 0.837500 0.084200
0.952250 0.837500 0.084200
1.000000 0.837500 0.084200
1.000000 0.837500 0.084200
0.000000 0.905000 0.084200
0.030875 0.905000 0.084200
0.101750 0.905000 0.084200
0.172625 0.905000 0.084200
0.243500 0.905000 0.084200
0.314375 0.905000 0.084200
0.385250 0.905000 0.084200
0.456125 0.905000 0.084200
0.527000 0.905000 0.084200
0.597875 0.905000 0.084200
0.668750 0.905000 0.084200
0.739625 0.905000 0.084200
0.810500 0.905000 0.084200
0.881375 0.905000 0.084200
0.952250 0.905000 0.084200
1.000000 0.905000 0.084200
1.000000 0.905000 0.084200
0.000000 0.972500 0.084200
0.030875 0.972500 0.084200
0.101750 0.972500 0.084200
0.172625 0.972500 0.084200
0.243500 0.972500 0.084200
0.314375 0.972500 0.084200
0.385250 0.972500 0.084200
0.456125 0.972500 0.084200
0.527000 0.972500 0.084200
0.597875 0.972500 0.084200
0.668750 0.972500 0.084200
0.739625 0.972500 0.084200
0.810500 0.972500 0.084200
0.881375 0.972500 0.084200
0.952250 0.972500 0.084200
1.000000 0.972500 0.084200
1.000000 0.972500 0.084200
0.000000 1.000000 0.084200
0.030875 1.000000 0.084200
0.101750 1.000000 0.084200
0.172625 1.000000 0.084200
0.243500 1.000000 0.084200
0.314375 1.000000 0.084200
0.385250 1.000000 0.084200
0.456125 1.000000 0.084200
0.527000 1.000000 0.084200
0.597875 1.000000 0.084200
0.668750 1.000000 0.084200
0.739625 1.000000 0.084200
0.810500 1.000000 0.084200
0.881375 1.000000 0.084200
0.952250 1.000000 0.084200
1.000000 1.000000 0.084200
1.000000 1.000000 0.084200
0.000000 0.000000 0.146300
0.030875 0.000000 0.146300
0.101750 0.000000 0.146300
0.172625 0.000000 0.146300
0.243500 0.000000 0.146300
0.314375 0.000000 0.146300
0.385250 0.000000 0.146300
0.456125 0.000000 0.146300
0.527000 0.000000 0.146300
0.597875 0.000000 0.146300
0.668750 0.000000 0.146300
0.739625 0.000000 0.146300
0.810500 0.000000 0.146300
0.881375 0.000000 0.146300
0.952250 0.000000 0.146300
1.000000 0.000000 0.146300
1.000000 0.000000 0.146300
0.000000 0.027500 0.146300
0.030875 0.027500 0.146300
0.101750 0.027500 0.146300
