director/public/luts/action_orange.cube
TITLE "Action Orange"
LUT_3D_SIZE 9
0.000000 0.000000 0.000000
0.101750 0.000000 0.000000
0.243500 0.000000 0.000000
0.385250 0.000000 0.000000
0.527000 0.000000 0.000000
0.668750 0.000000 0.000000
0.810500 0.000000 0.000000
0.952250 0.000000 0.000000
1.000000 0.000000 0.000000
0.000000 0.095000 0.000000
0.101750 0.095000 0.000000
0.243500 0.095000 0.000000
0.385250 0.095000 0.000000
0.527000 0.095000 0.000000
0.668750 0.095000 0.000000
0.810500 0.095000 0.000000
0.952250 0.095000 0.000000
1.000000 0.095000 0.000000
0.000000 0.230000 0.000000
0.101750 0.230000 0.000000
0.243500 0.230000 0.000000
0.385250 0.230000 0.000000
0.527000 0.230000 0.000000
0.668750 0.230000 0.000000
0.810500 0.230000 0.000000
0.952250 0.230000 0.000000
1.000000 0.230000 0.000000
0.000000 0.365000 0.000000
0.101750 0.365000 0.000000
0.243500 0.365000 0.000000
0.385250 0.365000 0.000000
0.527000 0.365000 0.000000
0.668750 0.365000 0.000000
0.810500 0.365000 0.000000
0.952250 0.365000 0.000000
1.000000 0.365000 0.000000
0.000000 0.500000 0.000000
0.101750 0.500000 0.000000
0.243500 0.500000 0.000000
0.385250 0.500000 0.000000
0.527000 0.500000 0.000000
0.668750 0.500000 0.000000
0.810500 0.500000 0.000000
0.952250 0.500000 0.000000
1.000000 0.500000 0.000000
0.000000 0.635000 0.000000
0.101750 0.635000 0.000000
0.243500 0.635000 0.000000
0.385250 0.635000 0.000000
0.527000 0.635000 0.000000
0.668750 0.635000 0.000000
0.810500 0.635000 0.000000
0.952250 0.635000 0.000000
1.000000 0.635000 0.000000
0.000000 0.770000 0.000000
0.101750 0.770000 0.000000
0.243500 0.770000 0.000000
0.385250 0.770000 0.000000
0.527000 0.770000 0.000000
0.668750 0.770000 0.000000
0.810500 0.770000 0.000000
0.952250 0.770000 0.000000
1.000000 0.770000 0.000000
0.000000 0.905000 0.000000
0.101750 0.905000 0.000000
0.243500 0.905000 0.000000
0.385250 0.905000 0.000000
0.527000 0.905000 0.000000
0.668750 0.905000 0.000000
0.810500 0.905000 0.000000
0.952250 0.905000 0.000000
1.000000 0.905000 0.000000
0.000000 1.000000 0.000000
0.101750 1.000000 0.000000
0.243500 1.000000 0.000000
0.385250 1.000000 0.000000
0.527000 1.000000 0.000000
0.668750 1.000000 0.000000
0.810500 1.000000 0.000000
0.952250 1.000000 0.000000
1.000000 1.000000 0.000000
0.000000 0.000000 0.084200
0.101750 0.000000 0.084200
0.243500 0.000000 0.084200
0.385250 0.000000 0.084200
0.527000 0.000000 0.084200
0.668750 0.000000 0.084200
0.810500 0.000000 0.084200
0.952250 0.000000 0.084200
1.000000 0.000000 0.084200
0.000000 0.095000 0.084200
0.101750 0.095000 0.084200
0.243500 0.095000 0.084200
0.385250 0.095000 0.084200
0.527000 0.095000 0.084200
0.668750 0.095000 0.084200
0.810500 0.095000 0.084200
0.952250 0.095000 0.084200
1.000000 0.095000 0.084200
0.000000 0.230000 0.084200
0.101750 0.230000 0.084200
0.243500 0.230000 0.084200
0.385250 0.230000 0.084200
0.527000 0.230000 0.084200
0.668750 0.230000 0.084200
0.810500 0.230000 0.084200
0.952250 0.230000 0.084200
1.000000 0.230000 0.084200
0.000000 0.365000 0.084200
0.101750 0.365000 0.084200
0.243500 0.365000 0.084200
0.385250 0.365000 0.084200
0.527000 0.365000 0.084200
0.668750 0.365000 0.084200
0.810500 0.365000 0.084200
0.952250 0.365000 0.084200
1.000000 0.365000 0.084200
0.000000 0.500000 0.084200
0.101750 0.500000 0.084200
0.243500 0.500000 0.084200
0.385250 0.500000 0.084200
0.527000 0.500000 0.084200
0.668750 0.500000 0.084200
0.810500 0.500000 0.084200
0.952250 0.500000 0.084200
1.000000 0.500000 0.084200
0.000000 0.635000 0.084200
0.101750 0.635000 0.084200
0.243500 0.635000 0.084200
0.385250 0.635000 0.084200
0.527000 0.635000 0.084200
0.668750 0.635000 0.084200
0.810500 0.635000 0.084200
0.952250 0.635000 0.084200
1.000000 0.635000 0.084200
0.000000 0.770000 0.084200
0.101750 0.770000 0.084200
0.243500 0.770000 0.084200
0.385250 0.770000 0.084200
0.527000 0.770000 0.084200
0.668750 0.770000 0.084200
0.810500 0.770000 0.084200
0.952250 0.770000 0.084200
1.000000 0.770000 0.084200
0.000000 0.905000 0.084200
0.101750 0.905000 0.084200
0.243500 0.905000 0.084200
0.385250 0.905000 0.084200
0.527000 0.905000 0.084200
0.668750 0.905000 0.084200
0.810500 0.905000 0.084200
0.952250 0.905000 0.084200
1.000000 0.905000 0.084200
0.000000 1.000000 0.084200
0.101750 1.000000 0.084200
0.243500 1.000000 0.084200
0.385250 1.000000 0.084200
0.527000 1.000000 0.084200
0.668750 1.000000 0.084200
0.810500 1.000000 0.084200
0.952250 1.000000 0.084200
1.000000 1.000000 0.084200
0.000000 0.000000 0.208400
0.101750 0.000000 0.208400
0.243500 0.000000 0.208400
0.385250 0.000000 0.208400
0.527000 0.000000 0.208400
0.668750 0.000000 0.208400
0.810500 0.000000 0.208400
0.952250 0.000000 0.208400
1.000000 0.000000 0.208400
0.000000 0.095000 0.208400
0.101750 0.095000 0.208400
0.243500 0.095000 0.208400
0.385250 0.095000 0.208400
0.527000 0.095000 0.208400
0.668750 0.095000 0.208400
0.810500 0.095000 0.208400
0.952250 0.095000 0.208400
1.000000 0.095000 0.208400
0.000000 0.230000 0.208400
0.101750 0.230000 0.208400
0.243500 0.230000 0.208400
0.385250 0.230000 0.208400
0.527000 0.230000 0.208400
0.668750 0.230000 0.208400
0.810500 0.230000 0.208400
0.952250 0.230000 0.208400
1.000000 0.230000 0.208400
0.000000 0.365000 0.208400
0.101750 0.365000 0.208400
0.243500 0.365000 0.208400
0.385250 0.365000 0.208400
0.527000 0.365000 0.208400
0.668750 0.365000 0.208400
0.810500 0.365000 0.208400
0.952250 0.365000 0.208400
1.000000 0.365000 0.208400
0.000000 0.500000 0.208400
0.101750 0.500000 0.208400
0.243500 0.500000 0.208400
0.385250 0.500000 0.208400
0.527000 0.500000 0.208400
0.668750 0.500000 0.208400
0.810500 0.500000 0.208400
0.952250 0.500000 0.208400
1.000000 0.500000 0.208400
0.000000 0.635000 0.208400
0.101750 0.635000 0.208400
0.243500 0.635000 0.208400
0.385250 0.635000 0.208400
0.527000 0.635000 0.208400
0.668750 0.635000 0.208400
0.810500 0.635000 0.208400
0.952250 0.635000 0.208400
1.000000 0.635000 0.208400
0.000000 0.770000 0.208400
0.101750 0.770000 0.208400
0.243500 0.770000 0.208400
0.385250 0.770000 0.208400
0.527000 0.770000 0.208400
0.668750 0.770000 0.208400
0.810500 0.770000 0.208400
0.952250 0.770000 0.208400
1.000000 0.770000 0.208400
0.000000 0.905000 0.208400
0.101750 0.905000 0.208400
0.243500 0.905000 0.208400
0.385250 0.905000 0.208400
0.527000 0.905000 0.208400
0.668750 0.905000 0.208400
0.810500 0.905000 0.208400
0.952250 0.905000 0.208400
1.000000 0.905000 0.208400
0.000000 1.000000 0.208400
0.101750 1.000000 0.208400
0.243500 1.000000 0.208400
0.385250 1.000000 0.208400
0.527000 1.000000 0.208400
0.668750 1.000000 0.208400
0.810500 1.000000 0.208400
0.952250 1.000000 0.208400
1.000000 1.000000 0.208400
0.000000 0.000000 0.332600
0.101750 0.000000 0.332600
0.243500 0.000000 0.332600
0.385250 0.000000 0.332600
0.527000 0.000000 0.332600
0.668750 0.000000 0.332600
0.810500 0.000000 0.332600
0.952250 0.000000 0.332600
1.000000 0.000000 0.332600
0.000000 0.095000 0.332600
0.101750 0.095000 0.332600
0.243500 0.095000 0.332600
0.385250 0.095000 0.332600
0.527000 0.095000 0.332600
0.668750 0.095000 0.332600
0.810500 0.095000 0.332600
0.952250 0.095000 0.332600
1.000000 0.095000 0.332600
0.000000 0.230000 0.332600
0.101750 0.230000 0.332600
0.243500 0.230000 0.332600
0.385250 0.230000 0.332600
0.527000 0.230000 0.332600
0.668750 0.230000 0.332600
0.810500 0.230000 0.332600
0.952250 0.230000 0.332600
1.000000 0.230000 0.332600
0.000000 0.365000 0.332600
0.101750 0.365000 0.332600
0.243500 0.365000 0.332600
0.385250 0.365000 0.332600
0.527000 0.365000 0.332600
0.668750 0.365000 0.332600
0.810500 0.365000 0.332600
0.952250 0.365000 0.332600
1.000000 0.365000 0.332600
0.000000 0.500000 0.332600
0.101750 0.500000 0.332600
0.243500 0.500000 0.332600
0.385250 0.500000 0.332600
0.527000 0.500000 0.332600
0.668750 0.500000 0.332600
0.810500 0.500000 0.332600
0.952250 0.500000 0.332600
1.000000 0.500000 0.332600
0.000000 0.635000 0.332600
0.101750 0.635000 0.332600
0.243500 0.635000 0.332600
0.385250 0.635000 0.332600
0.527000 0.635000 0.332600
0.668750 0.635000 0.332600
0.810500 0.635000 0.332600
0.952250 0.635000 0.332600
1.000000 0.635000 0.332600
0.000000 0.770000 0.332600
0.101750 0.770000 0.332600
0.243500 0.770000 0.332600
0.385250 0.770000 0.332600
0.527000 0.770000 0.332600
0.668750 0.770000 0.332600
0.810500 0.770000 0.332600
0.952250 0.770000 0.332600
1.000000 0.770000 0.332600
0.000000 0.905000 0.332600
0.101750 0.905000 0.332600
0.243500 0.905000 0.332600
0.385250 0.905000 0.332600
0.527000 0.905000 0.332600
0.668750 0.905000 0.332600
0.810500 0.905000 0.332600
0.952250 0.905000 0.332600
1.000000 0.905000 0.332600
0.000000 1.000000 0.332600
0.101750 1.000000 0.332600
0.243500 1.000000 0.332600
0.385250 1.000000 0.332600
0.527000 1.000000 0.332600
0.668750 1.000000 0.332600
0.810500 1.000000 0.332600
0.952250 1.000000 0.332600
1.000000 1.000000 0.332600
0.000000 0.000000 0.456800
0.101750 0.000000 0.456800
0.243500 0.000000 0.456800
0.385250 0.000000 0.456800
0.527000 0.000000 0.456800
0.668750 0.000000 0.456800
0.810500 0.000000 0.456800
0.952250 0.000000 0.456800
1.000000 0.000000 0.456800
0.000000 0.095000 0.456800
0.101750 0.095000 0.456800
0.243500 0.095000 0.456800
0.385250 0.095000 0.456800
0.527000 0.095000 0.456800
0.668750 0.095000 0.456800
0.810500 0.095000 0.456800
0.952250 0.095000 0.456800
1.000000 0.095000 0.456800
0.000000 0.230000 0.456800
0.101750 0.230000 0.456800
0.243500 0.230000 0.456800
0.385250 0.230000 0.456800
0.527000 0.230000 0.456800
0.668750 0.230000 0.456800
0.810500 0.230000 0.456800
0.952250 0.230000 0.456800
1.000000 0.230000 0.456800
0.000000 0.365000 0.456800
0.101750 0.365000 0.456800
0.243500 0.365000 0.456800
0.385250 0.365000 0.456800
0.527000 0.365000 0.456800
0.668750 0.365000 0.456800
0.810500 0.365000 0.456800
0.952250 0.365000 0.456800
1.000000 0.365000 0.456800
0.000000 0.500000 0.456800
0.101750 0.500000 0.456800
0.243500 0.500000 0.456800
0.385250 0.500000 0.456800
0.527000 0.500000 0.456800
0.668750 0.500000 0.456800
0.810500 0.500000 0.456800
0.952250 0.500000 0.456800
1.000000 0.500000 0.456800
0.000000 0.635000 0.456800
0.101750 0.635000 0.456800
0.243500 0.635000 0.456800
0.385250 0.635000 0.456800
0.527000 0.635000 0.456800
0.668750 0.635000 0.456800
0.810500 0.635000 0.456800
0.952250 0.635000 0.456800
1.000000 0.635000 0.456800
0.000000 0.770000 0.456800
0.101750 0.770000 0.456800
0.243500 0.770000 0.456800
0.385250 0.770000 0.456800
0.527000 0.770000 0.456800
0.668750 0.770000 0.456800
0.810500 0.770000 0.456800
0.952250 0.770000 0.456800
1.000000 0.770000 0.456800
0.000000 0.905000 0.456800
0.101750 0.905000 0.456800
0.243500 0.905000 0.456800
0.385250 0.905000 0.456800
0.527000 0.905000 0.456800
0.668750 0.905000 0.456800
0.810500 0.905000 0.456800
0.952250 0.905000 0.456800
1.000000 0.905000 0.456800
0.000000 1.000000 0.456800
0.101750 1.000000 0.456800
0.243500 1.000000 0.456800
0.385250 1.000000 0.456800
0.527000 1.000000 0.456800
0.668750 1.000000 0.456800
0.810500 1.000000 0.456800
0.952250 1.000000 0.456800
1.000000 1.000000 0.456800
0.000000 0.000000 0.581000
0.101750 0.000000 0.581000
0.243500 0.000000 0.581000
0.385250 0.000000 0.581000
0.527000 0.000000 0.581000
0.668750 0.000000 0.581000
0.810500 0.000000 0.581000
0.952250 0.000000 0.581000
1.000000 0.000000 0.581000
0.000000 0.095000 0.581000
0.101750 0.095000 0.581000
0.243500 0.095000 0.581000
0.385250 0.095000 0.581000
0.527000 0.095000 0.581000
0.668750 0.095000 0.581000
0.810500 0.095000 0.581000
0.952250 0.095000 0.581000
1.000000 0.095000 0.581000
0.000000 0.230000 0.581000
0.101750 0.230000 0.581000
0.243500 0.230000 0.581000
0.385250 0.230000 0.581000
0.527000 0.230000 0.581000
0.668750 0.230000 0.581000
0.810500 0.230000 0.581000
0.952250 0.230000 0.581000
1.000000 0.230000 0.581000
0.000000 0.365000 0.581000
0.101750 0.365000 0.581000
0.243500 0.365000 0.581000
0.385250 0.365000 0.581000
0.527000 0.365000 0.581000
0.668750 0.365000 0.581000
0.810500 0.365000 0.581000
0.952250 0.365000 0.581000
1.000000 0.365000 0.581000
0.000000 0.500000 0.581000
0.101750 0.500000 0.581000
0.243500 0.500000 0.581000
0.385250 0.500000 0.581000
0.527000 0.500000 0.581000
0.668750 0.500000 0.581000
0.810500 0.500000 0.581000
0.952250 0.500000 0.581000
1.000000 0.500000 0.581000
0.000000 0.635000 0.581000
0.101750 0.635000 0.581000
0.243500 0.635000 0.581000
0.385250 0.635000 0.581000
0.527000 0.635000 0.581000
0.668750 0.635000 0.581000
0.810500 0.635000 0.581000
0.952250 0.635000 0.581000
1.000000 0.635000 0.581000
0.000000 0.770000 0.581000
0.101750 0.770000 0.581000
0.243500 0.770000 0.581000
0.385250 0.770000 0.581000
0.527000 0.770000 0.581000
0.668750 0.770000 0.581000
0.810500 0.770000 0.581000
0.952250 0.770000 0.581000
1.000000 0.770000 0.581000
0.000000 0.905000 0.581000
0.101750 0.905000 0.581000
0.243500 0.905000 0.581000
0.385250 0.905000 0.581000
0.527000 0.905000 0.581000
0.668750 0.905000 0.581000
0.810500 0.905000 0.581000
0.952250 0.905000 0.581000
1.000000 0.905000 0.581000
0.000000 1.000000 0.581000
0.101750 1.000000 0.581000
0.243500 1.000000 0.581000
0.385250 1.000000 0.581000
0.527000 1.000000 0.581000
0.668750 1.000000 0.581000
0.810500 1.000000 0.581000
0.952250 1.000000 0.581000
1.000000 1.000000 0.581000
0.000000 0.000000 0.705200
0.101750 0.000000 0.705200
0.243500 0.000000 0.705200
0.385250 0.000000 0.705200
0.527000 0.000000 0.705200
0.668750 0.000000 0.705200
0.810500 0.000000 0.705200
0.952250 0.000000 0.705200
1.000000 0.000000 0.705200
0.000000 0.095000 0.705200
0.101750 0.095000 0.705200
0.243500 0.095000 0.705200
0.385250 0.095000 0.705200
0.527000 0.095000 0.705200
0.668750 0.095000 0.705200
0.810500 0.095000 0.705200
0.952250 0.095000 0.705200
1.000000 0.095000 0.705200
0.000000 0.230000 0.705200
0.101750 0.230000 0.705200
0.243500 0.230000 0.705200
0.385250 0.230000 0.705200
0.527000 0.230000 0.705200
0.668750 0.230000 0.705200
0.810500 0.230000 0.705200
0.952250 0.230000 0.705200
1.000000 0.230000 0.705200
0.000000 0.365000 0.705200
0.101750 0.365000 0.705200
0.243500 0.365000 0.705200
0.385250 0.365000 0.705200
0.527000 0.365000 0.705200
0.668750 0.365000 0.705200
0.810500 0.365000 0.705200
0.952250 0.365000 0.705200
1.000000 0.365000 0.705200
0.000000 0.500000 0.705200
0.101750 0.500000 0.705200
0.243500 0.500000 0.705200
0.385250 0.500000 0.705200
0.527000 0.500000 0.705200
0.668750 0.500000 0.705200
0.810500 0.500000 0.705200
0.952250 0.500000 0.705200
1.000000 0.500000 0.705200
0.000000 0.635000 0.705200
0.101750 0.635000 0.705200
0.243500 0.635000 0.705200
0.385250 0.635000 0.705200
0.527000 0.635000 0.705200
0.668750 0.635000 0.705200
0.810500 0.635000 0.705200
0.952250 0.635000 0.705200
1.000000 0.635000 0.705200
0.000000 0.770000 0.705200
0.101750 0.770000 0.705200
0.243500 0.770000 0.705200
0.385250 0.770000 0.705200
0.527000 0.770000 0.705200
0.668750 0.770000 0.705200
0.810500 0.770000 0.705200
0.952250 0.770000 0.705200
1.000000 0.770000 0.705200
0.000000 0.905000 0.705200
0.101750 0.905000 0.705200
0.243500 0.905000 0.705200
0.385250 0.905000 0.705200
0.527000 0.905000 0.705200
0.668750 0.905000 0.705200
0.810500 0.905000 0.705200
0.952250 0.905000 0.705200
1.000000 0.905000 0.705200
0.000000 1.000000 0.705200
0.101750 1.000000 0.705200
0.243500 1.000000 0.705200
0.385250 1.000000 0.705200
0.527000 1.000000 0.705200
0.668750 1.000000 0.705200
0.810500 1.000000 0.705200
0.952250 1.000000 0.705200
1.000000 1.000000 0.705200
0.000000 0.000000 0.829400
0.101750 0.000000 0.829400
0.243500 0.000000 0.829400
0.385250 0.000000 0.829400
0.527000 0.000000 0.829400
0.668750 0.000000 0.829400
0.810500 0.000000 0.829400
0.952250 0.000000 0.829400
1.000000 0.000000 0.829400
0.000000 0.095000 0.829400
0.101750 0.095000 0.829400
0.243500 0.095000 0.829400
0.385250 0.095000 0.829400
0.527000 0.095000 0.829400
0.668750 0.095000 0.829400
0.810500 0.095000 0.829400
0.952250 0.095000 0.829400
1.000000 0.095000 0.829400
0.000000 0.230000 0.829400
0.101750 0.230000 0.829400
0.243500 0.230000 0.829400
0.385250 0.230000 0.829400
0.527000 0.230000 0.829400
0.668750 0.230000 0.829400
0.810500 0.230000 0.829400
0.952250 0.230000 0.829400
1.000000 0.230000 0.829400
0.000000 0.365000 0.829400
0.101750 0.365000 0.829400
0.243500 0.365000 0.829400
0.385250 0.365000 0.829400
0.527000 0.365000 0.829400
0.668750 0.365000 0.829400
0.810500 0.365000 0.829400
0.952250 0.365000 0.829400
1.000000 0.365000 0.829400
0.000000 0.500000 0.829400
0.101750 0.500000 0.829400
0.243500 0.500000 0.829400
0.385250 0.500000 0.829400
0.527000 0.500000 0.829400
0.668750 0.500000 0.829400
0.810500 0.500000 0.829400
0.952250 0.500000 0.829400
1.000000 0.500000 0.829400
0.000000 0.635000 0.829400
0.101750 0.635000 0.829400
0.243500 0.635000 0.829400
0.385250 0.635000 0.829400
0.527000 0.635000 0.829400
0.668750 0.635000 0.829400
0.810500 0.635000 0.829400
0.952250 0.635000 0.829400
1.000000 0.635000 0.829400
0.000000 0.770000 0.829400
0.101750 0.770000 0.829400
0.243500 0.770000 0.829400
0.385250 0.770000 0.829400
0.527000 0.770000 0.829400
0.668750 0.770000 0.829400
0.810500 0.770000 0.829400
0.952250 0.770000 0.829400
1.000000 0.770000 0.829400
0.000000 0.905000 0.829400
0.101750 0.905000 0.829400
0.243500 0.905000 0.829400
0.385250 0.905000 0.829400
0.527000 0.905000 0.829400
0.668750 0.905000 0.829400
0.810500 0.905000 0.829400
0.952250 0.905000 0.829400
1.000000 0.905000 0.829400
0.000000 1.000000 0.829400
0.101750 1.000000 0.829400
0.243500 1.000000 0.829400
0.385250 1.000000 0.829400
0.527000 1.000000 0.829400
0.668750 1.000000 0.829400
0.810500 1.000000 0.829400
0.952250 1.000000 0.829400
1.000000 1.000000 0.829400
0.000000 0.000000 0.953600
0.101750 0.000000 0.953600
0.243500 0.000000 0.953600
0.385250 0.000000 0.953600
0.527000 0.000000 0.953600
0.668750 0.000000 0.953600
0.810500 0.000000 0.953600
0.952250 0.000000 0.953600
1.000000 0.000000 0.953600
0.000000 0.095000 0.953600
0.101750 0.095000 0.953600
0.243500 0.095000 0.953600
0.385250 0.095000 0.953600
0.527000 0.095000 0.953600
0.668750 0.095000 0.953600
0.810500 0.095000 0.953600
0.952250 0.095000 0.953600
1.000000 0.095000 0.953600
0.000000 0.230000 0.953600
0.101750 0.230000 0.953600
0.243500 0.230000 0.953600
0.385250 0.230000 0.953600
0.527000 0.230000 0.953600
0.668750 0.230000 0.953600
0.810500 0.230000 0.953600
0.952250 0.230000 0.953600
1.000000 0.230000 0.953600
0.000000 0.365000 0.953600
0.101750 0.365000 0.953600
0.243500 0.365000 0.953600
0.385250 0.365000 0.953600
0.527000 0.365000 0.953600
0.668750 0.365000 0.953600
0.810500 0.365000 0.953600
0.952250 0.365000 0.953600
1.000000 0.365000 0.953600
0.000000 0.500000 0.953600
0.101750 0.500000 0.953600
0.243500 0.500000 0.953600
0.385250 0.500000 0.953600
0.527000 0.500000 0.953600
0.668750 0.500000 0.953600
0.810500 0.500000 0.953600
0.952250 0.500000 0.953600
1.000000 0.500000 0.953600
0.000000 0.635000 0.953600
0.101750 0.635000 0.953600
0.243500 0.635000 0.953600
0.385250 0.635000 0.953600
0.527000 0.635000 0.953600
0.668750 0.635000 0.953600
0.810500 0.635000 0.953600
0.952250 0.635000 0.953600
1.000000 0.635000 0.953600
0.000000 0.770000 0.953600
0.101750 0.770000 0.953600
0.243500 0.770000 0.953600
0.385250 0.770000 0.953600
0.527000 0.770000 0.953600
0.668750 0.770000 0.953600
0.810500 0.770000 0.953600
0.952250 0.770000 0.953600
1.000000 0.770000 0.953600
0.000000 0.905000 0.953600
0.101750 0.905000 0.953600
0.243500 0.905000 0.953600
0.385250 0.905000 0.953600
0.527000 0.905000 0.953600
0.668750 0.905000 0.953600
0.810500 0.905000 0.953600
0.952250 0.905000 0.953600
1.000000 0.905000 0.953600
0.000000 1.000000 0.953600
0.101750 1.000000 0.953600
0.243500 1.000000 0.953600
0.385250 1.000000 0.953600
0.527000 1.000000 0.953600
0.668750 1.000000 0.953600
0.810500 1.000000 0.953600
0.952250 1.000000 0.953600
1.000000 1.000000 0.953600
