director/public/luts/cyber_purple.cube
TITLE "Cyber Purple"
LUT_3D_SIZE 9
0.000000 0.000000 0.000000
0.099050 0.000000 0.000000
0.238100 0.000000 0.000000
0.377150 0.000000 0.000000
0.516200 0.000000 0.000000
0.655250 0.000000 0.000000
0.794300 0.000000 0.000000
0.933350 0.000000 0.000000
1.000000 0.000000 0.000000
0.000000 0.086900 0.000000
0.099050 0.086900 0.000000
0.238100 0.086900 0.000000
0.377150 0.086900 0.000000
0.516200 0.086900 0.000000
0.655250 0.086900 0.000000
0.794300 0.086900 0.000000
0.933350 0.086900 0.000000
1.000000 0.086900 0.000000
0.000000 0.213800 0.000000
0.099050 0.213800 0.000000
0.238100 0.213800 0.000000
0.377150 0.213800 0.000000
0.516200 0.213800 0.000000
0.655250 0.213800 0.000000
0.794300 0.213800 0.000000
0.933350 0.213800 0.000000
1.000000 0.213800 0.000000
0.000000 0.340700 0.000000
0.099050 0.340700 0.000000
0.238100 0.340700 0.000000
0.377150 0.340700 0.000000
0.516200 0.340700 0.000000
0.655250 0.340700 0.000000
0.794300 0.340700 0.000000
0.933350 0.340700 0.000000
1.000000 0.340700 0.000000
0.000000 0.467600 0.000000
0.099050 0.467600 0.000000
0.238100 0.467600 0.000000
0.377150 0.467600 0.000000
0.516200 0.467600 0.000000
0.655250 0.467600 0.000000
0.794300 0.467600 0.000000
0.933350 0.467600 0.000000
1.000000 0.467600 0.000000
0.000000 0.594500 0.000000
0.099050 0.594500 0.000000
0.238100 0.594500 0.000000
0.377150 0.594500 0.000000
0.516200 0.594500 0.000000
0.655250 0.594500 0.000000
0.794300 0.594500 0.000000
0.933350 0.594500 0.000000
1.000000 0.594500 0.000000
0.000000 0.721400 0.000000
0.099050 0.721400 0.000000
0.238100 0.721400 0.000000
0.377150 0.721400 0.000000
0.516200 0.721400 0.000000
0.655250 0.721400 0.000000
0.794300 0.721400 0.000000
0.933350 0.721400 0.000000
1.000000 0.721400 0.000000
0.000000 0.848300 0.000000
0.099050 0.848300 0.000000
0.238100 0.848300 0.000000
0.377150 0.848300 0.000000
0.516200 0.848300 0.000000
0.655250 0.848300 0.000000
0.794300 0.848300 0.000000
0.933350 0.848300 0.000000
1.000000 0.848300 0.000000
0.000000 0.975200 0.000000
0.099050 0.975200 0.000000
0.238100 0.975200 0.000000
0.377150 0.975200 0.000000
0.516200 0.975200 0.000000
0.655250 0.975200 0.000000
0.794300 0.975200 0.000000
0.933350 0.975200 0.000000
1.000000 0.975200 0.000000
0.000000 0.000000 0.103100
0.099050 0.000000 0.103100
0.238100 0.000000 0.103100
0.377150 0.000000 0.103100
0.516200 0.000000 0.103100
0.655250 0.000000 0.103100
0.794300 0.000000 0.103100
0.933350 0.000000 0.103100
1.000000 0.000000 0.103100
0.000000 0.086900 0.103100
0.099050 0.086900 0.103100
0.238100 0.086900 0.103100
0.377150 0.086900 0.103100
0.516200 0.086900 0.103100
0.655250 0.086900 0.103100
0.794300 0.086900 0.103100
0.933350 0.086900 0.103100
1.000000 0.086900 0.103100
0.000000 0.213800 0.103100
0.099050 0.213800 0.103100
0.238100 0.213800 0.103100
0.377150 0.213800 0.103100
0.516200 0.213800 0.103100
0.655250 0.213800 0.103100
0.794300 0.213800 0.103100
0.933350 0.213800 0.103100
1.000000 0.213800 0.103100
0.000000 0.340700 0.103100
0.099050 0.340700 0.103100
0.238100 0.340700 0.103100
0.377150 0.340700 0.103100
0.516200 0.340700 0.103100
0.655250 0.340700 0.103100
0.794300 0.340700 0.103100
0.933350 0.340700 0.103100
1.000000 0.340700 0.103100
0.000000 0.467600 0.103100
0.099050 0.467600 0.103100
0.238100 0.467600 0.103100
0.377150 0.467600 0.103100
0.516200 0.467600 0.103100
0.655250 0.467600 0.103100
0.794300 0.467600 0.103100
0.933350 0.467600 0.103100
1.000000 0.467600 0.103100
0.000000 0.594500 0.103100
0.099050 0.594500 0.103100
0.238100 0.594500 0.103100
0.377150 0.594500 0.103100
0.516200 0.594500 0.103100
0.655250 0.594500 0.103100
0.794300 0.594500 0.103100
0.933350 0.594500 0.103100
1.000000 0.594500 0.103100
0.000000 0.721400 0.103100
0.099050 0.721400 0.103100
0.238100 0.721400 0.103100
0.377150 0.721400 0.103100
0.516200 0.721400 0.103100
0.655250 0.721400 0.103100
0.794300 0.721400 0.103100
0.933350 0.721400 0.103100
1.000000 0.721400 0.103100
0.000000 0.848300 0.103100
0.099050 0.848300 0.103100
0.238100 0.848300 0.103100
0.377150 0.848300 0.103100
0.516200 0.848300 0.103100
0.655250 0.848300 0.103100
0.794300 0.848300 0.103100
0.933350 0.848300 0.103100
1.000000 0.848300 0.103100
0.000000 0.975200 0.103100
0.099050 0.975200 0.103100
0.238100 0.975200 0.103100
0.377150 0.975200 0.103100
0.516200 0.975200 0.103100
0.655250 0.975200 0.103100
0.794300 0.975200 0.103100
0.933350 0.975200 0.103100
1.000000 0.975200 0.103100
0.000000 0.000000 0.246200
0.099050 0.000000 0.246200
0.238100 0.000000 0.246200
0.377150 0.000000 0.246200
0.516200 0.000000 0.246200
0.655250 0.000000 0.246200
0.794300 0.000000 0.246200
0.933350 0.000000 0.246200
1.000000 0.000000 0.246200
0.000000 0.086900 0.246200
0.099050 0.086900 0.246200
0.238100 0.086900 0.246200
0.377150 0.086900 0.246200
0.516200 0.086900 0.246200
0.655250 0.086900 0.246200
0.794300 0.086900 0.246200
0.933350 0.086900 0.246200
1.000000 0.086900 0.246200
0.000000 0.213800 0.246200
0.099050 0.213800 0.246200
0.238100 0.213800 0.246200
0.377150 0.213800 0.246200
0.516200 0.213800 0.246200
0.655250 0.213800 0.246200
0.794300 0.213800 0.246200
0.933350 0.213800 0.246200
1.000000 0.213800 0.246200
0.000000 0.340700 0.246200
0.099050 0.340700 0.246200
0.238100 0.340700 0.246200
0.377150 0.340700 0.246200
0.516200 0.340700 0.246200
0.655250 0.340700 0.246200
0.794300 0.340700 0.246200
0.933350 0.340700 0.246200
1.000000 0.340700 0.246200
0.000000 0.467600 0.246200
0.099050 0.467600 0.246200
0.238100 0.467600 0.246200
0.377150 0.467600 0.246200
0.516200 0.467600 0.246200
0.655250 0.467600 0.246200
0.794300 0.467600 0.246200
0.933350 0.467600 0.246200
1.000000 0.467600 0.246200
0.000000 0.594500 0.246200
0.099050 0.594500 0.246200
0.238100 0.594500 0.246200
0.377150 0.594500 0.246200
0.516200 0.594500 0.246200
0.655250 0.594500 0.246200
0.794300 0.594500 0.246200
0.933350 0.594500 0.246200
1.000000 0.594500 0.246200
0.000000 0.721400 0.246200
0.099050 0.721400 0.246200
0.238100 0.721400 0.246200
0.377150 0.721400 0.246200
0.516200 0.721400 0.246200
0.655250 0.721400 0.246200
0.794300 0.721400 0.246200
0.933350 0.721400 0.246200
1.000000 0.721400 0.246200
0.000000 0.848300 0.246200
0.099050 0.848300 0.246200
0.238100 0.848300 0.246200
0.377150 0.848300 0.246200
0.516200 0.848300 0.246200
0.655250 0.848300 0.246200
0.794300 0.848300 0.246200
0.933350 0.848300 0.246200
1.000000 0.848300 0.246200
0.000000 0.975200 0.246200
0.099050 0.975200 0.246200
0.238100 0.975200 0.246200
0.377150 0.975200 0.246200
0.516200 0.975200 0.246200
0.655250 0.975200 0.246200
0.794300 0.975200 0.246200
0.933350 0.975200 0.246200
1.000000 0.975200 0.246200
0.000000 0.000000 0.389300
0.099050 0.000000 0.389300
0.238100 0.000000 0.389300
0.377150 0.000000 0.389300
0.516200 0.000000 0.389300
0.655250 0.000000 0.389300
0.794300 0.000000 0.389300
0.933350 0.000000 0.389300
1.000000 0.000000 0.389300
0.000000 0.086900 0.389300
0.099050 0.086900 0.389300
0.238100 0.086900 0.389300
0.377150 0.086900 0.389300
0.516200 0.086900 0.389300
0.655250 0.086900 0.389300
0.794300 0.086900 0.389300
0.933350 0.086900 0.389300
1.000000 0.086900 0.389300
0.000000 0.213800 0.389300
0.099050 0.213800 0.389300
0.238100 0.213800 0.389300
0.377150 0.213800 0.389300
0.516200 0.213800 0.389300
0.655250 0.213800 0.389300
0.794300 0.213800 0.389300
0.933350 0.213800 0.389300
1.000000 0.213800 0.389300
0.000000 0.340700 0.389300
0.099050 0.340700 0.389300
0.238100 0.340700 0.389300
0.377150 0.340700 0.389300
0.516200 0.340700 0.389300
0.655250 0.340700 0.389300
0.794300 0.340700 0.389300
0.933350 0.340700 0.389300
1.000000 0.340700 0.389300
0.000000 0.467600 0.389300
0.099050 0.467600 0.389300
0.238100 0.467600 0.389300
0.377150 0.467600 0.389300
0.516200 0.467600 0.389300
0.655250 0.467600 0.389300
0.794300 0.467600 0.389300
0.933350 0.467600 0.389300
1.000000 0.467600 0.389300
0.000000 0.594500 0.389300
0.099050 0.594500 0.389300
0.238100 0.594500 0.389300
0.377150 0.594500 0.389300
0.516200 0.594500 0.389300
0.655250 0.594500 0.389300
0.794300 0.594500 0.389300
0.933350 0.594500 0.389300
1.000000 0.594500 0.389300
0.000000 0.721400 0.389300
0.099050 0.721400 0.389300
0.238100 0.721400 0.389300
0.377150 0.721400 0.389300
0.516200 0.721400 0.389300
0.655250 0.721400 0.389300
0.794300 0.721400 0.389300
0.933350 0.721400 0.389300
1.000000 0.721400 0.389300
0.000000 0.848300 0.389300
0.099050 0.848300 0.389300
0.238100 0.848300 0.389300
0.377150 0.848300 0.389300
0.516200 0.848300 0.389300
0.655250 0.848300 0.389300
0.794300 0.848300 0.389300
0.933350 0.848300 0.389300
1.000000 0.848300 0.389300
0.000000 0.975200 0.389300
0.099050 0.975200 0.389300
0.238100 0.975200 0.389300
0.377150 0.975200 0.389300
0.516200 0.975200 0.389300
0.655250 0.975200 0.389300
0.794300 0.975200 0.389300
0.933350 0.975200 0.389300
1.000000 0.975200 0.389300
0.000000 0.000000 0.532400
0.099050 0.000000 0.532400
0.238100 0.000000 0.532400
0.377150 0.000000 0.532400
0.516200 0.000000 0.532400
0.655250 0.000000 0.532400
0.794300 0.000000 0.532400
0.933350 0.000000 0.532400
1.000000 0.000000 0.532400
0.000000 0.086900 0.532400
0.099050 0.086900 0.532400
0.238100 0.086900 0.532400
0.377150 0.086900 0.532400
0.516200 0.086900 0.532400
0.655250 0.086900 0.532400
0.794300 0.086900 0.532400
0.933350 0.086900 0.532400
1.000000 0.086900 0.532400
0.000000 0.213800 0.532400
0.099050 0.213800 0.532400
0.238100 0.213800 0.532400
0.377150 0.213800 0.532400
0.516200 0.213800 0.532400
0.655250 0.213800 0.532400
0.794300 0.213800 0.532400
0.933350 0.213800 0.532400
1.000000 0.213800 0.532400
0.000000 0.340700 0.532400
0.099050 0.340700 0.532400
0.238100 0.340700 0.532400
0.377150 0.340700 0.532400
0.516200 0.340700 0.532400
0.655250 0.340700 0.532400
0.794300 0.340700 0.532400
0.933350 0.340700 0.532400
1.000000 0.340700 0.532400
0.000000 0.467600 0.532400
0.099050 0.467600 0.532400
0.238100 0.467600 0.532400
0.377150 0.467600 0.532400
0.516200 0.467600 0.532400
0.655250 0.467600 0.532400
0.794300 0.467600 0.532400
0.933350 0.467600 0.532400
1.000000 0.467600 0.532400
0.000000 0.594500 0.532400
0.099050 0.594500 0.532400
0.238100 0.594500 0.532400
0.377150 0.594500 0.532400
0.516200 0.594500 0.532400
0.655250 0.594500 0.532400
0.794300 0.594500 0.532400
0.933350 0.594500 0.532400
1.000000 0.594500 0.532400
0.000000 0.721400 0.532400
0.099050 0.721400 0.532400
0.238100 0.721400 0.532400
0.377150 0.721400 0.532400
0.516200 0.721400 0.532400
0.655250 0.721400 0.532400
0.794300 0.721400 0.532400
0.933350 0.721400 0.532400
1.000000 0.721400 0.532400
0.000000 0.848300 0.532400
0.099050 0.848300 0.532400
0.238100 0.848300 0.532400
0.377150 0.848300 0.532400
0.516200 0.848300 0.532400
0.655250 0.848300 0.532400
0.794300 0.848300 0.532400
0.933350 0.848300 0.532400
1.000000 0.848300 0.532400
0.000000 0.975200 0.532400
0.099050 0.975200 0.532400
0.238100 0.975200 0.532400
0.377150 0.975200 0.532400
0.516200 0.975200 0.532400
0.655250 0.975200 0.532400
0.794300 0.975200 0.532400
0.933350 0.975200 0.532400
1.000000 0.975200 0.532400
0.000000 0.000000 0.675500
0.099050 0.000000 0.675500
0.238100 0.000000 0.675500
0.377150 0.000000 0.675500
0.516200 0.000000 0.675500
0.655250 0.000000 0.675500
0.794300 0.000000 0.675500
0.933350 0.000000 0.675500
1.000000 0.000000 0.675500
0.000000 0.086900 0.675500
0.099050 0.086900 0.675500
0.238100 0.086900 0.675500
0.377150 0.086900 0.675500
0.516200 0.086900 0.675500
0.655250 0.086900 0.675500
0.794300 0.086900 0.675500
0.933350 0.086900 0.675500
1.000000 0.086900 0.675500
0.000000 0.213800 0.675500
0.099050 0.213800 0.675500
0.238100 0.213800 0.675500
0.377150 0.213800 0.675500
0.516200 0.213800 0.675500
0.655250 0.213800 0.675500
0.794300 0.213800 0.675500
0.933350 0.213800 0.675500
1.000000 0.213800 0.675500
0.000000 0.340700 0.675500
0.099050 0.340700 0.675500
0.238100 0.340700 0.675500
0.377150 0.340700 0.675500
0.516200 0.340700 0.675500
0.655250 0.340700 0.675500
0.794300 0.340700 0.675500
0.933350 0.340700 0.675500
1.000000 0.340700 0.675500
0.000000 0.467600 0.675500
0.099050 0.467600 0.675500
0.238100 0.467600 0.675500
0.377150 0.467600 0.675500
0.516200 0.467600 0.675500
0.655250 0.467600 0.675500
0.794300 0.467600 0.675500
0.933350 0.467600 0.675500
1.000000 0.467600 0.675500
0.000000 0.594500 0.675500
0.099050 0.594500 0.675500
0.238100 0.594500 0.675500
0.377150 0.594500 0.675500
0.516200 0.594500 0.675500
0.655250 0.594500 0.675500
0.794300 0.594500 0.675500
0.933350 0.594500 0.675500
1.000000 0.594500 0.675500
0.000000 0.721400 0.675500
0.099050 0.721400 0.675500
0.238100 0.721400 0.675500
0.377150 0.721400 0.675500
0.516200 0.721400 0.675500
0.655250 0.721400 0.675500
0.794300 0.721400 0.675500
0.933350 0.721400 0.675500
1.000000 0.721400 0.675500
0.000000 0.848300 0.675500
0.099050 0.848300 0.675500
0.238100 0.848300 0.675500
0.377150 0.848300 0.675500
0.516200 0.848300 0.675500
0.655250 0.848300 0.675500
0.794300 0.848300 0.675500
0.933350 0.848300 0.675500
1.000000 0.848300 0.675500
0.000000 0.975200 0.675500
0.099050 0.975200 0.675500
0.238100 0.975200 0.675500
0.377150 0.975200 0.675500
0.516200 0.975200 0.675500
0.655250 0.975200 0.675500
0.794300 0.975200 0.675500
0.933350 0.975200 0.675500
1.000000 0.975200 0.675500
0.000000 0.000000 0.818600
0.099050 0.000000 0.818600
0.238100 0.000000 0.818600
0.377150 0.000000 0.818600
0.516200 0.000000 0.818600
0.655250 0.000000 0.818600
0.794300 0.000000 0.818600
0.933350 0.000000 0.818600
1.000000 0.000000 0.818600
0.000000 0.086900 0.818600
0.099050 0.086900 0.818600
0.238100 0.086900 0.818600
0.377150 0.086900 0.818600
0.516200 0.086900 0.818600
0.655250 0.086900 0.818600
0.794300 0.086900 0.818600
0.933350 0.086900 0.818600
1.000000 0.086900 0.818600
0.000000 0.213800 0.818600
0.099050 0.213800 0.818600
0.238100 0.213800 0.818600
0.377150 0.213800 0.818600
0.516200 0.213800 0.818600
0.655250 0.213800 0.818600
0.794300 0.213800 0.818600
0.933350 0.213800 0.818600
1.000000 0.213800 0.818600
0.000000 0.340700 0.818600
0.099050 0.340700 0.818600
0.238100 0.340700 0.818600
0.377150 0.340700 0.818600
0.516200 0.340700 0.818600
0.655250 0.340700 0.818600
0.794300 0.340700 0.818600
0.933350 0.340700 0.818600
1.000000 0.340700 0.818600
0.000000 0.467600 0.818600
0.099050 0.467600 0.818600
0.238100 0.467600 0.818600
0.377150 0.467600 0.818600
0.516200 0.467600 0.818600
0.655250 0.467600 0.818600
0.794300 0.467600 0.818600
0.933350 0.467600 0.818600
1.000000 0.467600 0.818600
0.000000 0.594500 0.818600
0.099050 0.594500 0.818600
0.238100 0.594500 0.818600
0.377150 0.594500 0.818600
0.516200 0.594500 0.818600
0.655250 0.594500 0.818600
0.794300 0.594500 0.818600
0.933350 0.594500 0.818600
1.000000 0.594500 0.818600
0.000000 0.721400 0.818600
0.099050 0.721400 0.818600
0.238100 0.721400 0.818600
0.377150 0.721400 0.818600
0.516200 0.721400 0.818600
0.655250 0.721400 0.818600
0.794300 0.721400 0.818600
0.933350 0.721400 0.818600
1.000000 0.721400 0.818600
0.000000 0.848300 0.818600
0.099050 0.848300 0.818600
0.238100 0.848300 0.818600
0.377150 0.848300 0.818600
0.516200 0.848300 0.818600
0.655250 0.848300 0.818600
0.794300 0.848300 0.818600
0.933350 0.848300 0.818600
1.000000 0.848300 0.818600
0.000000 0.975200 0.818600
0.099050 0.975200 0.818600
0.238100 0.975200 0.818600
0.377150 0.975200 0.818600
0.516200 0.975200 0.818600
0.655250 0.975200 0.818600
0.794300 0.975200 0.818600
0.933350 0.975200 0.818600
1.000000 0.975200 0.818600
0.000000 0.000000 0.961700
0.099050 0.000000 0.961700
0.238100 0.000000 0.961700
0.377150 0.000000 0.961700
0.516200 0.000000 0.961700
0.655250 0.000000 0.961700
0.794300 0.000000 0.961700
0.933350 0.000000 0.961700
1.000000 0.000000 0.961700
0.000000 0.086900 0.961700
0.099050 0.086900 0.961700
0.238100 0.086900 0.961700
0.377150 0.086900 0.961700
0.516200 0.086900 0.961700
0.655250 0.086900 0.961700
0.794300 0.086900 0.961700
0.933350 0.086900 0.961700
1.000000 0.086900 0.961700
0.000000 0.213800 0.961700
0.099050 0.213800 0.961700
0.238100 0.213800 0.961700
0.377150 0.213800 0.961700
0.516200 0.213800 0.961700
0.655250 0.213800 0.961700
0.794300 0.213800 0.961700
0.933350 0.213800 0.961700
1.000000 0.213800 0.961700
0.000000 0.340700 0.961700
0.099050 0.340700 0.961700
0.238100 0.340700 0.961700
0.377150 0.340700 0.961700
0.516200 0.340700 0.961700
0.655250 0.340700 0.961700
0.794300 0.340700 0.961700
0.933350 0.340700 0.961700
1.000000 0.340700 0.961700
0.000000 0.467600 0.961700
0.099050 0.467600 0.961700
0.238100 0.467600 0.961700
0.377150 0.467600 0.961700
0.516200 0.467600 0.961700
0.655250 0.467600 0.961700
0.794300 0.467600 0.961700
0.933350 0.467600 0.961700
1.000000 0.467600 0.961700
0.000000 0.594500 0.961700
0.099050 0.594500 0.961700
0.238100 0.594500 0.961700
0.377150 0.594500 0.961700
0.516200 0.594500 0.961700
0.655250 0.594500 0.961700
0.794300 0.594500 0.961700
0.933350 0.594500 0.961700
1.000000 0.594500 0.961700
0.000000 0.721400 0.961700
0.099050 0.721400 0.961700
0.238100 0.721400 0.961700
0.377150 0.721400 0.961700
0.516200 0.721400 0.961700
0.655250 0.721400 0.961700
0.794300 0.721400 0.961700
0.933350 0.721400 0.961700
1.000000 0.721400 0.961700
0.000000 0.848300 0.961700
0.099050 0.848300 0.961700
0.238100 0.848300 0.961700
0.377150 0.848300 0.961700
0.516200 0.848300 0.961700
0.655250 0.848300 0.961700
0.794300 0.848300 0.961700
0.933350 0.848300 0.961700
1.000000 0.848300 0.961700
0.000000 0.975200 0.961700
0.099050 0.975200 0.961700
0.238100 0.975200 0.961700
0.377150 0.975200 0.961700
0.516200 0.975200 0.961700
0.655250 0.975200 0.961700
0.794300 0.975200 0.961700
0.933350 0.975200 0.961700
1.000000 0.975200 0.961700
0.000000 0.000000 1.000000
0.099050 0.000000 1.000000
0.238100 0.000000 1.000000
0.377150 0.000000 1.000000
0.516200 0.000000 1.000000
0.655250 0.000000 1.000000
0.794300 0.000000 1.000000
0.933350 0.000000 1.000000
1.000000 0.000000 1.000000
0.000000 0.086900 1.000000
0.099050 0.086900 1.000000
0.238100 0.086900 1.000000
0.377150 0.086900 1.000000
0.516200 0.086900 1.000000
0.655250 0.086900 1.000000
0.794300 0.086900 1.000000
0.933350 0.086900 1.000000
1.000000 0.086900 1.000000
0.000000 0.213800 1.000000
0.099050 0.213800 1.000000
0.238100 0.213800 1.000000
0.377150 0.213800 1.000000
0.516200 0.213800 1.000000
0.655250 0.213800 1.000000
0.794300 0.213800 1.000000
0.933350 0.213800 1.000000
1.000000 0.213800 1.000000
0.000000 0.340700 1.000000
0.099050 0.340700 1.000000
0.238100 0.340700 1.000000
0.377150 0.340700 1.000000
0.516200 0.340700 1.000000
0.655250 0.340700 1.000000
0.794300 0.340700 1.000000
0.933350 0.340700 1.000000
1.000000 0.340700 1.000000
0.000000 0.467600 1.000000
0.099050 0.467600 1.000000
0.238100 0.467600 1.000000
0.377150 0.467600 1.000000
0.516200 0.467600 1.000000
0.655250 0.467600 1.000000
0.794300 0.467600 1.000000
0.933350 0.467600 1.000000
1.000000 0.467600 1.000000
0.000000 0.594500 1.000000
0.099050 0.594500 1.000000
0.238100 0.594500 1.000000
0.377150 0.594500 1.000000
0.516200 0.594500 1.000000
0.655250 0.594500 1.000000
0.794300 0.594500 1.000000
0.933350 0.594500 1.000000
1.000000 0.594500 1.000000
0.000000 0.721400 1.000000
0.099050 0.721400 1.000000
0.238100 0.721400 1.000000
0.377150 0.721400 1.000000
0.516200 0.721400 1.000000
0.655250 0.721400 1.000000
0.794300 0.721400 1.000000
0.933350 0.721400 1.000000
1.000000 0.721400 1.000000
0.000000 0.848300 1.000000
0.099050 0.848300 1.000000
0.238100 0.848300 1.000000
0.377150 0.848300 1.000000
0.516200 0.848300 1.000000
0.655250 0.848300 1.000000
0.794300 0.848300 1.000000
0.933350 0.848300 1.000000
1.000000 0.848300 1.000000
0.000000 0.975200 1.000000
0.099050 0.975200 1.000000
0.238100 0.975200 1.000000
0.377150 0.975200 1.000000
0.516200 0.975200 1.000000
0.655250 0.975200 1.000000
0.794300 0.975200 1.000000
0.933350 0.975200 1.000000
1.000000 0.975200 1.000000
