director/public/luts/cyber_purple.cube
TITLE "Cyber Purple"
LUT_3D_SIZE 17
0.000000 0.000000 0.000000
0.029525 0.000000 0.000000
0.099050 0.000000 0.000000
0.168575 0.000000 0.000000
0.238100 0.000000 0.000000
0.307625 0.000000 0.000000
0.377150 0.000000 0.000000
0.446675 0.000000 0.000000
0.516200 0.000000 0.000000
0.585725 0.000000 0.000000
0.655250 0.000000 0.000000
0.724775 0.000000 0.000000
0.794300 0.000000 0.000000
0.863825 0.000000 0.000000
0.933350 0.000000 0.000000
1.000000 0.000000 0.000000
1.000000 0.000000 0.000000
0.000000 0.023450 0.000000
0.029525 0.023450 0.000000
0.099050 0.023450 0.000000
0.168575 0.023450 0.000000
0.238100 0.023450 0.000000
0.307625 0.023450 0.000000
0.377150 0.023450 0.000000
0.446675 0.023450 0.000000
0.516200 0.023450 0.000000
0.585725 0.023450 0.000000
0.655250 0.023450 0.000000
0.724775 0.023450 0.000000
0.794300 0.023450 0.000000
0.863825 0.023450 0.000000
0.933350 0.023450 0.000000
1.000000 0.023450 0.000000
1.000000 0.023450 0.000000
0.000000 0.086900 0.000000
0.029525 0.086900 0.000000
0.099050 0.086900 0.000000
0.168575 0.086900 0.000000
0.238100 0.086900 0.000000
0.307625 0.086900 0.000000
0.377150 0.086900 0.000000
0.446675 0.086900 0.000000
0.516200 0.086900 0.000000
0.585725 0.086900 0.000000
0.655250 0.086900 0.000000
0.724775 0.086900 0.000000
0.794300 0.086900 0.000000
0.863825 0.086900 0.000000
0.933350 0.086900 0.000000
1.000000 0.086900 0.000000
1.000000 0.086900 0.000000
0.000000 0.150350 0.000000
0.029525 0.150350 0.000000
0.099050 0.150350 0.000000
0.168575 0.150350 0.000000
0.238100 0.150350 0.000000
0.307625 0.150350 0.000000
0.377150 0.150350 0.000000
0.446675 0.150350 0.000000
0.516200 0.150350 0.000000
0.585725 0.150350 0.000000
0.655250 0.150350 0.000000
0.724775 0.150350 0.000000
0.794300 0.150350 0.000000
0.863825 0.150350 0.000000
0.933350 0.150350 0.000000
1.000000 0.150350 0.000000
1.000000 0.150350 0.000000
0.000000 0.213800 0.000000
0.029525 0.213800 0.000000
0.099050 0.213800 0.000000
0.168575 0.213800 0.000000
0.238100 0.213800 0.000000
0.307625 0.213800 0.000000
0.377150 0.213800 0.000000
0.446675 0.213800 0.000000
0.516200 0.213800 0.000000
0.585725 0.213800 0.000000
0.655250 0.213800 0.000000
0.724775 0.213800 0.000000
0.794300 0.213800 0.000000
0.863825 0.213800 0.000000
0.933350 0.213800 0.000000
1.000000 0.213800 0.000000
1.000000 0.213800 0.000000
0.000000 0.277250 0.000000
0.029525 0.277250 0.000000
0.099050 0.277250 0.000000
0.168575 0.277250 0.000000
0.238100 0.277250 0.000000
0.307625 0.277250 0.000000
0.377150 0.277250 0.000000
0.446675 0.277250 0.000000
0.516200 0.277250 0.000000
0.585725 0.277250 0.000000
0.655250 0.277250 0.000000
0.724775 0.277250 0.000000
0.794300 0.277250 0.000000
0.863825 0.277250 0.000000
0.933350 0.277250 0.000000
1.000000 0.277250 0.000000
1.000000 0.277250 0.000000
0.000000 0.340700 0.000000
0.029525 0.340700 0.000000
0.099050 0.340700 0.000000
0.168575 0.340700 0.000000
0.238100 0.340700 0.000000
0.307625 0.340700 0.000000
0.377150 0.340700 0.000000
0.446675 0.340700 0.000000
0.516200 0.340700 0.000000
0.585725 0.340700 0.000000
0.655250 0.340700 0.000000
0.724775 0.340700 0.000000
0.794300 0.340700 0.000000
0.863825 0.340700 0.000000
0.933350 0.340700 0.000000
1.000000 0.340700 0.000000
1.000000 0.340700 0.000000
0.000000 0.404150 0.000000
0.029525 0.404150 0.000000
0.099050 0.404150 0.000000
0.168575 0.404150 0.000000
0.238100 0.404150 0.000000
0.307625 0.404150 0.000000
0.377150 0.404150 0.000000
0.446675 0.404150 0.000000
0.516200 0.404150 0.000000
0.585725 0.404150 0.000000
0.655250 0.404150 0.000000
0.724775 0.404150 0.000000
0.794300 0.404150 0.000000
0.863825 0.404150 0.000000
0.933350 0.404150 0.000000
1.000000 0.404150 0.000000
1.000000 0.404150 0.000000
0.000000 0.467600 0.000000
0.029525 0.467600 0.000000
0.099050 0.467600 0.000000
0.168575 0.467600 0.000000
0.238100 0.467600 0.000000
0.307625 0.467600 0.000000
0.377150 0.467600 0.000000
0.446675 0.467600 0.000000
0.516200 0.467600 0.000000
0.585725 0.467600 0.000000
0.655250 0.467600 0.000000
0.724775 0.467600 0.000000
0.794300 0.467600 0.000000
0.863825 0.467600 0.000000
0.933350 0.467600 0.000000
1.000000 0.467600 0.000000
1.000000 0.467600 0.000000
0.000000 0.531050 0.000000
0.029525 0.531050 0.000000
0.099050 0.531050 0.000000
0.168575 0.531050 0.000000
0.238100 0.531050 0.000000
0.307625 0.531050 0.000000
0.377150 0.531050 0.000000
0.446675 0.531050 0.000000
0.516200 0.531050 0.000000
0.585725 0.531050 0.000000
0.655250 0.531050 0.000000
0.724775 0.531050 0.000000
0.794300 0.531050 0.000000
0.863825 0.531050 0.000000
0.933350 0.531050 0.000000
1.000000 0.531050 0.000000
1.000000 0.531050 0.000000
0.000000 0.594500 0.000000
0.029525 0.594500 0.000000
0.099050 0.594500 0.000000
0.168575 0.594500 0.000000
0.238100 0.594500 0.000000
0.307625 0.594500 0.000000
0.377150 0.594500 0.000000
0.446675 0.594500 0.000000
0.516200 0.594500 0.000000
0.585725 0.594500 0.000000
0.655250 0.594500 0.000000
0.724775 0.594500 0.000000
0.794300 0.594500 0.000000
0.863825 0.594500 0.000000
0.933350 0.594500 0.000000
1.000000 0.594500 0.000000
1.000000 0.594500 0.000000
0.000000 0.657950 0.000000
0.029525 0.657950 0.000000
0.099050 0.657950 0.000000
0.168575 0.657950 0.000000
0.238100 0.657950 0.000000
0.307625 0.657950 0.000000
0.377150 0.657950 0.000000
0.446675 0.657950 0.000000
0.516200 0.657950 0.000000
0.585725 0.657950 0.000000
0.655250 0.657950 0.000000
0.724775 0.657950 0.000000
0.794300 0.657950 0.000000
0.863825 0.657950 0.000000
0.933350 0.657950 0.000000
1.000000 0.657950 0.000000
1.000000 0.657950 0.000000
0.000000 0.721400 0.000000
0.029525 0.721400 0.000000
0.099050 0.721400 0.000000
0.168575 0.721400 0.000000
0.238100 0.721400 0.000000
0.307625 0.721400 0.000000
0.377150 0.721400 0.000000
0.446675 0.721400 0.000000
0.516200 0.721400 0.000000
0.585725 0.721400 0.000000
0.655250 0.721400 0.000000
0.724775 0.721400 0.000000
0.794300 0.721400 0.000000
0.863825 0.721400 0.000000
0.933350 0.721400 0.000000
1.000000 0.721400 0.000000
1.000000 0.721400 0.000000
0.000000 0.784850 0.000000
0.029525 0.784850 0.000000
0.099050 0.784850 0.000000
0.168575 0.784850 0.000000
0.238100 0.784850 0.000000
0.307625 0.784850 0.000000
0.377150 0.784850 0.000000
0.446675 0.784850 0.000000
0.516200 0.784850 0.000000
0.585725 0.784850 0.000000
0.655250 0.784850 0.000000
0.724775 0.784850 0.000000
0.794300 0.784850 0.000000
0.863825 0.784850 0.000000
0.933350 0.784850 0.000000
1.000000 0.784850 0.000000
1.000000 0.784850 0.000000
0.000000 0.848300 0.000000
0.029525 0.848300 0.000000
0.099050 0.848300 0.000000
0.168575 0.848300 0.000000
0.238100 0.848300 0.000000
0.307625 0.848300 0.000000
0.377150 0.848300 0.000000
0.446675 0.848300 0.000000
0.516200 0.848300 0.000000
0.585725 0.848300 0.000000
0.655250 0.848300 0.000000
0.724775 0.848300 0.000000
0.794300 0.848300 0.000000
0.863825 0.848300 0.000000
0.933350 0.848300 0.000000
1.000000 0.848300 0.000000
1.000000 0.848300 0.000000
0.000000 0.911750 0.000000
0.029525 0.911750 0.000000
0.099050 0.911750 0.000000
0.168575 0.911750 0.000000
0.238100 0.911750 0.000000
0.307625 0.911750 0.000000
0.377150 0.911750 0.000000
0.446675 0.911750 0.000000
0.516200 0.911750 0.000000
0.585725 0.911750 0.000000
0.655250 0.911750 0.000000
0.724775 0.911750 0.000000
0.794300 0.911750 0.000000
0.863825 0.911750 0.000000
0.933350 0.911750 0.000000
1.000000 0.911750 0.000000
1.000000 0.911750 0.000000
0.000000 0.975200 0.000000
0.029525 0.975200 0.000000
0.099050 0.975200 0.000000
0.168575 0.975200 0.000000
0.238100 0.975200 0.000000
0.307625 0.975200 0.000000
0.377150 0.975200 0.000000
0.446675 0.975200 0.000000
0.516200 0.975200 0.000000
0.585725 0.975200 0.000000
0.655250 0.975200 0.000000
0.724775 0.975200 0.000000
0.794300 0.975200 0.000000
0.863825 0.975200 0.000000
0.933350 0.975200 0.000000
1.000000 0.975200 0.000000
1.000000 0.975200 0.000000
0.000000 0.000000 0.031550
0.029525 0.000000 0.031550
0.099050 0.000000 0.031550
0.168575 0.000000 0.031550
0.238100 0.000000 0.031550
0.307625 0.000000 0.031550
0.377150 0.000000 0.031550
0.446675 0.000000 0.031550
0.516200 0.000000 0.031550
0.585725 0.000000 0.031550
0.655250 0.000000 0.031550
0.724775 0.000000 0.031550
0.794300 0.000000 0.031550
0.863825 0.000000 0.031550
0.933350 0.000000 0.031550
1.000000 0.000000 0.031550
1.000000 0.000000 0.031550
0.000000 0.023450 0.031550
0.029525 0.023450 0.031550
0.099050 0.023450 0.031550
0.168575 0.023450 0.031550
0.238100 0.023450 0.031550
0.307625 0.023450 0.031550
0.377150 0.023450 0.031550
0.446675 0.023450 0.031550
0.516200 0.023450 0.031550
0.585725 0.023450 0.031550
0.655250 0.023450 0.031550
0.724775 0.023450 0.031550
0.794300 0.023450 0.031550
0.863825 0.023450 0.031550
0.933350 0.023450 0.031550
1.000000 0.023450 0.031550
1.000000 0.023450 0.031550
0.000000 0.086900 0.031550
0.029525 0.086900 0.031550
0.099050 0.086900 0.031550
0.168575 0.086900 0.031550
0.238100 0.086900 0.031550
0.307625 0.086900 0.031550
0.377150 0.086900 0.031550
0.446675 0.086900 0.031550
0.516200 0.086900 0.031550
0.585725 0.086900 0.031550
0.655250 0.086900 0.031550
0.724775 0.086900 0.031550
0.794300 0.086900 0.031550
0.863825 0.086900 0.031550
0.933350 0.086900 0.031550
1.000000 0.086900 0.031550
1.000000 0.086900 0.031550
0.000000 0.150350 0.031550
0.029525 0.150350 0.031550
0.099050 0.150350 0.031550
0.168575 0.150350 0.031550
0.238100 0.150350 0.031550
0.307625 0.150350 0.031550
0.377150 0.150350 0.031550
0.446675 0.150350 0.031550
0.516200 0.150350 0.031550
0.585725 0.150350 0.031550
0.655250 0.150350 0.031550
0.724775 0.150350 0.031550
0.794300 0.150350 0.031550
0.863825 0.150350 0.031550
0.933350 0.150350 0.031550
1.000000 0.150350 0.031550
1.000000 0.150350 0.031550
0.000000 0.213800 0.031550
0.029525 0.213800 0.031550
0.099050 0.213800 0.031550
0.168575 0.213800 0.031550
0.238100 0.213800 0.031550
0.307625 0.213800 0.031550
0.377150 0.213800 0.031550
0.446675 0.213800 0.031550
0.516200 0.213800 0.031550
0.585725 0.213800 0.031550
0.655250 0.213800 0.031550
0.724775 0.213800 0.031550
0.794300 0.213800 0.031550
0.863825 0.213800 0.031550
0.933350 0.213800 0.031550
1.000000 0.213800 0.031550
1.000000 0.213800 0.031550
0.000000 0.277250 0.031550
0.029525 0.277250 0.031550
0.099050 0.277250 0.031550
0.168575 0.277250 0.031550
0.238100 0.277250 0.031550
0.307625 0.277250 0.031550
0.377150 0.277250 0.031550
0.446675 0.277250 0.031550
0.516200 0.277250 0.031550
0.585725 0.277250 0.031550
0.655250 0.277250 0.031550
0.724775 0.277250 0.031550
0.794300 0.277250 0.031550
0.863825 0.277250 0.031550
0.933350 0.277250 0.031550
1.000000 0.277250 0.031550
1.000000 0.277250 0.031550
0.000000 0.340700 0.031550
0.029525 0.340700 0.031550
0.099050 0.340700 0.031550
0.168575 0.340700 0.031550
0.238100 0.340700 0.031550
0.307625 0.340700 0.031550
0.377150 0.340700 0.031550
0.446675 0.340700 0.031550
0.516200 0.340700 0.031550
0.585725 0.340700 0.031550
0.655250 0.340700 0.031550
0.724775 0.340700 0.031550
0.794300 0.340700 0.031550
0.863825 0.340700 0.031550
0.933350 0.340700 0.031550
1.000000 0.340700 0.031550
1.000000 0.340700 0.031550
0.000000 0.404150 0.031550
0.029525 0.404150 0.031550
0.099050 0.404150 0.031550
0.168575 0.404150 0.031550
0.238100 0.404150 0.031550
0.307625 0.404150 0.031550
0.377150 0.404150 0.031550
0.446675 0.404150 0.031550
0.516200 0.404150 0.031550
0.585725 0.404150 0.031550
0.655250 0.404150 0.031550
0.724775 0.404150 0.031550
0.794300 0.404150 0.031550
0.863825 0.404150 0.031550
0.933350 0.404150 0.031550
1.000000 0.404150 0.031550
1.000000 0.404150 0.031550
0.000000 0.467600 0.031550
0.029525 0.467600 0.031550
0.099050 0.467600 0.031550
0.168575 0.467600 0.031550
0.238100 0.467600 0.031550
0.307625 0.467600 0.031550
0.377150 0.467600 0.031550
0.446675 0.467600 0.031550
0.516200 0.467600 0.031550
0.585725 0.467600 0.031550
0.655250 0.467600 0.031550
0.724775 0.467600 0.031550
0.794300 0.467600 0.031550
0.863825 0.467600 0.031550
0.933350 0.467600 0.031550
1.000000 0.467600 0.031550
1.000000 0.467600 0.031550
0.000000 0.531050 0.031550
0.029525 0.531050 0.031550
0.099050 0.531050 0.031550
0.168575 0.531050 0.031550
0.238100 0.531050 0.031550
0.307625 0.531050 0.031550
0.377150 0.531050 0.031550
0.446675 0.531050 0.031550
0.516200 0.531050 0.031550
0.585725 0.531050 0.031550
0.655250 0.531050 0.031550
0.724775 0.531050 0.031550
0.794300 0.531050 0.031550
0.863825 0.531050 0.031550
0.933350 0.531050 0.031550
1.000000 0.531050 0.031550
1.000000 0.531050 0.031550
0.000000 0.594500 0.031550
0.029525 0.594500 0.031550
0.099050 0.594500 0.031550
0.168575 0.594500 0.031550
0.238100 0.594500 0.031550
0.307625 0.594500 0.031550
0.377150 0.594500 0.031550
0.446675 0.594500 0.031550
0.516200 0.594500 0.031550
0.585725 0.594500 0.031550
0.655250 0.594500 0.031550
0.724775 0.594500 0.031550
0.794300 0.594500 0.031550
0.863825 0.594500 0.031550
0.933350 0.594500 0.031550
1.000000 0.594500 0.031550
1.000000 0.594500 0.031550
0.000000 0.657950 0.031550
0.029525 0.657950 0.031550
0.099050 0.657950 0.031550
0.168575 0.657950 0.031550
0.238100 0.657950 0.031550
0.307625 0.657950 0.031550
0.377150 0.657950 0.031550
0.446675 0.657950 0.031550
0.516200 0.657950 0.031550
0.585725 0.657950 0.031550
0.655250 0.657950 0.031550
0.724775 0.657950 0.031550
0.794300 0.657950 0.031550
0.863825 0.657950 0.031550
0.933350 0.657950 0.031550
1.000000 0.657950 0.031550
1.000000 0.657950 0.031550
0.000000 0.721400 0.031550
0.029525 0.721400 0.031550
0.099050 0.721400 0.031550
0.168575 0.721400 0.031550
0.238100 0.721400 0.031550
0.307625 0.721400 0.031550
0.377150 0.721400 0.031550
0.446675 0.721400 0.031550
0.516200 0.721400 0.031550
0.585725 0.721400 0.031550
0.655250 0.721400 0.031550
0.724775 0.721400 0.031550
0.794300 0.721400 0.031550
0.863825 0.721400 0.031550
0.933350 0.721400 0.031550
1.000000 0.721400 0.031550
1.000000 0.721400 0.031550
0.000000 0.784850 0.031550
0.029525 0.784850 0.031550
0.099050 0.784850 0.031550
0.168575 0.784850 0.031550
0.238100 0.784850 0.031550
0.307625 0.784850 0.031550
0.377150 0.784850 0.031550
0.446675 0.784850 0.031550
0.516200 0.784850 0.031550
0.585725 0.784850 0.031550
0.655250 0.784850 0.031550
0.724775 0.784850 0.031550
0.794300 0.784850 0.031550
0.863825 0.784850 0.031550
0.933350 0.784850 0.031550
1.000000 0.784850 0.031550
1.000000 0.784850 0.031550
0.000000 0.848300 0.031550
0.029525 0.848300 0.031550
0.099050 0.848300 0.031550
0.168575 0.848300 0.031550
0.238100 0.848300 0.031550
0.307625 0.848300 0.031550
0.377150 0.848300 0.031550
0.446675 0.848300 0.031550
0.516200 0.848300 0.031550
0.585725 0.848300 0.031550
0.655250 0.848300 0.031550
0.724775 0.848300 0.031550
0.794300 0.848300 0.031550
0.863825 0.848300 0.031550
0.933350 0.848300 0.031550
1.000000 0.848300 0.031550
1.000000 0.848300 0.031550
0.000000 0.911750 0.031550
0.029525 0.911750 0.031550
0.099050 0.911750 0.031550
0.168575 0.911750 0.031550
0.238100 0.911750 0.031550
0.307625 0.911750 0.031550
0.377150 0.911750 0.031550
0.446675 0.911750 0.031550
0.516200 0.911750 0.031550
0.585725 0.911750 0.031550
0.655250 0.911750 0.031550
0.724775 0.911750 0.031550
0.794300 0.911750 0.031550
0.863825 0.911750 0.031550
0.933350 0.911750 0.031550
1.000000 0.911750 0.031550
1.000000 0.911750 0.031550
0.000000 0.975200 0.031550
0.029525 0.975200 0.031550
0.099050 0.975200 0.031550
0.168575 0.975200 0.031550
0.238100 0.975200 0.031550
0.307625 0.975200 0.031550
0.377150 0.975200 0.031550
0.446675 0.975200 0.031550
0.516200 0.975200 0.031550
0.585725 0.975200 0.031550
0.655250 0.975200 0.031550
0.724775 0.975200 0.031550
0.794300 0.975200 0.031550
0.863825 0.975200 0.031550
0.933350 0.975200 0.031550
1.000000 0.975200 0.031550
1.000000 0.975200 0.031550
0.000000 0.000000 0.103100
0.029525 0.000000 0.103100
0.099050 0.000000 0.103100
0.168575 0.000000 0.103100
0.238100 0.000000 0.103100
0.307625 0.000000 0.103100
0.377150 0.000000 0.103100
0.446675 0.000000 0.103100
0.516200 0.000000 0.103100
0.585725 0.000000 0.103100
0.655250 0.000000 0.103100
0.724775 0.000000 0.103100
0.794300 0.000000 0.103100
0.863825 0.000000 0.103100
0.933350 0.000000 0.103100
1.000000 0.000000 0.103100
1.000000 0.000000 0.103100
0.000000 0.023450 0.103100
0.029525 0.023450 0.103100
0.099050 0.023450 0.103100
0.168575 0.023450 0.103100
0.238100 0.023450 0.103100
0.307625 0.023450 0.103100
0.377150 0.023450 0.103100
0.446675 0.023450 0.103100
0.516200 0.023450 0.103100
0.585725 0.023450 0.103100
0.655250 0.023450 0.103100
0.724775 0.023450 0.103100
0.794300 0.023450 0.103100
0.863825 0.023450 0.103100
0.933350 0.023450 0.103100
1.000000 0.023450 0.103100
1.000000 0.023450 0.103100
0.000000 0.086900 0.103100
0.029525 0.086900 0.103100
0.099050 0.086900 0.103100
0.168575 0.086900 0.103100
0.238100 0.086900 0.103100
0.307625 0.086900 0.103100
0.377150 0.086900 0.103100
0.446675 0.086900 0.103100
0.516200 0.086900 0.103100
0.585725 0.086900 0.103100
0.655250 0.086900 0.103100
0.724775 0.086900 0.103100
0.794300 0.086900 0.103100
0.863825 0.086900 0.103100
0.933350 0.086900 0.103100
1.000000 0.086900 0.103100
1.000000 0.086900 0.103100
0.000000 0.150350 0.103100
0.029525 0.150350 0.103100
0.099050 0.150350 0.103100
0.168575 0.150350 0.103100
0.238100 0.150350 0.103100
0.307625 0.150350 0.103100
0.377150 0.150350 0.103100
0.446675 0.150350 0.103100
0.516200 0.150350 0.103100
0.585725 0.150350 0.103100
0.655250 0.150350 0.103100
0.724775 0.150350 0.103100
0.794300 0.150350 0.103100
0.863825 0.150350 0.103100
0.933350 0.150350 0.103100
1.000000 0.150350 0.103100
1.000000 0.150350 0.103100
0.000000 0.213800 0.103100
0.029525 0.213800 0.103100
0.099050 0.213800 0.103100
0.168575 0.213800 0.103100
0.238100 0.213800 0.103100
0.307625 0.213800 0.103100
0.377150 0.213800 0.103100
0.446675 0.213800 0.103100
0.516200 0.213800 0.103100
0.585725 0.213800 0.103100
0.655250 0.213800 0.103100
0.724775 0.213800 0.103100
0.794300 0.213800 0.103100
0.863825 0.213800 0.103100
0.933350 0.213800 0.103100
1.000000 0.213800 0.103100
1.000000 0.213800 0.103100
0.000000 0.277250 0.103100
0.029525 0.277250 0.103100
0.099050 0.277250 0.103100
0.168575 0.277250 0.103100
0.238100 0.277250 0.103100
0.307625 0.277250 0.103100
0.377150 0.277250 0.103100
0.446675 0.277250 0.103100
0.516200 0.277250 0.103100
0.585725 0.277250 0.103100
0.655250 0.277250 0.103100
0.724775 0.277250 0.103100
0.794300 0.277250 0.103100
0.863825 0.277250 0.103100
0.933350 0.277250 0.103100
1.000000 0.277250 0.103100
1.000000 0.277250 0.103100
0.000000 0.340700 0.103100
0.029525 0.340700 0.103100
0.099050 0.340700 0.103100
0.168575 0.340700 0.103100
0.238100 0.340700 0.103100
0.307625 0.340700 0.103100
0.377150 0.340700 0.103100
0.446675 0.340700 0.103100
0.516200 0.340700 0.103100
0.585725 0.340700 0.103100
0.655250 0.340700 0.103100
0.724775 0.340700 0.103100
0.794300 0.340700 0.103100
0.863825 0.340700 0.103100
0.933350 0.340700 0.103100
1.000000 0.340700 0.103100
1.000000 0.340700 0.103100
0.000000 0.404150 0.103100
0.029525 0.404150 0.103100
0.099050 0.404150 0.103100
0.168575 0.404150 0.103100
0.238100 0.404150 0.103100
0.307625 0.404150 0.103100
0.377150 0.404150 0.103100
0.446675 0.404150 0.103100
0.516200 0.404150 0.103100
0.585725 0.404150 0.103100
0.655250 0.404150 0.103100
0.724775 0.404150 0.103100
0.794300 0.404150 0.103100
0.863825 0.404150 0.103100
0.933350 0.404150 0.103100
1.000000 0.404150 0.103100
1.000000 0.404150 0.103100
0.000000 0.467600 0.103100
0.029525 0.467600 0.103100
0.099050 0.467600 0.103100
0.168575 0.467600 0.103100
0.238100 0.467600 0.103100
0.307625 0.467600 0.103100
0.377150 0.467600 0.103100
0.446675 0.467600 0.103100
0.516200 0.467600 0.103100
0.585725 0.467600 0.103100
0.655250 0.467600 0.103100
0.724775 0.467600 0.103100
0.794300 0.467600 0.103100
0.863825 0.467600 0.103100
0.933350 0.467600 0.103100
1.000000 0.467600 0.103100
1.000000 0.467600 0.103100
0.000000 0.531050 0.103100
0.029525 0.531050 0.103100
0.099050 0.531050 0.103100
0.168575 0.531050 0.103100
0.238100 0.531050 0.103100
0.307625 0.531050 0.103100
0.377150 0.531050 0.103100
0.446675 0.531050 0.103100
0.516200 0.531050 0.103100
0.585725 0.531050 0.103100
0.655250 0.531050 0.103100
0.724775 0.531050 0.103100
0.794300 0.531050 0.103100
0.863825 0.531050 0.103100
0.933350 0.531050 0.103100
1.000000 0.531050 0.103100
1.000000 0.531050 0.103100
0.000000 0.594500 0.103100
0.029525 0.594500 0.103100
0.099050 0.594500 0.103100
0.168575 0.594500 0.103100
0.238100 0.594500 0.103100
0.307625 0.594500 0.103100
0.377150 0.594500 0.103100
0.446675 0.594500 0.103100
0.516200 0.594500 0.103100
0.585725 0.594500 0.103100
0.655250 0.594500 0.103100
0.724775 0.594500 0.103100
0.794300 0.594500 0.103100
0.863825 0.594500 0.103100
0.933350 0.594500 0.103100
1.000000 0.594500 0.103100
1.000000 0.594500 0.103100
0.000000 0.657950 0.103100
0.029525 0.657950 0.103100
0.099050 0.657950 0.103100
0.168575 0.657950 0.103100
0.238100 0.657950 0.103100
0.307625 0.657950 0.103100
0.377150 0.657950 0.103100
0.446675 0.657950 0.103100
0.516200 0.657950 0.103100
0.585725 0.657950 0.103100
0.655250 0.657950 0.103100
0.724775 0.657950 0.103100
0.794300 0.657950 0.103100
0.863825 0.657950 0.103100
0.933350 0.657950 0.103100
1.000000 0.657950 0.103100
1.000000 0.657950 0.103100
0.000000 0.721400 0.103100
0.029525 0.721400 0.103100
0.099050 0.721400 0.103100
0.168575 0.721400 0.103100
0.238100 0.721400 0.103100
0.307625 0.721400 0.103100
0.377150 0.721400 0.103100
0.446675 0.721400 0.103100
0.516200 0.721400 0.103100
0.585725 0.721400 0.103100
0.655250 0.721400 0.103100
0.724775 0.721400 0.103100
0.794300 0.721400 0.103100
0.863825 0.721400 0.103100
0.933350 0.721400 0.103100
1.000000 0.721400 0.103100
1.000000 0.721400 0.103100
0.000000 0.784850 0.103100
0.029525 0.784850 0.103100
0.099050 0.784850 0.103100
0.168575 0.784850 0.103100
0.238100 0.784850 0.103100
0.307625 0.784850 0.103100
0.377150 0.784850 0.103100
0.446675 0.784850 0.103100
0.516200 0.784850 0.103100
0.585725 0.784850 0.103100
0.655250 0.784850 0.103100
0.724775 0.784850 0.103100
0.794300 0.784850 0.103100
0.863825 0.784850 0.103100
0.933350 0.784850 0.103100
1.000000 0.784850 0.103100
1.000000 0.784850 0.103100
0.000000 0.848300 0.103100
0.029525 0.848300 0.103100
0.099050 0.848300 0.103100
0.168575 0.848300 0.103100
0.238100 0.848300 0.103100
0.307625 0.848300 0.103100
0.377150 0.848300 0.103100
0.446675 0.848300 0.103100
0.516200 0.848300 0.103100
0.585725 0.848300 0.103100
0.655250 0.848300 0.103100
0.724775 0.848300 0.103100
0.794300 0.848300 0.103100
0.863825 0.848300 0.103100
0.933350 0.848300 0.103100
1.000000 0.848300 0.103100
1.000000 0.848300 0.103100
0.000000 0.911750 0.103100
0.029525 0.911750 0.103100
0.099050 0.911750 0.103100
0.168575 0.911750 0.103100
0.238100 0.911750 0.103100
0.307625 0.911750 0.103100
0.377150 0.911750 0.103100
0.446675 0.911750 0.103100
0.516200 0.911750 0.103100
0.585725 0.911750 0.103100
0.655250 0.911750 0.103100
0.724775 0.911750 0.103100
0.794300 0.911750 0.103100
0.863825 0.911750 0.103100
0.933350 0.911750 0.103100
1.000000 0.911750 0.103100
1.000000 0.911750 0.103100
0.000000 0.975200 0.103100
0.029525 0.975200 0.103100
0.099050 0.975200 0.103100
0.168575 0.975200 0.103100
0.238100 0.975200 0.103100
0.307625 0.975200 0.103100
0.377150 0.975200 0.103100
0.446675 0.975200 0.103100
0.516200 0.975200 0.103100
0.585725 0.975200 0.103100
0.655250 0.975200 0.103100
0.724775 0.975200 0.103100
0.794300 0.975200 0.103100
0.863825 0.975200 0.103100
0.933350 0.975200 0.103100
1.000000 0.975200 0.103100
1.000000 0.975200 0.103100
0.000000 0.000000 0.174650
0.029525 0.000000 0.174650
0.099050 0.000000 0.174650
0.168575 0.000000 0.174650
0.238100 0.000000 0.174650
0.307625 0.000000 0.174650
0.377150 0.000000 0.174650
0.446675 0.000000 0.174650
0.516200 0.000000 0.174650
0.585725 0.000000 0.174650
0.655250 0.000000 0.174650
0.724775 0.000000 0.174650
0.794300 0.000000 0.174650
0.863825 0.000000 0.174650
0.933350 0.000000 0.174650
1.000000 0.000000 0.174650
1.000000 0.000000 0.174650
0.000000 0.023450 0.174650
0.029525 0.023450 0.174650
0.099050 0.023450 0.174650
