director/public/luts/cyber_purple.cube
TITLE "Cyber Purple"
LUT_3D_SIZE 5
0.000000 0.000000 0.000000
0.238100 0.000000 0.000000
0.516200 0.000000 0.000000
0.794300 0.000000 0.000000
1.000000 0.000000 0.000000
0.000000 0.213800 0.000000
0.238100 0.213800 0.000000
0.516200 0.213800 0.000000
0.794300 0.213800 0.000000
1.000000 0.213800 0.000000
0.000000 0.467600 0.000000
0.238100 0.467600 0.000000
0.516200 0.467600 0.000000
0.794300 0.467600 0.000000
1.000000 0.467600 0.000000
0.000000 0.721400 0.000000
0.238100 0.721400 0.000000
0.516200 0.721400 0.000000
0.794300 0.721400 0.000000
1.000000 0.721400 0.000000
0.000000 0.975200 0.000000
0.238100 0.975200 0.000000
0.516200 0.975200 0.000000
0.794300 0.975200 0.000000
1.000000 0.975200 0.000000
0.000000 0.000000 0.246200
0.238100 0.000000 0.246200
0.516200 0.000000 0.246200
0.794300 0.000000 0.246200
1.000000 0.000000 0.246200
0.000000 0.213800 0.246200
0.238100 0.213800 0.246200
0.516200 0.213800 0.246200
0.794300 0.213800 0.246200
1.000000 0.213800 0.246200
0.000000 0.467600 0.246200
0.238100 0.467600 0.246200
0.516200 0.467600 0.246200
0.794300 0.467600 0.246200
1.000000 0.467600 0.246200
0.000000 0.721400 0.246200
0.238100 0.721400 0.246200
0.516200 0.721400 0.246200
0.794300 0.721400 0.246200
1.000000 0.721400 0.246200
0.000000 0.975200 0.246200
0.238100 0.975200 0.246200
0.516200 0.975200 0.246200
0.794300 0.975200 0.246200
1.000000 0.975200 0.246200
0.000000 0.000000 0.532400
0.238100 0.000000 0.532400
0.516200 0.000000 0.532400
0.794300 0.000000 0.532400
1.000000 0.000000 0.532400
0.000000 0.213800 0.532400
0.238100 0.213800 0.532400
0.516200 0.213800 0.532400
0.794300 0.213800 0.532400
1.000000 0.213800 0.532400
0.000000 0.467600 0.532400
0.238100 0.467600 0.532400
0.516200 0.467600 0.532400
0.794300 0.467600 0.532400
1.000000 0.467600 0.532400
0.000000 0.721400 0.532400
0.238100 0.721400 0.532400
0.516200 0.721400 0.532400
0.794300 0.721400 0.532400
1.000000 0.721400 0.532400
0.000000 0.975200 0.532400
0.238100 0.975200 0.532400
0.516200 0.975200 0.532400
0.794300 0.975200 0.532400
1.000000 0.975200 0.532400
0.000000 0.000000 0.818600
0.238100 0.000000 0.818600
0.516200 0.000000 0.818600
0.794300 0.000000 0.818600
1.000000 0.000000 0.818600
0.000000 0.213800 0.818600
0.238100 0.213800 0.818600
0.516200 0.213800 0.818600
0.794300 0.213800 0.818600
1.000000 0.213800 0.818600
0.000000 0.467600 0.818600
0.238100 0.467600 0.818600
0.516200 0.467600 0.818600
0.794300 0.467600 0.818600
1.000000 0.467600 0.818600
0.000000 0.721400 0.818600
0.238100 0.721400 0.818600
0.516200 0.721400 0.818600
0.794300 0.721400 0.818600
1.000000 0.721400 0.818600
0.000000 0.975200 0.818600
0.238100 0.975200 0.818600
0.516200 0.975200 0.818600
0.794300 0.975200 0.818600
1.000000 0.975200 0.818600
0.000000 0.000000 1.000000
0.238100 0.000000 1.000000
0.516200 0.000000 1.000000
0.794300 0.000000 1.000000
1.000000 0.000000 1.000000
0.000000 0.213800 1.000000
0.238100 0.213800 1.000000
0.516200 0.213800 1.000000
0.794300 0.213800 1.000000
1.000000 0.213800 1.000000
0.000000 0.467600 1.000000
0.238100 0.467600 1.000000
0.516200 0.467600 1.000000
0.794300 0.467600 1.000000
1.000000 0.467600 1.000000
0.000000 0.721400 1.000000
0.238100 0.721400 1.000000
0.516200 0.721400 1.000000
0.794300 0.721400 1.000000
1.000000 0.721400 1.000000
0.000000 0.975200 1.000000
0.238100 0.975200 1.000000
0.516200 0.975200 1.000000
0.794300 0.975200 1.000000
1.000000 0.975200 1.000000
