director/public/luts/electric_blue.cube
TITLE "Electric Blue"
LUT_3D_SIZE 5
0.000000 0.000000 0.000000
0.211100 0.000000 0.000000
0.462200 0.000000 0.000000
0.713300 0.000000 0.000000
0.964400 0.000000 0.000000
0.000000 0.224600 0.000000
0.211100 0.224600 0.000000
0.462200 0.224600 0.000000
0.713300 0.224600 0.000000
0.964400 0.224600 0.000000
0.000000 0.489200 0.000000
0.211100 0.489200 0.000000
0.462200 0.489200 0.000000
0.713300 0.489200 0.000000
0.964400 0.489200 0.000000
0.000000 0.753800 0.000000
0.211100 0.753800 0.000000
0.462200 0.753800 0.000000
0.713300 0.753800 0.000000
0.964400 0.753800 0.000000
0.000000 1.000000 0.000000
0.211100 1.000000 0.000000
0.462200 1.000000 0.000000
0.713300 1.000000 0.000000
0.964400 1.000000 0.000000
0.000000 0.000000 0.246200
0.211100 0.000000 0.246200
0.462200 0.000000 0.246200
0.713300 0.000000 0.246200
0.964400 0.000000 0.246200
0.000000 0.224600 0.246200
0.211100 0.224600 0.246200
0.462200 0.224600 0.246200
0.713300 0.224600 0.246200
0.964400 0.224600 0.246200
0.000000 0.489200 0.246200
0.211100 0.489200 0.246200
0.462200 0.489200 0.246200
0.713300 0.489200 0.246200
0.964400 0.489200 0.246200
0.000000 0.753800 0.246200
0.211100 0.753800 0.246200
0.462200 0.753800 0.246200
0.713300 0.753800 0.246200
0.964400 0.753800 0.246200
0.000000 1.000000 0.246200
0.211100 1.000000 0.246200
0.462200 1.000000 0.246200
0.713300 1.000000 0.246200
0.964400 1.000000 0.246200
0.000000 0.000000 0.532400
0.211100 0.000000 0.532400
0.462200 0.000000 0.532400
0.713300 0.000000 0.532400
0.964400 0.000000 0.532400
0.000000 0.224600 0.532400
0.211100 0.224600 0.532400
0.462200 0.224600 0.532400
0.713300 0.224600 0.532400
0.964400 0.224600 0.532400
0.000000 0.489200 0.532400
0.211100 0.489200 0.532400
0.462200 0.489200 0.532400
0.713300 0.489200 0.532400
0.964400 0.489200 0.532400
0.000000 0.753800 0.532400
0.211100 0.753800 0.532400
0.462200 0.753800 0.532400
0.713300 0.753800 0.532400
0.964400 0.753800 0.532400
0.000000 1.000000 0.532400
0.211100 1.000000 0.532400
0.462200 1.000000 0.532400
0.713300 1.000000 0.532400
0.964400 1.000000 0.532400
0.000000 0.000000 0.818600
0.211100 0.000000 0.818600
0.462200 0.000000 0.818600
0.713300 0.000000 0.818600
0.964400 0.000000 0.818600
0.000000 0.224600 0.818600
0.211100 0.224600 0.818600
0.462200 0.224600 0.818600
0.713300 0.224600 0.818600
0.964400 0.224600 0.818600
0.000000 0.489200 0.818600
0.211100 0.489200 0.818600
0.462200 0.489200 0.818600
0.713300 0.489200 0.818600
0.964400 0.489200 0.818600
0.000000 0.753800 0.818600
0.211100 0.753800 0.818600
0.462200 0.753800 0.818600
0.713300 0.753800 0.818600
0.964400 0.753800 0.818600
0.000000 1.000000 0.818600
0.211100 1.000000 0.818600
0.462200 1.000000 0.818600
0.713300 1.000000 0.818600
0.964400 1.000000 0.818600
0.000000 0.000000 1.000000
0.211100 0.000000 1.000000
0.462200 0.000000 1.000000
0.713300 0.000000 1.000000
0.964400 0.000000 1.000000
0.000000 0.224600 1.000000
0.211100 0.224600 1.000000
0.462200 0.224600 1.000000
0.713300 0.224600 1.000000
0.964400 0.224600 1.000000
0.000000 0.489200 1.000000
0.211100 0.489200 1.000000
0.462200 0.489200 1.000000
0.713300 0.489200 1.000000
0.964400 0.489200 1.000000
0.000000 0.753800 1.000000
0.211100 0.753800 1.000000
0.462200 0.753800 1.000000
0.713300 0.753800 1.000000
0.964400 0.753800 1.000000
0.000000 1.000000 1.000000
0.211100 1.000000 1.000000
0.462200 1.000000 1.000000
0.713300 1.000000 1.000000
0.964400 1.000000 1.000000
