director/public/luts/electric_blue.cube
TITLE "Electric Blue"
LUT_3D_SIZE 17
0.000000 0.000000 0.000000
0.022775 0.000000 0.000000
0.085550 0.000000 0.000000
0.148325 0.000000 0.000000
0.211100 0.000000 0.000000
0.273875 0.000000 0.000000
0.336650 0.000000 0.000000
0.399425 0.000000 0.000000
0.462200 0.000000 0.000000
0.524975 0.000000 0.000000
0.587750 0.000000 0.000000
0.650525 0.000000 0.000000
0.713300 0.000000 0.000000
0.776075 0.000000 0.000000
0.838850 0.000000 0.000000
0.901625 0.000000 0.000000
0.964400 0.000000 0.000000
0.000000 0.026150 0.000000
0.022775 0.026150 0.000000
0.085550 0.026150 0.000000
0.148325 0.026150 0.000000
0.211100 0.026150 0.000000
0.273875 0.026150 0.000000
0.336650 0.026150 0.000000
0.399425 0.026150 0.000000
0.462200 0.026150 0.000000
0.524975 0.026150 0.000000
0.587750 0.026150 0.000000
0.650525 0.026150 0.000000
0.713300 0.026150 0.000000
0.776075 0.026150 0.000000
0.838850 0.026150 0.000000
0.901625 0.026150 0.000000
0.964400 0.026150 0.000000
0.000000 0.092300 0.000000
0.022775 0.092300 0.000000
0.085550 0.092300 0.000000
0.148325 0.092300 0.000000
0.211100 0.092300 0.000000
0.273875 0.092300 0.000000
0.336650 0.092300 0.000000
0.399425 0.092300 0.000000
0.462200 0.092300 0.000000
0.524975 0.092300 0.000000
0.587750 0.092300 0.000000
0.650525 0.092300 0.000000
0.713300 0.092300 0.000000
0.776075 0.092300 0.000000
0.838850 0.092300 0.000000
0.901625 0.092300 0.000000
0.964400 0.092300 0.000000
0.000000 0.158450 0.000000
0.022775 0.158450 0.000000
0.085550 0.158450 0.000000
0.148325 0.158450 0.000000
0.211100 0.158450 0.000000
0.273875 0.158450 0.000000
0.336650 0.158450 0.000000
0.399425 0.158450 0.000000
0.462200 0.158450 0.000000
0.524975 0.158450 0.000000
0.587750 0.158450 0.000000
0.650525 0.158450 0.000000
0.713300 0.158450 0.000000
0.776075 0.158450 0.000000
0.838850 0.158450 0.000000
0.901625 0.158450 0.000000
0.964400 0.158450 0.000000
0.000000 0.224600 0.000000
0.022775 0.224600 0.000000
0.085550 0.224600 0.000000
0.148325 0.224600 0.000000
0.211100 0.224600 0.000000
0.273875 0.224600 0.000000
0.336650 0.224600 0.000000
0.399425 0.224600 0.000000
0.462200 0.224600 0.000000
0.524975 0.224600 0.000000
0.587750 0.224600 0.000000
0.650525 0.224600 0.000000
0.713300 0.224600 0.000000
0.776075 0.224600 0.000000
0.838850 0.224600 0.000000
0.901625 0.224600 0.000000
0.964400 0.224600 0.000000
0.000000 0.290750 0.000000
0.022775 0.290750 0.000000
0.085550 0.290750 0.000000
0.148325 0.290750 0.000000
0.211100 0.290750 0.000000
0.273875 0.290750 0.000000
0.336650 0.290750 0.000000
0.399425 0.290750 0.000000
0.462200 0.290750 0.000000
0.524975 0.290750 0.000000
0.587750 0.290750 0.000000
0.650525 0.290750 0.000000
0.713300 0.290750 0.000000
0.776075 0.290750 0.000000
0.838850 0.290750 0.000000
0.901625 0.290750 0.000000
0.964400 0.290750 0.000000
0.000000 0.356900 0.000000
0.022775 0.356900 0.000000
0.085550 0.356900 0.000000
0.148325 0.356900 0.000000
0.211100 0.356900 0.000000
0.273875 0.356900 0.000000
0.336650 0.356900 0.000000
0.399425 0.356900 0.000000
0.462200 0.356900 0.000000
0.524975 0.356900 0.000000
0.587750 0.356900 0.000000
0.650525 0.356900 0.000000
0.713300 0.356900 0.000000
0.776075 0.356900 0.000000
0.838850 0.356900 0.000000
0.901625 0.356900 0.000000
0.964400 0.356900 0.000000
0.000000 0.423050 0.000000
0.022775 0.423050 0.000000
0.085550 0.423050 0.000000
0.148325 0.423050 0.000000
0.211100 0.423050 0.000000
0.273875 0.423050 0.000000
0.336650 0.423050 0.000000
0.399425 0.423050 0.000000
0.462200 0.423050 0.000000
0.524975 0.423050 0.000000
0.587750 0.423050 0.000000
0.650525 0.423050 0.000000
0.713300 0.423050 0.000000
0.776075 0.423050 0.000000
0.838850 0.423050 0.000000
0.901625 0.423050 0.000000
0.964400 0.423050 0.000000
0.000000 0.489200 0.000000
0.022775 0.489200 0.000000
0.085550 0.489200 0.000000
0.148325 0.489200 0.000000
0.211100 0.489200 0.000000
0.273875 0.489200 0.000000
0.336650 0.489200 0.000000
0.399425 0.489200 0.000000
0.462200 0.489200 0.000000
0.524975 0.489200 0.000000
0.587750 0.489200 0.000000
0.650525 0.489200 0.000000
0.713300 0.489200 0.000000
0.776075 0.489200 0.000000
0.838850 0.489200 0.000000
0.901625 0.489200 0.000000
0.964400 0.489200 0.000000
0.000000 0.555350 0.000000
0.022775 0.555350 0.000000
0.085550 0.555350 0.000000
0.148325 0.555350 0.000000
0.211100 0.555350 0.000000
0.273875 0.555350 0.000000
0.336650 0.555350 0.000000
0.399425 0.555350 0.000000
0.462200 0.555350 0.000000
0.524975 0.555350 0.000000
0.587750 0.555350 0.000000
0.650525 0.555350 0.000000
0.713300 0.555350 0.000000
0.776075 0.555350 0.000000
0.838850 0.555350 0.000000
0.901625 0.555350 0.000000
0.964400 0.555350 0.000000
0.000000 0.621500 0.000000
0.022775 0.621500 0.000000
0.085550 0.621500 0.000000
0.148325 0.621500 0.000000
0.211100 0.621500 0.000000
0.273875 0.621500 0.000000
0.336650 0.621500 0.000000
0.399425 0.621500 0.000000
0.462200 0.621500 0.000000
0.524975 0.621500 0.000000
0.587750 0.621500 0.000000
0.650525 0.621500 0.000000
0.713300 0.621500 0.000000
0.776075 0.621500 0.000000
0.838850 0.621500 0.000000
0.901625 0.621500 0.000000
0.964400 0.621500 0.000000
0.000000 0.687650 0.000000
0.022775 0.687650 0.000000
0.085550 0.687650 0.000000
0.148325 0.687650 0.000000
0.211100 0.687650 0.000000
0.273875 0.687650 0.000000
0.336650 0.687650 0.000000
0.399425 0.687650 0.000000
0.462200 0.687650 0.000000
0.524975 0.687650 0.000000
0.587750 0.687650 0.000000
0.650525 0.687650 0.000000
0.713300 0.687650 0.000000
0.776075 0.687650 0.000000
0.838850 0.687650 0.000000
0.901625 0.687650 0.000000
0.964400 0.687650 0.000000
0.000000 0.753800 0.000000
0.022775 0.753800 0.000000
0.085550 0.753800 0.000000
0.148325 0.753800 0.000000
0.211100 0.753800 0.000000
0.273875 0.753800 0.000000
0.336650 0.753800 0.000000
0.399425 0.753800 0.000000
0.462200 0.753800 0.000000
0.524975 0.753800 0.000000
0.587750 0.753800 0.000000
0.650525 0.753800 0.000000
0.713300 0.753800 0.000000
0.776075 0.753800 0.000000
0.838850 0.753800 0.000000
0.901625 0.753800 0.000000
0.964400 0.753800 0.000000
0.000000 0.819950 0.000000
0.022775 0.819950 0.000000
0.085550 0.819950 0.000000
0.148325 0.819950 0.000000
0.211100 0.819950 0.000000
0.273875 0.819950 0.000000
0.336650 0.819950 0.000000
0.399425 0.819950 0.000000
0.462200 0.819950 0.000000
0.524975 0.819950 0.000000
0.587750 0.819950 0.000000
0.650525 0.819950 0.000000
0.713300 0.819950 0.000000
0.776075 0.819950 0.000000
0.838850 0.819950 0.000000
0.901625 0.819950 0.000000
0.964400 0.819950 0.000000
0.000000 0.886100 0.000000
0.022775 0.886100 0.000000
0.085550 0.886100 0.000000
0.148325 0.886100 0.000000
0.211100 0.886100 0.000000
0.273875 0.886100 0.000000
0.336650 0.886100 0.000000
0.399425 0.886100 0.000000
0.462200 0.886100 0.000000
0.524975 0.886100 0.000000
0.587750 0.886100 0.000000
0.650525 0.886100 0.000000
0.713300 0.886100 0.000000
0.776075 0.886100 0.000000
0.838850 0.886100 0.000000
0.901625 0.886100 0.000000
0.964400 0.886100 0.000000
0.000000 0.952250 0.000000
0.022775 0.952250 0.000000
0.085550 0.952250 0.000000
0.148325 0.952250 0.000000
0.211100 0.952250 0.000000
0.273875 0.952250 0.000000
0.336650 0.952250 0.000000
0.399425 0.952250 0.000000
0.462200 0.952250 0.000000
0.524975 0.952250 0.000000
0.587750 0.952250 0.000000
0.650525 0.952250 0.000000
0.713300 0.952250 0.000000
0.776075 0.952250 0.000000
0.838850 0.952250 0.000000
0.901625 0.952250 0.000000
0.964400 0.952250 0.000000
0.000000 1.000000 0.000000
0.022775 1.000000 0.000000
0.085550 1.000000 0.000000
0.148325 1.000000 0.000000
0.211100 1.000000 0.000000
0.273875 1.000000 0.000000
0.336650 1.000000 0.000000
0.399425 1.000000 0.000000
0.462200 1.000000 0.000000
0.524975 1.000000 0.000000
0.587750 1.000000 0.000000
0.650525 1.000000 0.000000
0.713300 1.000000 0.000000
0.776075 1.000000 0.000000
0.838850 1.000000 0.000000
0.901625 1.000000 0.000000
0.964400 1.000000 0.000000
0.000000 0.000000 0.031550
0.022775 0.000000 0.031550
0.085550 0.000000 0.031550
0.148325 0.000000 0.031550
0.211100 0.000000 0.031550
0.273875 0.000000 0.031550
0.336650 0.000000 0.031550
0.399425 0.000000 0.031550
0.462200 0.000000 0.031550
0.524975 0.000000 0.031550
0.587750 0.000000 0.031550
0.650525 0.000000 0.031550
0.713300 0.000000 0.031550
0.776075 0.000000 0.031550
0.838850 0.000000 0.031550
0.901625 0.000000 0.031550
0.964400 0.000000 0.031550
0.000000 0.026150 0.031550
0.022775 0.026150 0.031550
0.085550 0.026150 0.031550
0.148325 0.026150 0.031550
0.211100 0.026150 0.031550
0.273875 0.026150 0.031550
0.336650 0.026150 0.031550
0.399425 0.026150 0.031550
0.462200 0.026150 0.031550
0.524975 0.026150 0.031550
0.587750 0.026150 0.031550
0.650525 0.026150 0.031550
0.713300 0.026150 0.031550
0.776075 0.026150 0.031550
0.838850 0.026150 0.031550
0.901625 0.026150 0.031550
0.964400 0.026150 0.031550
0.000000 0.092300 0.031550
0.022775 0.092300 0.031550
0.085550 0.092300 0.031550
0.148325 0.092300 0.031550
0.211100 0.092300 0.031550
0.273875 0.092300 0.031550
0.336650 0.092300 0.031550
0.399425 0.092300 0.031550
0.462200 0.092300 0.031550
0.524975 0.092300 0.031550
0.587750 0.092300 0.031550
0.650525 0.092300 0.031550
0.713300 0.092300 0.031550
0.776075 0.092300 0.031550
0.838850 0.092300 0.031550
0.901625 0.092300 0.031550
0.964400 0.092300 0.031550
0.000000 0.158450 0.031550
0.022775 0.158450 0.031550
0.085550 0.158450 0.031550
0.148325 0.158450 0.031550
0.211100 0.158450 0.031550
0.273875 0.158450 0.031550
0.336650 0.158450 0.031550
0.399425 0.158450 0.031550
0.462200 0.158450 0.031550
0.524975 0.158450 0.031550
0.587750 0.158450 0.031550
0.650525 0.158450 0.031550
0.713300 0.158450 0.031550
0.776075 0.158450 0.031550
0.838850 0.158450 0.031550
0.901625 0.158450 0.031550
0.964400 0.158450 0.031550
0.000000 0.224600 0.031550
0.022775 0.224600 0.031550
0.085550 0.224600 0.031550
0.148325 0.224600 0.031550
0.211100 0.224600 0.031550
0.273875 0.224600 0.031550
0.336650 0.224600 0.031550
0.399425 0.224600 0.031550
0.462200 0.224600 0.031550
0.524975 0.224600 0.031550
0.587750 0.224600 0.031550
0.650525 0.224600 0.031550
0.713300 0.224600 0.031550
0.776075 0.224600 0.031550
0.838850 0.224600 0.031550
0.901625 0.224600 0.031550
0.964400 0.224600 0.031550
0.000000 0.290750 0.031550
0.022775 0.290750 0.031550
0.085550 0.290750 0.031550
0.148325 0.290750 0.031550
0.211100 0.290750 0.031550
0.273875 0.290750 0.031550
0.336650 0.290750 0.031550
0.399425 0.290750 0.031550
0.462200 0.290750 0.031550
0.524975 0.290750 0.031550
0.587750 0.290750 0.031550
0.650525 0.290750 0.031550
0.713300 0.290750 0.031550
0.776075 0.290750 0.031550
0.838850 0.290750 0.031550
0.901625 0.290750 0.031550
0.964400 0.290750 0.031550
0.000000 0.356900 0.031550
0.022775 0.356900 0.031550
0.085550 0.356900 0.031550
0.148325 0.356900 0.031550
0.211100 0.356900 0.031550
0.273875 0.356900 0.031550
0.336650 0.356900 0.031550
0.399425 0.356900 0.031550
0.462200 0.356900 0.031550
0.524975 0.356900 0.031550
0.587750 0.356900 0.031550
0.650525 0.356900 0.031550
0.713300 0.356900 0.031550
0.776075 0.356900 0.031550
0.838850 0.356900 0.031550
0.901625 0.356900 0.031550
0.964400 0.356900 0.031550
0.000000 0.423050 0.031550
0.022775 0.423050 0.031550
0.085550 0.423050 0.031550
0.148325 0.423050 0.031550
0.211100 0.423050 0.031550
0.273875 0.423050 0.031550
0.336650 0.423050 0.031550
0.399425 0.423050 0.031550
0.462200 0.423050 0.031550
0.524975 0.423050 0.031550
0.587750 0.423050 0.031550
0.650525 0.423050 0.031550
0.713300 0.423050 0.031550
0.776075 0.423050 0.031550
0.838850 0.423050 0.031550
0.901625 0.423050 0.031550
0.964400 0.423050 0.031550
0.000000 0.489200 0.031550
0.022775 0.489200 0.031550
0.085550 0.489200 0.031550
0.148325 0.489200 0.031550
0.211100 0.489200 0.031550
0.273875 0.489200 0.031550
0.336650 0.489200 0.031550
0.399425 0.489200 0.031550
0.462200 0.489200 0.031550
0.524975 0.489200 0.031550
0.587750 0.489200 0.031550
0.650525 0.489200 0.031550
0.713300 0.489200 0.031550
0.776075 0.489200 0.031550
0.838850 0.489200 0.031550
0.901625 0.489200 0.031550
0.964400 0.489200 0.031550
0.000000 0.555350 0.031550
0.022775 0.555350 0.031550
0.085550 0.555350 0.031550
0.148325 0.555350 0.031550
0.211100 0.555350 0.031550
0.273875 0.555350 0.031550
0.336650 0.555350 0.031550
0.399425 0.555350 0.031550
0.462200 0.555350 0.031550
0.524975 0.555350 0.031550
0.587750 0.555350 0.031550
0.650525 0.555350 0.031550
0.713300 0.555350 0.031550
0.776075 0.555350 0.031550
0.838850 0.555350 0.031550
0.901625 0.555350 0.031550
0.964400 0.555350 0.031550
0.000000 0.621500 0.031550
0.022775 0.621500 0.031550
0.085550 0.621500 0.031550
0.148325 0.621500 0.031550
0.211100 0.621500 0.031550
0.273875 0.621500 0.031550
0.336650 0.621500 0.031550
0.399425 0.621500 0.031550
0.462200 0.621500 0.031550
0.524975 0.621500 0.031550
0.587750 0.621500 0.031550
0.650525 0.621500 0.031550
0.713300 0.621500 0.031550
0.776075 0.621500 0.031550
0.838850 0.621500 0.031550
0.901625 0.621500 0.031550
0.964400 0.621500 0.031550
0.000000 0.687650 0.031550
0.022775 0.687650 0.031550
0.085550 0.687650 0.031550
0.148325 0.687650 0.031550
0.211100 0.687650 0.031550
0.273875 0.687650 0.031550
0.336650 0.687650 0.031550
0.399425 0.687650 0.031550
0.462200 0.687650 0.031550
0.524975 0.687650 0.031550
0.587750 0.687650 0.031550
0.650525 0.687650 0.031550
0.713300 0.687650 0.031550
0.776075 0.687650 0.031550
0.838850 0.687650 0.031550
0.901625 0.687650 0.031550
0.964400 0.687650 0.031550
0.000000 0.753800 0.031550
0.022775 0.753800 0.031550
0.085550 0.753800 0.031550
0.148325 0.753800 0.031550
0.211100 0.753800 0.031550
0.273875 0.753800 0.031550
0.336650 0.753800 0.031550
0.399425 0.753800 0.031550
0.462200 0.753800 0.031550
0.524975 0.753800 0.031550
0.587750 0.753800 0.031550
0.650525 0.753800 0.031550
0.713300 0.753800 0.031550
0.776075 0.753800 0.031550
0.838850 0.753800 0.031550
0.901625 0.753800 0.031550
0.964400 0.753800 0.031550
0.000000 0.819950 0.031550
0.022775 0.819950 0.031550
0.085550 0.819950 0.031550
0.148325 0.819950 0.031550
0.211100 0.819950 0.031550
0.273875 0.819950 0.031550
0.336650 0.819950 0.031550
0.399425 0.819950 0.031550
0.462200 0.819950 0.031550
0.524975 0.819950 0.031550
0.587750 0.819950 0.031550
0.650525 0.819950 0.031550
0.713300 0.819950 0.031550
0.776075 0.819950 0.031550
0.838850 0.819950 0.031550
0.901625 0.819950 0.031550
0.964400 0.819950 0.031550
0.000000 0.886100 0.031550
0.022775 0.886100 0.031550
0.085550 0.886100 0.031550
0.148325 0.886100 0.031550
0.211100 0.886100 0.031550
0.273875 0.886100 0.031550
0.336650 0.886100 0.031550
0.399425 0.886100 0.031550
0.462200 0.886100 0.031550
0.524975 0.886100 0.031550
0.587750 0.886100 0.031550
0.650525 0.886100 0.031550
0.713300 0.886100 0.031550
0.776075 0.886100 0.031550
0.838850 0.886100 0.031550
0.901625 0.886100 0.031550
0.964400 0.886100 0.031550
0.000000 0.952250 0.031550
0.022775 0.952250 0.031550
0.085550 0.952250 0.031550
0.148325 0.952250 0.031550
0.211100 0.952250 0.031550
0.273875 0.952250 0.031550
0.336650 0.952250 0.031550
0.399425 0.952250 0.031550
0.462200 0.952250 0.031550
0.524975 0.952250 0.031550
0.587750 0.952250 0.031550
0.650525 0.952250 0.031550
0.713300 0.952250 0.031550
0.776075 0.952250 0.031550
0.838850 0.952250 0.031550
0.901625 0.952250 0.031550
0.964400 0.952250 0.031550
0.000000 1.000000 0.031550
0.022775 1.000000 0.031550
0.085550 1.000000 0.031550
0.148325 1.000000 0.031550
0.211100 1.000000 0.031550
0.273875 1.000000 0.031550
0.336650 1.000000 0.031550
0.399425 1.000000 0.031550
0.462200 1.000000 0.031550
0.524975 1.000000 0.031550
0.587750 1.000000 0.031550
0.650525 1.000000 0.031550
0.713300 1.000000 0.031550
0.776075 1.000000 0.031550
0.838850 1.000000 0.031550
0.901625 1.000000 0.031550
0.964400 1.000000 0.031550
0.000000 0.000000 0.103100
0.022775 0.000000 0.103100
0.085550 0.000000 0.103100
0.148325 0.000000 0.103100
0.211100 0.000000 0.103100
0.273875 0.000000 0.103100
0.336650 0.000000 0.103100
0.399425 0.000000 0.103100
0.462200 0.000000 0.103100
0.524975 0.000000 0.103100
0.587750 0.000000 0.103100
0.650525 0.000000 0.103100
0.713300 0.000000 0.103100
0.776075 0.000000 0.103100
0.838850 0.000000 0.103100
0.901625 0.000000 0.103100
0.964400 0.000000 0.103100
0.000000 0.026150 0.103100
0.022775 0.026150 0.103100
0.085550 0.026150 0.103100
0.148325 0.026150 0.103100
0.211100 0.026150 0.103100
0.273875 0.026150 0.103100
0.336650 0.026150 0.103100
0.399425 0.026150 0.103100
0.462200 0.026150 0.103100
0.524975 0.026150 0.103100
0.587750 0.026150 0.103100
0.650525 0.026150 0.103100
0.713300 0.026150 0.103100
0.776075 0.026150 0.103100
0.838850 0.026150 0.103100
0.901625 0.026150 0.103100
0.964400 0.026150 0.103100
0.000000 0.092300 0.103100
0.022775 0.092300 0.103100
0.085550 0.092300 0.103100
0.148325 0.092300 0.103100
0.211100 0.092300 0.103100
0.273875 0.092300 0.103100
0.336650 0.092300 0.103100
0.399425 0.092300 0.103100
0.462200 0.092300 0.103100
0.524975 0.092300 0.103100
0.587750 0.092300 0.103100
0.650525 0.092300 0.103100
0.713300 0.092300 0.103100
0.776075 0.092300 0.103100
0.838850 0.092300 0.103100
0.901625 0.092300 0.103100
0.964400 0.092300 0.103100
0.000000 0.158450 0.103100
0.022775 0.158450 0.103100
0.085550 0.158450 0.103100
0.148325 0.158450 0.103100
0.211100 0.158450 0.103100
0.273875 0.158450 0.103100
0.336650 0.158450 0.103100
0.399425 0.158450 0.103100
0.462200 0.158450 0.103100
0.524975 0.158450 0.103100
0.587750 0.158450 0.103100
0.650525 0.158450 0.103100
0.713300 0.158450 0.103100
0.776075 0.158450 0.103100
0.838850 0.158450 0.103100
0.901625 0.158450 0.103100
0.964400 0.158450 0.103100
0.000000 0.224600 0.103100
0.022775 0.224600 0.103100
0.085550 0.224600 0.103100
0.148325 0.224600 0.103100
0.211100 0.224600 0.103100
0.273875 0.224600 0.103100
0.336650 0.224600 0.103100
0.399425 0.224600 0.103100
0.462200 0.224600 0.103100
0.524975 0.224600 0.103100
0.587750 0.224600 0.103100
0.650525 0.224600 0.103100
0.713300 0.224600 0.103100
0.776075 0.224600 0.103100
0.838850 0.224600 0.103100
0.901625 0.224600 0.103100
0.964400 0.224600 0.103100
0.000000 0.290750 0.103100
0.022775 0.290750 0.103100
0.085550 0.290750 0.103100
0.148325 0.290750 0.103100
0.211100 0.290750 0.103100
0.273875 0.290750 0.103100
0.336650 0.290750 0.103100
0.399425 0.290750 0.103100
0.462200 0.290750 0.103100
0.524975 0.290750 0.103100
0.587750 0.290750 0.103100
0.650525 0.290750 0.103100
0.713300 0.290750 0.103100
0.776075 0.290750 0.103100
0.838850 0.290750 0.103100
0.901625 0.290750 0.103100
0.964400 0.290750 0.103100
0.000000 0.356900 0.103100
0.022775 0.356900 0.103100
0.085550 0.356900 0.103100
0.148325 0.356900 0.103100
0.211100 0.356900 0.103100
0.273875 0.356900 0.103100
0.336650 0.356900 0.103100
0.399425 0.356900 0.103100
0.462200 0.356900 0.103100
0.524975 0.356900 0.103100
0.587750 0.356900 0.103100
0.650525 0.356900 0.103100
0.713300 0.356900 0.103100
0.776075 0.356900 0.103100
0.838850 0.356900 0.103100
0.901625 0.356900 0.103100
0.964400 0.356900 0.103100
0.000000 0.423050 0.103100
0.022775 0.423050 0.103100
0.085550 0.423050 0.103100
0.148325 0.423050 0.103100
0.211100 0.423050 0.103100
0.273875 0.423050 0.103100
0.336650 0.423050 0.103100
0.399425 0.423050 0.103100
0.462200 0.423050 0.103100
0.524975 0.423050 0.103100
0.587750 0.423050 0.103100
0.650525 0.423050 0.103100
0.713300 0.423050 0.103100
0.776075 0.423050 0.103100
0.838850 0.423050 0.103100
0.901625 0.423050 0.103100
0.964400 0.423050 0.103100
0.000000 0.489200 0.103100
0.022775 0.489200 0.103100
0.085550 0.489200 0.103100
0.148325 0.489200 0.103100
0.211100 0.489200 0.103100
0.273875 0.489200 0.103100
0.336650 0.489200 0.103100
0.399425 0.489200 0.103100
0.462200 0.489200 0.103100
0.524975 0.489200 0.103100
0.587750 0.489200 0.103100
0.650525 0.489200 0.103100
0.713300 0.489200 0.103100
0.776075 0.489200 0.103100
0.838850 0.489200 0.103100
0.901625 0.489200 0.103100
0.964400 0.489200 0.103100
0.000000 0.555350 0.103100
0.022775 0.555350 0.103100
0.085550 0.555350 0.103100
0.148325 0.555350 0.103100
0.211100 0.555350 0.103100
0.273875 0.555350 0.103100
0.336650 0.555350 0.103100
0.399425 0.555350 0.103100
0.462200 0.555350 0.103100
0.524975 0.555350 0.103100
0.587750 0.555350 0.103100
0.650525 0.555350 0.103100
0.713300 0.555350 0.103100
0.776075 0.555350 0.103100
0.838850 0.555350 0.103100
0.901625 0.555350 0.103100
0.964400 0.555350 0.103100
0.000000 0.621500 0.103100
0.022775 0.621500 0.103100
0.085550 0.621500 0.103100
0.148325 0.621500 0.103100
0.211100 0.621500 0.103100
0.273875 0.621500 0.103100
0.336650 0.621500 0.103100
0.399425 0.621500 0.103100
0.462200 0.621500 0.103100
0.524975 0.621500 0.103100
0.587750 0.621500 0.103100
0.650525 0.621500 0.103100
0.713300 0.621500 0.103100
0.776075 0.621500 0.103100
0.838850 0.621500 0.103100
0.901625 0.621500 0.103100
0.964400 0.621500 0.103100
0.000000 0.687650 0.103100
0.022775 0.687650 0.103100
0.085550 0.687650 0.103100
0.148325 0.687650 0.103100
0.211100 0.687650 0.103100
0.273875 0.687650 0.103100
0.336650 0.687650 0.103100
0.399425 0.687650 0.103100
0.462200 0.687650 0.103100
0.524975 0.687650 0.103100
0.587750 0.687650 0.103100
0.650525 0.687650 0.103100
0.713300 0.687650 0.103100
0.776075 0.687650 0.103100
0.838850 0.687650 0.103100
0.901625 0.687650 0.103100
0.964400 0.687650 0.103100
0.000000 0.753800 0.103100
0.022775 0.753800 0.103100
0.085550 0.753800 0.103100
0.148325 0.753800 0.103100
0.211100 0.753800 0.103100
0.273875 0.753800 0.103100
0.336650 0.753800 0.103100
0.399425 0.753800 0.103100
0.462200 0.753800 0.103100
0.524975 0.753800 0.103100
0.587750 0.753800 0.103100
0.650525 0.753800 0.103100
0.713300 0.753800 0.103100
0.776075 0.753800 0.103100
0.838850 0.753800 0.103100
0.901625 0.753800 0.103100
0.964400 0.753800 0.103100
0.000000 0.819950 0.103100
0.022775 0.819950 0.103100
0.085550 0.819950 0.103100
0.148325 0.819950 0.103100
0.211100 0.819950 0.103100
0.273875 0.819950 0.103100
0.336650 0.819950 0.103100
0.399425 0.819950 0.103100
0.462200 0.819950 0.103100
0.524975 0.819950 0.103100
0.587750 0.819950 0.103100
0.650525 0.819950 0.103100
0.713300 0.819950 0.103100
0.776075 0.819950 0.103100
0.838850 0.819950 0.103100
0.901625 0.819950 0.103100
0.964400 0.819950 0.103100
0.000000 0.886100 0.103100
0.022775 0.886100 0.103100
0.085550 0.886100 0.103100
0.148325 0.886100 0.103100
0.211100 0.886100 0.103100
0.273875 0.886100 0.103100
0.336650 0.886100 0.103100
0.399425 0.886100 0.103100
0.462200 0.886100 0.103100
0.524975 0.886100 0.103100
0.587750 0.886100 0.103100
0.650525 0.886100 0.103100
0.713300 0.886100 0.103100
0.776075 0.886100 0.103100
0.838850 0.886100 0.103100
0.901625 0.886100 0.103100
0.964400 0.886100 0.103100
0.000000 0.952250 0.103100
0.022775 0.952250 0.103100
0.085550 0.952250 0.103100
0.148325 0.952250 0.103100
0.211100 0.952250 0.103100
0.273875 0.952250 0.103100
0.336650 0.952250 0.103100
0.399425 0.952250 0.103100
0.462200 0.952250 0.103100
0.524975 0.952250 0.103100
0.587750 0.952250 0.103100
0.650525 0.952250 0.103100
0.713300 0.952250 0.103100
0.776075 0.952250 0.103100
0.838850 0.952250 0.103100
0.901625 0.952250 0.103100
0.964400 0.952250 0.103100
0.000000 1.000000 0.103100
0.022775 1.000000 0.103100
0.085550 1.000000 0.103100
0.148325 1.000000 0.103100
0.211100 1.000000 0.103100
0.273875 1.000000 0.103100
0.336650 1.000000 0.103100
0.399425 1.000000 0.103100
0.462200 1.000000 0.103100
0.524975 1.000000 0.103100
0.587750 1.000000 0.103100
0.650525 1.000000 0.103100
0.713300 1.000000 0.103100
0.776075 1.000000 0.103100
0.838850 1.000000 0.103100
0.901625 1.000000 0.103100
0.964400 1.000000 0.103100
0.000000 0.000000 0.174650
0.022775 0.000000 0.174650
0.085550 0.000000 0.174650
0.148325 0.000000 0.174650
0.211100 0.000000 0.174650
0.273875 0.000000 0.174650
0.336650 0.000000 0.174650
0.399425 0.000000 0.174650
0.462200 0.000000 0.174650
0.524975 0.000000 0.174650
0.587750 0.000000 0.174650
0.650525 0.000000 0.174650
0.713300 0.000000 0.174650
0.776075 0.000000 0.174650
0.838850 0.000000 0.174650
0.901625 0.000000 0.174650
0.964400 0.000000 0.174650
0.000000 0.026150 0.174650
0.022775 0.026150 0.174650
0.085550 0.026150 0.174650
