director/public/luts/electric_blue.cube
TITLE "Electric Blue"
LUT_3D_SIZE 9
0.000000 0.000000 0.000000
0.085550 0.000000 0.000000
0.211100 0.000000 0.000000
0.336650 0.000000 0.000000
0.462200 0.000000 0.000000
0.587750 0.000000 0.000000
0.713300 0.000000 0.000000
0.838850 0.000000 0.000000
0.964400 0.000000 0.000000
0.000000 0.092300 0.000000
0.085550 0.092300 0.000000
0.211100 0.092300 0.000000
0.336650 0.092300 0.000000
0.462200 0.092300 0.000000
0.587750 0.092300 0.000000
0.713300 0.092300 0.000000
0.838850 0.092300 0.000000
0.964400 0.092300 0.000000
0.000000 0.224600 0.000000
0.085550 0.224600 0.000000
0.211100 0.224600 0.000000
0.336650 0.224600 0.000000
0.462200 0.224600 0.000000
0.587750 0.224600 0.000000
0.713300 0.224600 0.000000
0.838850 0.224600 0.000000
0.964400 0.224600 0.000000
0.000000 0.356900 0.000000
0.085550 0.356900 0.000000
0.211100 0.356900 0.000000
0.336650 0.356900 0.000000
0.462200 0.356900 0.000000
0.587750 0.356900 0.000000
0.713300 0.356900 0.000000
0.838850 0.356900 0.000000
0.964400 0.356900 0.000000
0.000000 0.489200 0.000000
0.085550 0.489200 0.000000
0.211100 0.489200 0.000000
0.336650 0.489200 0.000000
0.462200 0.489200 0.000000
0.587750 0.489200 0.000000
0.713300 0.489200 0.000000
0.838850 0.489200 0.000000
0.964400 0.489200 0.000000
0.000000 0.621500 0.000000
0.085550 0.621500 0.000000
0.211100 0.621500 0.000000
0.336650 0.621500 0.000000
0.462200 0.621500 0.000000
0.587750 0.621500 0.000000
0.713300 0.621500 0.000000
0.838850 0.621500 0.000000
0.964400 0.621500 0.000000
0.000000 0.753800 0.000000
0.085550 0.753800 0.000000
0.211100 0.753800 0.000000
0.336650 0.753800 0.000000
0.462200 0.753800 0.000000
0.587750 0.753800 0.000000
0.713300 0.753800 0.000000
0.838850 0.753800 0.000000
0.964400 0.753800 0.000000
0.000000 0.886100 0.000000
0.085550 0.886100 0.000000
0.211100 0.886100 0.000000
0.336650 0.886100 0.000000
0.462200 0.886100 0.000000
0.587750 0.886100 0.000000
0.713300 0.886100 0.000000
0.838850 0.886100 0.000000
0.964400 0.886100 0.000000
0.000000 1.000000 0.000000
0.085550 1.000000 0.000000
0.211100 1.000000 0.000000
0.336650 1.000000 0.000000
0.462200 1.000000 0.000000
0.587750 1.000000 0.000000
0.713300 1.000000 0.000000
0.838850 1.000000 0.000000
0.964400 1.000000 0.000000
0.000000 0.000000 0.103100
0.085550 0.000000 0.103100
0.211100 0.000000 0.103100
0.336650 0.000000 0.103100
0.462200 0.000000 0.103100
0.587750 0.000000 0.103100
0.713300 0.000000 0.103100
0.838850 0.000000 0.103100
0.964400 0.000000 0.103100
0.000000 0.092300 0.103100
0.085550 0.092300 0.103100
0.211100 0.092300 0.103100
0.336650 0.092300 0.103100
0.462200 0.092300 0.103100
0.587750 0.092300 0.103100
0.713300 0.092300 0.103100
0.838850 0.092300 0.103100
0.964400 0.092300 0.103100
0.000000 0.224600 0.103100
0.085550 0.224600 0.103100
0.211100 0.224600 0.103100
0.336650 0.224600 0.103100
0.462200 0.224600 0.103100
0.587750 0.224600 0.103100
0.713300 0.224600 0.103100
0.838850 0.224600 0.103100
0.964400 0.224600 0.103100
0.000000 0.356900 0.103100
0.085550 0.356900 0.103100
0.211100 0.356900 0.103100
0.336650 0.356900 0.103100
0.462200 0.356900 0.103100
0.587750 0.356900 0.103100
0.713300 0.356900 0.103100
0.838850 0.356900 0.103100
0.964400 0.356900 0.103100
0.000000 0.489200 0.103100
0.085550 0.489200 0.103100
0.211100 0.489200 0.103100
0.336650 0.489200 0.103100
0.462200 0.489200 0.103100
0.587750 0.489200 0.103100
0.713300 0.489200 0.103100
0.838850 0.489200 0.103100
0.964400 0.489200 0.103100
0.000000 0.621500 0.103100
0.085550 0.621500 0.103100
0.211100 0.621500 0.103100
0.336650 0.621500 0.103100
0.462200 0.621500 0.103100
0.587750 0.621500 0.103100
0.713300 0.621500 0.103100
0.838850 0.621500 0.103100
0.964400 0.621500 0.103100
0.000000 0.753800 0.103100
0.085550 0.753800 0.103100
0.211100 0.753800 0.103100
0.336650 0.753800 0.103100
0.462200 0.753800 0.103100
0.587750 0.753800 0.103100
0.713300 0.753800 0.103100
0.838850 0.753800 0.103100
0.964400 0.753800 0.103100
0.000000 0.886100 0.103100
0.085550 0.886100 0.103100
0.211100 0.886100 0.103100
0.336650 0.886100 0.103100
0.462200 0.886100 0.103100
0.587750 0.886100 0.103100
0.713300 0.886100 0.103100
0.838850 0.886100 0.103100
0.964400 0.886100 0.103100
0.000000 1.000000 0.103100
0.085550 1.000000 0.103100
0.211100 1.000000 0.103100
0.336650 1.000000 0.103100
0.462200 1.000000 0.103100
0.587750 1.000000 0.103100
0.713300 1.000000 0.103100
0.838850 1.000000 0.103100
0.964400 1.000000 0.103100
0.000000 0.000000 0.246200
0.085550 0.000000 0.246200
0.211100 0.000000 0.246200
0.336650 0.000000 0.246200
0.462200 0.000000 0.246200
0.587750 0.000000 0.246200
0.713300 0.000000 0.246200
0.838850 0.000000 0.246200
0.964400 0.000000 0.246200
0.000000 0.092300 0.246200
0.085550 0.092300 0.246200
0.211100 0.092300 0.246200
0.336650 0.092300 0.246200
0.462200 0.092300 0.246200
0.587750 0.092300 0.246200
0.713300 0.092300 0.246200
0.838850 0.092300 0.246200
0.964400 0.092300 0.246200
0.000000 0.224600 0.246200
0.085550 0.224600 0.246200
0.211100 0.224600 0.246200
0.336650 0.224600 0.246200
0.462200 0.224600 0.246200
0.587750 0.224600 0.246200
0.713300 0.224600 0.246200
0.838850 0.224600 0.246200
0.964400 0.224600 0.246200
0.000000 0.356900 0.246200
0.085550 0.356900 0.246200
0.211100 0.356900 0.246200
0.336650 0.356900 0.246200
0.462200 0.356900 0.246200
0.587750 0.356900 0.246200
0.713300 0.356900 0.246200
0.838850 0.356900 0.246200
0.964400 0.356900 0.246200
0.000000 0.489200 0.246200
0.085550 0.489200 0.246200
0.211100 0.489200 0.246200
0.336650 0.489200 0.246200
0.462200 0.489200 0.246200
0.587750 0.489200 0.246200
0.713300 0.489200 0.246200
0.838850 0.489200 0.246200
0.964400 0.489200 0.246200
0.000000 0.621500 0.246200
0.085550 0.621500 0.246200
0.211100 0.621500 0.246200
0.336650 0.621500 0.246200
0.462200 0.621500 0.246200
0.587750 0.621500 0.246200
0.713300 0.621500 0.246200
0.838850 0.621500 0.246200
0.964400 0.621500 0.246200
0.000000 0.753800 0.246200
0.085550 0.753800 0.246200
0.211100 0.753800 0.246200
0.336650 0.753800 0.246200
0.462200 0.753800 0.246200
0.587750 0.753800 0.246200
0.713300 0.753800 0.246200
0.838850 0.753800 0.246200
0.964400 0.753800 0.246200
0.000000 0.886100 0.246200
0.085550 0.886100 0.246200
0.211100 0.886100 0.246200
0.336650 0.886100 0.246200
0.462200 0.886100 0.246200
0.587750 0.886100 0.246200
0.713300 0.886100 0.246200
0.838850 0.886100 0.246200
0.964400 0.886100 0.246200
0.000000 1.000000 0.246200
0.085550 1.000000 0.246200
0.211100 1.000000 0.246200
0.336650 1.000000 0.246200
0.462200 1.000000 0.246200
0.587750 1.000000 0.246200
0.713300 1.000000 0.246200
0.838850 1.000000 0.246200
0.964400 1.000000 0.246200
0.000000 0.000000 0.389300
0.085550 0.000000 0.389300
0.211100 0.000000 0.389300
0.336650 0.000000 0.389300
0.462200 0.000000 0.389300
0.587750 0.000000 0.389300
0.713300 0.000000 0.389300
0.838850 0.000000 0.389300
0.964400 0.000000 0.389300
0.000000 0.092300 0.389300
0.085550 0.092300 0.389300
0.211100 0.092300 0.389300
0.336650 0.092300 0.389300
0.462200 0.092300 0.389300
0.587750 0.092300 0.389300
0.713300 0.092300 0.389300
0.838850 0.092300 0.389300
0.964400 0.092300 0.389300
0.000000 0.224600 0.389300
0.085550 0.224600 0.389300
0.211100 0.224600 0.389300
0.336650 0.224600 0.389300
0.462200 0.224600 0.389300
0.587750 0.224600 0.389300
0.713300 0.224600 0.389300
0.838850 0.224600 0.389300
0.964400 0.224600 0.389300
0.000000 0.356900 0.389300
0.085550 0.356900 0.389300
0.211100 0.356900 0.389300
0.336650 0.356900 0.389300
0.462200 0.356900 0.389300
0.587750 0.356900 0.389300
0.713300 0.356900 0.389300
0.838850 0.356900 0.389300
0.964400 0.356900 0.389300
0.000000 0.489200 0.389300
0.085550 0.489200 0.389300
0.211100 0.489200 0.389300
0.336650 0.489200 0.389300
0.462200 0.489200 0.389300
0.587750 0.489200 0.389300
0.713300 0.489200 0.389300
0.838850 0.489200 0.389300
0.964400 0.489200 0.389300
0.000000 0.621500 0.389300
0.085550 0.621500 0.389300
0.211100 0.621500 0.389300
0.336650 0.621500 0.389300
0.462200 0.621500 0.389300
0.587750 0.621500 0.389300
0.713300 0.621500 0.389300
0.838850 0.621500 0.389300
0.964400 0.621500 0.389300
0.000000 0.753800 0.389300
0.085550 0.753800 0.389300
0.211100 0.753800 0.389300
0.336650 0.753800 0.389300
0.462200 0.753800 0.389300
0.587750 0.753800 0.389300
0.713300 0.753800 0.389300
0.838850 0.753800 0.389300
0.964400 0.753800 0.389300
0.000000 0.886100 0.389300
0.085550 0.886100 0.389300
0.211100 0.886100 0.389300
0.336650 0.886100 0.389300
0.462200 0.886100 0.389300
0.587750 0.886100 0.389300
0.713300 0.886100 0.389300
0.838850 0.886100 0.389300
0.964400 0.886100 0.389300
0.000000 1.000000 0.389300
0.085550 1.000000 0.389300
0.211100 1.000000 0.389300
0.336650 1.000000 0.389300
0.462200 1.000000 0.389300
0.587750 1.000000 0.389300
0.713300 1.000000 0.389300
0.838850 1.000000 0.389300
0.964400 1.000000 0.389300
0.000000 0.000000 0.532400
0.085550 0.000000 0.532400
0.211100 0.000000 0.532400
0.336650 0.000000 0.532400
0.462200 0.000000 0.532400
0.587750 0.000000 0.532400
0.713300 0.000000 0.532400
0.838850 0.000000 0.532400
0.964400 0.000000 0.532400
0.000000 0.092300 0.532400
0.085550 0.092300 0.532400
0.211100 0.092300 0.532400
0.336650 0.092300 0.532400
0.462200 0.092300 0.532400
0.587750 0.092300 0.532400
0.713300 0.092300 0.532400
0.838850 0.092300 0.532400
0.964400 0.092300 0.532400
0.000000 0.224600 0.532400
0.085550 0.224600 0.532400
0.211100 0.224600 0.532400
0.336650 0.224600 0.532400
0.462200 0.224600 0.532400
0.587750 0.224600 0.532400
0.713300 0.224600 0.532400
0.838850 0.224600 0.532400
0.964400 0.224600 0.532400
0.000000 0.356900 0.532400
0.085550 0.356900 0.532400
0.211100 0.356900 0.532400
0.336650 0.356900 0.532400
0.462200 0.356900 0.532400
0.587750 0.356900 0.532400
0.713300 0.356900 0.532400
0.838850 0.356900 0.532400
0.964400 0.356900 0.532400
0.000000 0.489200 0.532400
0.085550 0.489200 0.532400
0.211100 0.489200 0.532400
0.336650 0.489200 0.532400
0.462200 0.489200 0.532400
0.587750 0.489200 0.532400
0.713300 0.489200 0.532400
0.838850 0.489200 0.532400
0.964400 0.489200 0.532400
0.000000 0.621500 0.532400
0.085550 0.621500 0.532400
0.211100 0.621500 0.532400
0.336650 0.621500 0.532400
0.462200 0.621500 0.532400
0.587750 0.621500 0.532400
0.713300 0.621500 0.532400
0.838850 0.621500 0.532400
0.964400 0.621500 0.532400
0.000000 0.753800 0.532400
0.085550 0.753800 0.532400
0.211100 0.753800 0.532400
0.336650 0.753800 0.532400
0.462200 0.753800 0.532400
0.587750 0.753800 0.532400
0.713300 0.753800 0.532400
0.838850 0.753800 0.532400
0.964400 0.753800 0.532400
0.000000 0.886100 0.532400
0.085550 0.886100 0.532400
0.211100 0.886100 0.532400
0.336650 0.886100 0.532400
0.462200 0.886100 0.532400
0.587750 0.886100 0.532400
0.713300 0.886100 0.532400
0.838850 0.886100 0.532400
0.964400 0.886100 0.532400
0.000000 1.000000 0.532400
0.085550 1.000000 0.532400
0.211100 1.000000 0.532400
0.336650 1.000000 0.532400
0.462200 1.000000 0.532400
0.587750 1.000000 0.532400
0.713300 1.000000 0.532400
0.838850 1.000000 0.532400
0.964400 1.000000 0.532400
0.000000 0.000000 0.675500
0.085550 0.000000 0.675500
0.211100 0.000000 0.675500
0.336650 0.000000 0.675500
0.462200 0.000000 0.675500
0.587750 0.000000 0.675500
0.713300 0.000000 0.675500
0.838850 0.000000 0.675500
0.964400 0.000000 0.675500
0.000000 0.092300 0.675500
0.085550 0.092300 0.675500
0.211100 0.092300 0.675500
0.336650 0.092300 0.675500
0.462200 0.092300 0.675500
0.587750 0.092300 0.675500
0.713300 0.092300 0.675500
0.838850 0.092300 0.675500
0.964400 0.092300 0.675500
0.000000 0.224600 0.675500
0.085550 0.224600 0.675500
0.211100 0.224600 0.675500
0.336650 0.224600 0.675500
0.462200 0.224600 0.675500
0.587750 0.224600 0.675500
0.713300 0.224600 0.675500
0.838850 0.224600 0.675500
0.964400 0.224600 0.675500
0.000000 0.356900 0.675500
0.085550 0.356900 0.675500
0.211100 0.356900 0.675500
0.336650 0.356900 0.675500
0.462200 0.356900 0.675500
0.587750 0.356900 0.675500
0.713300 0.356900 0.675500
0.838850 0.356900 0.675500
0.964400 0.356900 0.675500
0.000000 0.489200 0.675500
0.085550 0.489200 0.675500
0.211100 0.489200 0.675500
0.336650 0.489200 0.675500
0.462200 0.489200 0.675500
0.587750 0.489200 0.675500
0.713300 0.489200 0.675500
0.838850 0.489200 0.675500
0.964400 0.489200 0.675500
0.000000 0.621500 0.675500
0.085550 0.621500 0.675500
0.211100 0.621500 0.675500
0.336650 0.621500 0.675500
0.462200 0.621500 0.675500
0.587750 0.621500 0.675500
0.713300 0.621500 0.675500
0.838850 0.621500 0.675500
0.964400 0.621500 0.675500
0.000000 0.753800 0.675500
0.085550 0.753800 0.675500
0.211100 0.753800 0.675500
0.336650 0.753800 0.675500
0.462200 0.753800 0.675500
0.587750 0.753800 0.675500
0.713300 0.753800 0.675500
0.838850 0.753800 0.675500
0.964400 0.753800 0.675500
0.000000 0.886100 0.675500
0.085550 0.886100 0.675500
0.211100 0.886100 0.675500
0.336650 0.886100 0.675500
0.462200 0.886100 0.675500
0.587750 0.886100 0.675500
0.713300 0.886100 0.675500
0.838850 0.886100 0.675500
0.964400 0.886100 0.675500
0.000000 1.000000 0.675500
0.085550 1.000000 0.675500
0.211100 1.000000 0.675500
0.336650 1.000000 0.675500
0.462200 1.000000 0.675500
0.587750 1.000000 0.675500
0.713300 1.000000 0.675500
0.838850 1.000000 0.675500
0.964400 1.000000 0.675500
0.000000 0.000000 0.818600
0.085550 0.000000 0.818600
0.211100 0.000000 0.818600
0.336650 0.000000 0.818600
0.462200 0.000000 0.818600
0.587750 0.000000 0.818600
0.713300 0.000000 0.818600
0.838850 0.000000 0.818600
0.964400 0.000000 0.818600
0.000000 0.092300 0.818600
0.085550 0.092300 0.818600
0.211100 0.092300 0.818600
0.336650 0.092300 0.818600
0.462200 0.092300 0.818600
0.587750 0.092300 0.818600
0.713300 0.092300 0.818600
0.838850 0.092300 0.818600
0.964400 0.092300 0.818600
0.000000 0.224600 0.818600
0.085550 0.224600 0.818600
0.211100 0.224600 0.818600
0.336650 0.224600 0.818600
0.462200 0.224600 0.818600
0.587750 0.224600 0.818600
0.713300 0.224600 0.818600
0.838850 0.224600 0.818600
0.964400 0.224600 0.818600
0.000000 0.356900 0.818600
0.085550 0.356900 0.818600
0.211100 0.356900 0.818600
0.336650 0.356900 0.818600
0.462200 0.356900 0.818600
0.587750 0.356900 0.818600
0.713300 0.356900 0.818600
0.838850 0.356900 0.818600
0.964400 0.356900 0.818600
0.000000 0.489200 0.818600
0.085550 0.489200 0.818600
0.211100 0.489200 0.818600
0.336650 0.489200 0.818600
0.462200 0.489200 0.818600
0.587750 0.489200 0.818600
0.713300 0.489200 0.818600
0.838850 0.489200 0.818600
0.964400 0.489200 0.818600
0.000000 0.621500 0.818600
0.085550 0.621500 0.818600
0.211100 0.621500 0.818600
0.336650 0.621500 0.818600
0.462200 0.621500 0.818600
0.587750 0.621500 0.818600
0.713300 0.621500 0.818600
0.838850 0.621500 0.818600
0.964400 0.621500 0.818600
0.000000 0.753800 0.818600
0.085550 0.753800 0.818600
0.211100 0.753800 0.818600
0.336650 0.753800 0.818600
0.462200 0.753800 0.818600
0.587750 0.753800 0.818600
0.713300 0.753800 0.818600
0.838850 0.753800 0.818600
0.964400 0.753800 0.818600
0.000000 0.886100 0.818600
0.085550 0.886100 0.818600
0.211100 0.886100 0.818600
0.336650 0.886100 0.818600
0.462200 0.886100 0.818600
0.587750 0.886100 0.818600
0.713300 0.886100 0.818600
0.838850 0.886100 0.818600
0.964400 0.886100 0.818600
0.000000 1.000000 0.818600
0.085550 1.000000 0.818600
0.211100 1.000000 0.818600
0.336650 1.000000 0.818600
0.462200 1.000000 0.818600
0.587750 1.000000 0.818600
0.713300 1.000000 0.818600
0.838850 1.000000 0.818600
0.964400 1.000000 0.818600
0.000000 0.000000 0.961700
0.085550 0.000000 0.961700
0.211100 0.000000 0.961700
0.336650 0.000000 0.961700
0.462200 0.000000 0.961700
0.587750 0.000000 0.961700
0.713300 0.000000 0.961700
0.838850 0.000000 0.961700
0.964400 0.000000 0.961700
0.000000 0.092300 0.961700
0.085550 0.092300 0.961700
0.211100 0.092300 0.961700
0.336650 0.092300 0.961700
0.462200 0.092300 0.961700
0.587750 0.092300 0.961700
0.713300 0.092300 0.961700
0.838850 0.092300 0.961700
0.964400 0.092300 0.961700
0.000000 0.224600 0.961700
0.085550 0.224600 0.961700
0.211100 0.224600 0.961700
0.336650 0.224600 0.961700
0.462200 0.224600 0.961700
0.587750 0.224600 0.961700
0.713300 0.224600 0.961700
0.838850 0.224600 0.961700
0.964400 0.224600 0.961700
0.000000 0.356900 0.961700
0.085550 0.356900 0.961700
0.211100 0.356900 0.961700
0.336650 0.356900 0.961700
0.462200 0.356900 0.961700
0.587750 0.356900 0.961700
0.713300 0.356900 0.961700
0.838850 0.356900 0.961700
0.964400 0.356900 0.961700
0.000000 0.489200 0.961700
0.085550 0.489200 0.961700
0.211100 0.489200 0.961700
0.336650 0.489200 0.961700
0.462200 0.489200 0.961700
0.587750 0.489200 0.961700
0.713300 0.489200 0.961700
0.838850 0.489200 0.961700
0.964400 0.489200 0.961700
0.000000 0.621500 0.961700
0.085550 0.621500 0.961700
0.211100 0.621500 0.961700
0.336650 0.621500 0.961700
0.462200 0.621500 0.961700
0.587750 0.621500 0.961700
0.713300 0.621500 0.961700
0.838850 0.621500 0.961700
0.964400 0.621500 0.961700
0.000000 0.753800 0.961700
0.085550 0.753800 0.961700
0.211100 0.753800 0.961700
0.336650 0.753800 0.961700
0.462200 0.753800 0.961700
0.587750 0.753800 0.961700
0.713300 0.753800 0.961700
0.838850 0.753800 0.961700
0.964400 0.753800 0.961700
0.000000 0.886100 0.961700
0.085550 0.886100 0.961700
0.211100 0.886100 0.961700
0.336650 0.886100 0.961700
0.462200 0.886100 0.961700
0.587750 0.886100 0.961700
0.713300 0.886100 0.961700
0.838850 0.886100 0.961700
0.964400 0.886100 0.961700
0.000000 1.000000 0.961700
0.085550 1.000000 0.961700
0.211100 1.000000 0.961700
0.336650 1.000000 0.961700
0.462200 1.000000 0.961700
0.587750 1.000000 0.961700
0.713300 1.000000 0.961700
0.838850 1.000000 0.961700
0.964400 1.000000 0.961700
0.000000 0.000000 1.000000
0.085550 0.000000 1.000000
0.211100 0.000000 1.000000
0.336650 0.000000 1.000000
0.462200 0.000000 1.000000
0.587750 0.000000 1.000000
0.713300 0.000000 1.000000
0.838850 0.000000 1.000000
0.964400 0.000000 1.000000
0.000000 0.092300 1.000000
0.085550 0.092300 1.000000
0.211100 0.092300 1.000000
0.336650 0.092300 1.000000
0.462200 0.092300 1.000000
0.587750 0.092300 1.000000
0.713300 0.092300 1.000000
0.838850 0.092300 1.000000
0.964400 0.092300 1.000000
0.000000 0.224600 1.000000
0.085550 0.224600 1.000000
0.211100 0.224600 1.000000
0.336650 0.224600 1.000000
0.462200 0.224600 1.000000
0.587750 0.224600 1.000000
0.713300 0.224600 1.000000
0.838850 0.224600 1.000000
0.964400 0.224600 1.000000
0.000000 0.356900 1.000000
0.085550 0.356900 1.000000
0.211100 0.356900 1.000000
0.336650 0.356900 1.000000
0.462200 0.356900 1.000000
0.587750 0.356900 1.000000
0.713300 0.356900 1.000000
0.838850 0.356900 1.000000
0.964400 0.356900 1.000000
0.000000 0.489200 1.000000
0.085550 0.489200 1.000000
0.211100 0.489200 1.000000
0.336650 0.489200 1.000000
0.462200 0.489200 1.000000
0.587750 0.489200 1.000000
0.713300 0.489200 1.000000
0.838850 0.489200 1.000000
0.964400 0.489200 1.000000
0.000000 0.621500 1.000000
0.085550 0.621500 1.000000
0.211100 0.621500 1.000000
0.336650 0.621500 1.000000
0.462200 0.621500 1.000000
0.587750 0.621500 1.000000
0.713300 0.621500 1.000000
0.838850 0.621500 1.000000
0.964400 0.621500 1.000000
0.000000 0.753800 1.000000
0.085550 0.753800 1.000000
0.211100 0.753800 1.000000
0.336650 0.753800 1.000000
0.462200 0.753800 1.000000
0.587750 0.753800 1.000000
0.713300 0.753800 1.000000
0.838850 0.753800 1.000000
0.964400 0.753800 1.000000
0.000000 0.886100 1.000000
0.085550 0.886100 1.000000
0.211100 0.886100 1.000000
0.336650 0.886100 1.000000
0.462200 0.886100 1.000000
0.587750 0.886100 1.000000
0.713300 0.886100 1.000000
0.838850 0.886100 1.000000
0.964400 0.886100 1.000000
0.000000 1.000000 1.000000
0.085550 1.000000 1.000000
0.211100 1.000000 1.000000
0.336650 1.000000 1.000000
0.462200 1.000000 1.000000
0.587750 1.000000 1.000000
0.713300 1.000000 1.000000
0.838850 1.000000 1.000000
0.964400 1.000000 1.000000
