director/public/luts/matrix_green.cube
TITLE "Matrix Green"
LUT_3D_SIZE 17
0.000000 0.000000 0.000000
0.022775 0.000000 0.000000
0.085550 0.000000 0.000000
0.148325 0.000000 0.000000
0.211100 0.000000 0.000000
0.273875 0.000000 0.000000
0.336650 0.000000 0.000000
0.399425 0.000000 0.000000
0.462200 0.000000 0.000000
0.524975 0.000000 0.000000
0.587750 0.000000 0.000000
0.650525 0.000000 0.000000
0.713300 0.000000 0.000000
0.776075 0.000000 0.000000
0.838850 0.000000 0.000000
0.901625 0.000000 0.000000
0.964400 0.000000 0.000000
0.000000 0.031550 0.000000
0.022775 0.031550 0.000000
0.085550 0.031550 0.000000
0.148325 0.031550 0.000000
0.211100 0.031550 0.000000
0.273875 0.031550 0.000000
0.336650 0.031550 0.000000
0.399425 0.031550 0.000000
0.462200 0.031550 0.000000
0.524975 0.031550 0.000000
0.587750 0.031550 0.000000
0.650525 0.031550 0.000000
0.713300 0.031550 0.000000
0.776075 0.031550 0.000000
0.838850 0.031550 0.000000
0.901625 0.031550 0.000000
0.964400 0.031550 0.000000
0.000000 0.103100 0.000000
0.022775 0.103100 0.000000
0.085550 0.103100 0.000000
0.148325 0.103100 0.000000
0.211100 0.103100 0.000000
0.273875 0.103100 0.000000
0.336650 0.103100 0.000000
0.399425 0.103100 0.000000
0.462200 0.103100 0.000000
0.524975 0.103100 0.000000
0.587750 0.103100 0.000000
0.650525 0.103100 0.000000
0.713300 0.103100 0.000000
0.776075 0.103100 0.000000
0.838850 0.103100 0.000000
0.901625 0.103100 0.000000
0.964400 0.103100 0.000000
0.000000 0.174650 0.000000
0.022775 0.174650 0.000000
0.085550 0.174650 0.000000
0.148325 0.174650 0.000000
0.211100 0.174650 0.000000
0.273875 0.174650 0.000000
0.336650 0.174650 0.000000
0.399425 0.174650 0.000000
0.462200 0.174650 0.000000
0.524975 0.174650 0.000000
0.587750 0.174650 0.000000
0.650525 0.174650 0.000000
0.713300 0.174650 0.000000
0.776075 0.174650 0.000000
0.838850 0.174650 0.000000
0.901625 0.174650 0.000000
0.964400 0.174650 0.000000
0.000000 0.246200 0.000000
0.022775 0.246200 0.000000
0.085550 0.246200 0.000000
0.148325 0.246200 0.000000
0.211100 0.246200 0.000000
0.273875 0.246200 0.000000
0.336650 0.246200 0.000000
0.399425 0.246200 0.000000
0.462200 0.246200 0.000000
0.524975 0.246200 0.000000
0.587750 0.246200 0.000000
0.650525 0.246200 0.000000
0.713300 0.246200 0.000000
0.776075 0.246200 0.000000
0.838850 0.246200 0.000000
0.901625 0.246200 0.000000
0.964400 0.246200 0.000000
0.000000 0.317750 0.000000
0.022775 0.317750 0.000000
0.085550 0.317750 0.000000
0.148325 0.317750 0.000000
0.211100 0.317750 0.000000
0.273875 0.317750 0.000000
0.336650 0.317750 0.000000
0.399425 0.317750 0.000000
0.462200 0.317750 0.000000
0.524975 0.317750 0.000000
0.587750 0.317750 0.000000
0.650525 0.317750 0.000000
0.713300 0.317750 0.000000
0.776075 0.317750 0.000000
0.838850 0.317750 0.000000
0.901625 0.317750 0.000000
0.964400 0.317750 0.000000
0.000000 0.389300 0.000000
0.022775 0.389300 0.000000
0.085550 0.389300 0.000000
0.148325 0.389300 0.000000
0.211100 0.389300 0.000000
0.273875 0.389300 0.000000
0.336650 0.389300 0.000000
0.399425 0.389300 0.000000
0.462200 0.389300 0.000000
0.524975 0.389300 0.000000
0.587750 0.389300 0.000000
0.650525 0.389300 0.000000
0.713300 0.389300 0.000000
0.776075 0.389300 0.000000
0.838850 0.389300 0.000000
0.901625 0.389300 0.000000
0.964400 0.389300 0.000000
0.000000 0.460850 0.000000
0.022775 0.460850 0.000000
0.085550 0.460850 0.000000
0.148325 0.460850 0.000000
0.211100 0.460850 0.000000
0.273875 0.460850 0.000000
0.336650 0.460850 0.000000
0.399425 0.460850 0.000000
0.462200 0.460850 0.000000
0.524975 0.460850 0.000000
0.587750 0.460850 0.000000
0.650525 0.460850 0.000000
0.713300 0.460850 0.000000
0.776075 0.460850 0.000000
0.838850 0.460850 0.000000
0.901625 0.460850 0.000000
0.964400 0.460850 0.000000
0.000000 0.532400 0.000000
0.022775 0.532400 0.000000
0.085550 0.532400 0.000000
0.148325 0.532400 0.000000
0.211100 0.532400 0.000000
0.273875 0.532400 0.000000
0.336650 0.532400 0.000000
0.399425 0.532400 0.000000
0.462200 0.532400 0.000000
0.524975 0.532400 0.000000
0.587750 0.532400 0.000000
0.650525 0.532400 0.000000
0.713300 0.532400 0.000000
0.776075 0.532400 0.000000
0.838850 0.532400 0.000000
0.901625 0.532400 0.000000
0.964400 0.532400 0.000000
0.000000 0.603950 0.000000
0.022775 0.603950 0.000000
0.085550 0.603950 0.000000
0.148325 0.603950 0.000000
0.211100 0.603950 0.000000
0.273875 0.603950 0.000000
0.336650 0.603950 0.000000
0.399425 0.603950 0.000000
0.462200 0.603950 0.000000
0.524975 0.603950 0.000000
0.587750 0.603950 0.000000
0.650525 0.603950 0.000000
0.713300 0.603950 0.000000
0.776075 0.603950 0.000000
0.838850 0.603950 0.000000
0.901625 0.603950 0.000000
0.964400 0.603950 0.000000
0.000000 0.675500 0.000000
0.022775 0.675500 0.000000
0.085550 0.675500 0.000000
0.148325 0.675500 0.000000
0.211100 0.675500 0.000000
0.273875 0.675500 0.000000
0.336650 0.675500 0.000000
0.399425 0.675500 0.000000
0.462200 0.675500 0.000000
0.524975 0.675500 0.000000
0.587750 0.675500 0.000000
0.650525 0.675500 0.000000
0.713300 0.675500 0.000000
0.776075 0.675500 0.000000
0.838850 0.675500 0.000000
0.901625 0.675500 0.000000
0.964400 0.675500 0.000000
0.000000 0.747050 0.000000
0.022775 0.747050 0.000000
0.085550 0.747050 0.000000
0.148325 0.747050 0.000000
0.211100 0.747050 0.000000
0.273875 0.747050 0.000000
0.336650 0.747050 0.000000
0.399425 0.747050 0.000000
0.462200 0.747050 0.000000
0.524975 0.747050 0.000000
0.587750 0.747050 0.000000
0.650525 0.747050 0.000000
0.713300 0.747050 0.000000
0.776075 0.747050 0.000000
0.838850 0.747050 0.000000
0.901625 0.747050 0.000000
0.964400 0.747050 0.000000
0.000000 0.818600 0.000000
0.022775 0.818600 0.000000
0.085550 0.818600 0.000000
0.148325 0.818600 0.000000
0.211100 0.818600 0.000000
0.273875 0.818600 0.000000
0.336650 0.818600 0.000000
0.399425 0.818600 0.000000
0.462200 0.818600 0.000000
0.524975 0.818600 0.000000
0.587750 0.818600 0.000000
0.650525 0.818600 0.000000
0.713300 0.818600 0.000000
0.776075 0.818600 0.000000
0.838850 0.818600 0.000000
0.901625 0.818600 0.000000
0.964400 0.818600 0.000000
0.000000 0.890150 0.000000
0.022775 0.890150 0.000000
0.085550 0.890150 0.000000
0.148325 0.890150 0.000000
0.211100 0.890150 0.000000
0.273875 0.890150 0.000000
0.336650 0.890150 0.000000
0.399425 0.890150 0.000000
0.462200 0.890150 0.000000
0.524975 0.890150 0.000000
0.587750 0.890150 0.000000
0.650525 0.890150 0.000000
0.713300 0.890150 0.000000
0.776075 0.890150 0.000000
0.838850 0.890150 0.000000
0.901625 0.890150 0.000000
0.964400 0.890150 0.000000
0.000000 0.961700 0.000000
0.022775 0.961700 0.000000
0.085550 0.961700 0.000000
0.148325 0.961700 0.000000
0.211100 0.961700 0.000000
0.273875 0.961700 0.000000
0.336650 0.961700 0.000000
0.399425 0.961700 0.000000
0.462200 0.961700 0.000000
0.524975 0.961700 0.000000
0.587750 0.961700 0.000000
0.650525 0.961700 0.000000
0.713300 0.961700 0.000000
0.776075 0.961700 0.000000
0.838850 0.961700 0.000000
0.901625 0.961700 0.000000
0.964400 0.961700 0.000000
0.000000 1.000000 0.000000
0.022775 1.000000 0.000000
0.085550 1.000000 0.000000
0.148325 1.000000 0.000000
0.211100 1.000000 0.000000
0.273875 1.000000 0.000000
0.336650 1.000000 0.000000
0.399425 1.000000 0.000000
0.462200 1.000000 0.000000
0.524975 1.000000 0.000000
0.587750 1.000000 0.000000
0.650525 1.000000 0.000000
0.713300 1.000000 0.000000
0.776075 1.000000 0.000000
0.838850 1.000000 0.000000
0.901625 1.000000 0.000000
0.964400 1.000000 0.000000
0.000000 1.000000 0.000000
0.022775 1.000000 0.000000
0.085550 1.000000 0.000000
0.148325 1.000000 0.000000
0.211100 1.000000 0.000000
0.273875 1.000000 0.000000
0.336650 1.000000 0.000000
0.399425 1.000000 0.000000
0.462200 1.000000 0.000000
0.524975 1.000000 0.000000
0.587750 1.000000 0.000000
0.650525 1.000000 0.000000
0.713300 1.000000 0.000000
0.776075 1.000000 0.000000
0.838850 1.000000 0.000000
0.901625 1.000000 0.000000
0.964400 1.000000 0.000000
0.000000 0.000000 0.025475
0.022775 0.000000 0.025475
0.085550 0.000000 0.025475
0.148325 0.000000 0.025475
0.211100 0.000000 0.025475
0.273875 0.000000 0.025475
0.336650 0.000000 0.025475
0.399425 0.000000 0.025475
0.462200 0.000000 0.025475
0.524975 0.000000 0.025475
0.587750 0.000000 0.025475
0.650525 0.000000 0.025475
0.713300 0.000000 0.025475
0.776075 0.000000 0.025475
0.838850 0.000000 0.025475
0.901625 0.000000 0.025475
0.964400 0.000000 0.025475
0.000000 0.031550 0.025475
0.022775 0.031550 0.025475
0.085550 0.031550 0.025475
0.148325 0.031550 0.025475
0.211100 0.031550 0.025475
0.273875 0.031550 0.025475
0.336650 0.031550 0.025475
0.399425 0.031550 0.025475
0.462200 0.031550 0.025475
0.524975 0.031550 0.025475
0.587750 0.031550 0.025475
0.650525 0.031550 0.025475
0.713300 0.031550 0.025475
0.776075 0.031550 0.025475
0.838850 0.031550 0.025475
0.901625 0.031550 0.025475
0.964400 0.031550 0.025475
0.000000 0.103100 0.025475
0.022775 0.103100 0.025475
0.085550 0.103100 0.025475
0.148325 0.103100 0.025475
0.211100 0.103100 0.025475
0.273875 0.103100 0.025475
0.336650 0.103100 0.025475
0.399425 0.103100 0.025475
0.462200 0.103100 0.025475
0.524975 0.103100 0.025475
0.587750 0.103100 0.025475
0.650525 0.103100 0.025475
0.713300 0.103100 0.025475
0.776075 0.103100 0.025475
0.838850 0.103100 0.025475
0.901625 0.103100 0.025475
0.964400 0.103100 0.025475
0.000000 0.174650 0.025475
0.022775 0.174650 0.025475
0.085550 0.174650 0.025475
0.148325 0.174650 0.025475
0.211100 0.174650 0.025475
0.273875 0.174650 0.025475
0.336650 0.174650 0.025475
0.399425 0.174650 0.025475
0.462200 0.174650 0.025475
0.524975 0.174650 0.025475
0.587750 0.174650 0.025475
0.650525 0.174650 0.025475
0.713300 0.174650 0.025475
0.776075 0.174650 0.025475
0.838850 0.174650 0.025475
0.901625 0.174650 0.025475
0.964400 0.174650 0.025475
0.000000 0.246200 0.025475
0.022775 0.246200 0.025475
0.085550 0.246200 0.025475
0.148325 0.246200 0.025475
0.211100 0.246200 0.025475
0.273875 0.246200 0.025475
0.336650 0.246200 0.025475
0.399425 0.246200 0.025475
0.462200 0.246200 0.025475
0.524975 0.246200 0.025475
0.587750 0.246200 0.025475
0.650525 0.246200 0.025475
0.713300 0.246200 0.025475
0.776075 0.246200 0.025475
0.838850 0.246200 0.025475
0.901625 0.246200 0.025475
0.964400 0.246200 0.025475
0.000000 0.317750 0.025475
0.022775 0.317750 0.025475
0.085550 0.317750 0.025475
0.148325 0.317750 0.025475
0.211100 0.317750 0.025475
0.273875 0.317750 0.025475
0.336650 0.317750 0.025475
0.399425 0.317750 0.025475
0.462200 0.317750 0.025475
0.524975 0.317750 0.025475
0.587750 0.317750 0.025475
0.650525 0.317750 0.025475
0.713300 0.317750 0.025475
0.776075 0.317750 0.025475
0.838850 0.317750 0.025475
0.901625 0.317750 0.025475
0.964400 0.317750 0.025475
0.000000 0.389300 0.025475
0.022775 0.389300 0.025475
0.085550 0.389300 0.025475
0.148325 0.389300 0.025475
0.211100 0.389300 0.025475
0.273875 0.389300 0.025475
0.336650 0.389300 0.025475
0.399425 0.389300 0.025475
0.462200 0.389300 0.025475
0.524975 0.389300 0.025475
0.587750 0.389300 0.025475
0.650525 0.389300 0.025475
0.713300 0.389300 0.025475
0.776075 0.389300 0.025475
0.838850 0.389300 0.025475
0.901625 0.389300 0.025475
0.964400 0.389300 0.025475
0.000000 0.460850 0.025475
0.022775 0.460850 0.025475
0.085550 0.460850 0.025475
0.148325 0.460850 0.025475
0.211100 0.460850 0.025475
0.273875 0.460850 0.025475
0.336650 0.460850 0.025475
0.399425 0.460850 0.025475
0.462200 0.460850 0.025475
0.524975 0.460850 0.025475
0.587750 0.460850 0.025475
0.650525 0.460850 0.025475
0.713300 0.460850 0.025475
0.776075 0.460850 0.025475
0.838850 0.460850 0.025475
0.901625 0.460850 0.025475
0.964400 0.460850 0.025475
0.000000 0.532400 0.025475
0.022775 0.532400 0.025475
0.085550 0.532400 0.025475
0.148325 0.532400 0.025475
0.211100 0.532400 0.025475
0.273875 0.532400 0.025475
0.336650 0.532400 0.025475
0.399425 0.532400 0.025475
0.462200 0.532400 0.025475
0.524975 0.532400 0.025475
0.587750 0.532400 0.025475
0.650525 0.532400 0.025475
0.713300 0.532400 0.025475
0.776075 0.532400 0.025475
0.838850 0.532400 0.025475
0.901625 0.532400 0.025475
0.964400 0.532400 0.025475
0.000000 0.603950 0.025475
0.022775 0.603950 0.025475
0.085550 0.603950 0.025475
0.148325 0.603950 0.025475
0.211100 0.603950 0.025475
0.273875 0.603950 0.025475
0.336650 0.603950 0.025475
0.399425 0.603950 0.025475
0.462200 0.603950 0.025475
0.524975 0.603950 0.025475
0.587750 0.603950 0.025475
0.650525 0.603950 0.025475
0.713300 0.603950 0.025475
0.776075 0.603950 0.025475
0.838850 0.603950 0.025475
0.901625 0.603950 0.025475
0.964400 0.603950 0.025475
0.000000 0.675500 0.025475
0.022775 0.675500 0.025475
0.085550 0.675500 0.025475
0.148325 0.675500 0.025475
0.211100 0.675500 0.025475
0.273875 0.675500 0.025475
0.336650 0.675500 0.025475
0.399425 0.675500 0.025475
0.462200 0.675500 0.025475
0.524975 0.675500 0.025475
0.587750 0.675500 0.025475
0.650525 0.675500 0.025475
0.713300 0.675500 0.025475
0.776075 0.675500 0.025475
0.838850 0.675500 0.025475
0.901625 0.675500 0.025475
0.964400 0.675500 0.025475
0.000000 0.747050 0.025475
0.022775 0.747050 0.025475
0.085550 0.747050 0.025475
0.148325 0.747050 0.025475
0.211100 0.747050 0.025475
0.273875 0.747050 0.025475
0.336650 0.747050 0.025475
0.399425 0.747050 0.025475
0.462200 0.747050 0.025475
0.524975 0.747050 0.025475
0.587750 0.747050 0.025475
0.650525 0.747050 0.025475
0.713300 0.747050 0.025475
0.776075 0.747050 0.025475
0.838850 0.747050 0.025475
0.901625 0.747050 0.025475
0.964400 0.747050 0.025475
0.000000 0.818600 0.025475
0.022775 0.818600 0.025475
0.085550 0.818600 0.025475
0.148325 0.818600 0.025475
0.211100 0.818600 0.025475
0.273875 0.818600 0.025475
0.336650 0.818600 0.025475
0.399425 0.818600 0.025475
0.462200 0.818600 0.025475
0.524975 0.818600 0.025475
0.587750 0.818600 0.025475
0.650525 0.818600 0.025475
0.713300 0.818600 0.025475
0.776075 0.818600 0.025475
0.838850 0.818600 0.025475
0.901625 0.818600 0.025475
0.964400 0.818600 0.025475
0.000000 0.890150 0.025475
0.022775 0.890150 0.025475
0.085550 0.890150 0.025475
0.148325 0.890150 0.025475
0.211100 0.890150 0.025475
0.273875 0.890150 0.025475
0.336650 0.890150 0.025475
0.399425 0.890150 0.025475
0.462200 0.890150 0.025475
0.524975 0.890150 0.025475
0.587750 0.890150 0.025475
0.650525 0.890150 0.025475
0.713300 0.890150 0.025475
0.776075 0.890150 0.025475
0.838850 0.890150 0.025475
0.901625 0.890150 0.025475
0.964400 0.890150 0.025475
0.000000 0.961700 0.025475
0.022775 0.961700 0.025475
0.085550 0.961700 0.025475
0.148325 0.961700 0.025475
0.211100 0.961700 0.025475
0.273875 0.961700 0.025475
0.336650 0.961700 0.025475
0.399425 0.961700 0.025475
0.462200 0.961700 0.025475
0.524975 0.961700 0.025475
0.587750 0.961700 0.025475
0.650525 0.961700 0.025475
0.713300 0.961700 0.025475
0.776075 0.961700 0.025475
0.838850 0.961700 0.025475
0.901625 0.961700 0.025475
0.964400 0.961700 0.025475
0.000000 1.000000 0.025475
0.022775 1.000000 0.025475
0.085550 1.000000 0.025475
0.148325 1.000000 0.025475
0.211100 1.000000 0.025475
0.273875 1.000000 0.025475
0.336650 1.000000 0.025475
0.399425 1.000000 0.025475
0.462200 1.000000 0.025475
0.524975 1.000000 0.025475
0.587750 1.000000 0.025475
0.650525 1.000000 0.025475
0.713300 1.000000 0.025475
0.776075 1.000000 0.025475
0.838850 1.000000 0.025475
0.901625 1.000000 0.025475
0.964400 1.000000 0.025475
0.000000 1.000000 0.025475
0.022775 1.000000 0.025475
0.085550 1.000000 0.025475
0.148325 1.000000 0.025475
0.211100 1.000000 0.025475
0.273875 1.000000 0.025475
0.336650 1.000000 0.025475
0.399425 1.000000 0.025475
0.462200 1.000000 0.025475
0.524975 1.000000 0.025475
0.587750 1.000000 0.025475
0.650525 1.000000 0.025475
0.713300 1.000000 0.025475
0.776075 1.000000 0.025475
0.838850 1.000000 0.025475
0.901625 1.000000 0.025475
0.964400 1.000000 0.025475
0.000000 0.000000 0.090950
0.022775 0.000000 0.090950
0.085550 0.000000 0.090950
0.148325 0.000000 0.090950
0.211100 0.000000 0.090950
0.273875 0.000000 0.090950
0.336650 0.000000 0.090950
0.399425 0.000000 0.090950
0.462200 0.000000 0.090950
0.524975 0.000000 0.090950
0.587750 0.000000 0.090950
0.650525 0.000000 0.090950
0.713300 0.000000 0.090950
0.776075 0.000000 0.090950
0.838850 0.000000 0.090950
0.901625 0.000000 0.090950
0.964400 0.000000 0.090950
0.000000 0.031550 0.090950
0.022775 0.031550 0.090950
0.085550 0.031550 0.090950
0.148325 0.031550 0.090950
0.211100 0.031550 0.090950
0.273875 0.031550 0.090950
0.336650 0.031550 0.090950
0.399425 0.031550 0.090950
0.462200 0.031550 0.090950
0.524975 0.031550 0.090950
0.587750 0.031550 0.090950
0.650525 0.031550 0.090950
0.713300 0.031550 0.090950
0.776075 0.031550 0.090950
0.838850 0.031550 0.090950
0.901625 0.031550 0.090950
0.964400 0.031550 0.090950
0.000000 0.103100 0.090950
0.022775 0.103100 0.090950
0.085550 0.103100 0.090950
0.148325 0.103100 0.090950
0.211100 0.103100 0.090950
0.273875 0.103100 0.090950
0.336650 0.103100 0.090950
0.399425 0.103100 0.090950
0.462200 0.103100 0.090950
0.524975 0.103100 0.090950
0.587750 0.103100 0.090950
0.650525 0.103100 0.090950
0.713300 0.103100 0.090950
0.776075 0.103100 0.090950
0.838850 0.103100 0.090950
0.901625 0.103100 0.090950
0.964400 0.103100 0.090950
0.000000 0.174650 0.090950
0.022775 0.174650 0.090950
0.085550 0.174650 0.090950
0.148325 0.174650 0.090950
0.211100 0.174650 0.090950
0.273875 0.174650 0.090950
0.336650 0.174650 0.090950
0.399425 0.174650 0.090950
0.462200 0.174650 0.090950
0.524975 0.174650 0.090950
0.587750 0.174650 0.090950
0.650525 0.174650 0.090950
0.713300 0.174650 0.090950
0.776075 0.174650 0.090950
0.838850 0.174650 0.090950
0.901625 0.174650 0.090950
0.964400 0.174650 0.090950
0.000000 0.246200 0.090950
0.022775 0.246200 0.090950
0.085550 0.246200 0.090950
0.148325 0.246200 0.090950
0.211100 0.246200 0.090950
0.273875 0.246200 0.090950
0.336650 0.246200 0.090950
0.399425 0.246200 0.090950
0.462200 0.246200 0.090950
0.524975 0.246200 0.090950
0.587750 0.246200 0.090950
0.650525 0.246200 0.090950
0.713300 0.246200 0.090950
0.776075 0.246200 0.090950
0.838850 0.246200 0.090950
0.901625 0.246200 0.090950
0.964400 0.246200 0.090950
0.000000 0.317750 0.090950
0.022775 0.317750 0.090950
0.085550 0.317750 0.090950
0.148325 0.317750 0.090950
0.211100 0.317750 0.090950
0.273875 0.317750 0.090950
0.336650 0.317750 0.090950
0.399425 0.317750 0.090950
0.462200 0.317750 0.090950
0.524975 0.317750 0.090950
0.587750 0.317750 0.090950
0.650525 0.317750 0.090950
0.713300 0.317750 0.090950
0.776075 0.317750 0.090950
0.838850 0.317750 0.090950
0.901625 0.317750 0.090950
0.964400 0.317750 0.090950
0.000000 0.389300 0.090950
0.022775 0.389300 0.090950
0.085550 0.389300 0.090950
0.148325 0.389300 0.090950
0.211100 0.389300 0.090950
0.273875 0.389300 0.090950
0.336650 0.389300 0.090950
0.399425 0.389300 0.090950
0.462200 0.389300 0.090950
0.524975 0.389300 0.090950
0.587750 0.389300 0.090950
0.650525 0.389300 0.090950
0.713300 0.389300 0.090950
0.776075 0.389300 0.090950
0.838850 0.389300 0.090950
0.901625 0.389300 0.090950
0.964400 0.389300 0.090950
0.000000 0.460850 0.090950
0.022775 0.460850 0.090950
0.085550 0.460850 0.090950
0.148325 0.460850 0.090950
0.211100 0.460850 0.090950
0.273875 0.460850 0.090950
0.336650 0.460850 0.090950
0.399425 0.460850 0.090950
0.462200 0.460850 0.090950
0.524975 0.460850 0.090950
0.587750 0.460850 0.090950
0.650525 0.460850 0.090950
0.713300 0.460850 0.090950
0.776075 0.460850 0.090950
0.838850 0.460850 0.090950
0.901625 0.460850 0.090950
0.964400 0.460850 0.090950
0.000000 0.532400 0.090950
0.022775 0.532400 0.090950
0.085550 0.532400 0.090950
0.148325 0.532400 0.090950
0.211100 0.532400 0.090950
0.273875 0.532400 0.090950
0.336650 0.532400 0.090950
0.399425 0.532400 0.090950
0.462200 0.532400 0.090950
0.524975 0.532400 0.090950
0.587750 0.532400 0.090950
0.650525 0.532400 0.090950
0.713300 0.532400 0.090950
0.776075 0.532400 0.090950
0.838850 0.532400 0.090950
0.901625 0.532400 0.090950
0.964400 0.532400 0.090950
0.000000 0.603950 0.090950
0.022775 0.603950 0.090950
0.085550 0.603950 0.090950
0.148325 0.603950 0.090950
0.211100 0.603950 0.090950
0.273875 0.603950 0.090950
0.336650 0.603950 0.090950
0.399425 0.603950 0.090950
0.462200 0.603950 0.090950
0.524975 0.603950 0.090950
0.587750 0.603950 0.090950
0.650525 0.603950 0.090950
0.713300 0.603950 0.090950
0.776075 0.603950 0.090950
0.838850 0.603950 0.090950
0.901625 0.603950 0.090950
0.964400 0.603950 0.090950
0.000000 0.675500 0.090950
0.022775 0.675500 0.090950
0.085550 0.675500 0.090950
0.148325 0.675500 0.090950
0.211100 0.675500 0.090950
0.273875 0.675500 0.090950
0.336650 0.675500 0.090950
0.399425 0.675500 0.090950
0.462200 0.675500 0.090950
0.524975 0.675500 0.090950
0.587750 0.675500 0.090950
0.650525 0.675500 0.090950
0.713300 0.675500 0.090950
0.776075 0.675500 0.090950
0.838850 0.675500 0.090950
0.901625 0.675500 0.090950
0.964400 0.675500 0.090950
0.000000 0.747050 0.090950
0.022775 0.747050 0.090950
0.085550 0.747050 0.090950
0.148325 0.747050 0.090950
0.211100 0.747050 0.090950
0.273875 0.747050 0.090950
0.336650 0.747050 0.090950
0.399425 0.747050 0.090950
0.462200 0.747050 0.090950
0.524975 0.747050 0.090950
0.587750 0.747050 0.090950
0.650525 0.747050 0.090950
0.713300 0.747050 0.090950
0.776075 0.747050 0.090950
0.838850 0.747050 0.090950
0.901625 0.747050 0.090950
0.964400 0.747050 0.090950
0.000000 0.818600 0.090950
0.022775 0.818600 0.090950
0.085550 0.818600 0.090950
0.148325 0.818600 0.090950
0.211100 0.818600 0.090950
0.273875 0.818600 0.090950
0.336650 0.818600 0.090950
0.399425 0.818600 0.090950
0.462200 0.818600 0.090950
0.524975 0.818600 0.090950
0.587750 0.818600 0.090950
0.650525 0.818600 0.090950
0.713300 0.818600 0.090950
0.776075 0.818600 0.090950
0.838850 0.818600 0.090950
0.901625 0.818600 0.090950
0.964400 0.818600 0.090950
0.000000 0.890150 0.090950
0.022775 0.890150 0.090950
0.085550 0.890150 0.090950
0.148325 0.890150 0.090950
0.211100 0.890150 0.090950
0.273875 0.890150 0.090950
0.336650 0.890150 0.090950
0.399425 0.890150 0.090950
0.462200 0.890150 0.090950
0.524975 0.890150 0.090950
0.587750 0.890150 0.090950
0.650525 0.890150 0.090950
0.713300 0.890150 0.090950
0.776075 0.890150 0.090950
0.838850 0.890150 0.090950
0.901625 0.890150 0.090950
0.964400 0.890150 0.090950
0.000000 0.961700 0.090950
0.022775 0.961700 0.090950
0.085550 0.961700 0.090950
0.148325 0.961700 0.090950
0.211100 0.961700 0.090950
0.273875 0.961700 0.090950
0.336650 0.961700 0.090950
0.399425 0.961700 0.090950
0.462200 0.961700 0.090950
0.524975 0.961700 0.090950
0.587750 0.961700 0.090950
0.650525 0.961700 0.090950
0.713300 0.961700 0.090950
0.776075 0.961700 0.090950
0.838850 0.961700 0.090950
0.901625 0.961700 0.090950
0.964400 0.961700 0.090950
0.000000 1.000000 0.090950
0.022775 1.000000 0.090950
0.085550 1.000000 0.090950
0.148325 1.000000 0.090950
0.211100 1.000000 0.090950
0.273875 1.000000 0.090950
0.336650 1.000000 0.090950
0.399425 1.000000 0.090950
0.462200 1.000000 0.090950
0.524975 1.000000 0.090950
0.587750 1.000000 0.090950
0.650525 1.000000 0.090950
0.713300 1.000000 0.090950
0.776075 1.000000 0.090950
0.838850 1.000000 0.090950
0.901625 1.000000 0.090950
0.964400 1.000000 0.090950
0.000000 1.000000 0.090950
0.022775 1.000000 0.090950
0.085550 1.000000 0.090950
0.148325 1.000000 0.090950
0.211100 1.000000 0.090950
0.273875 1.000000 0.090950
0.336650 1.000000 0.090950
0.399425 1.000000 0.090950
0.462200 1.000000 0.090950
0.524975 1.000000 0.090950
0.587750 1.000000 0.090950
0.650525 1.000000 0.090950
0.713300 1.000000 0.090950
0.776075 1.000000 0.090950
0.838850 1.000000 0.090950
0.901625 1.000000 0.090950
0.964400 1.000000 0.090950
0.000000 0.000000 0.156425
0.022775 0.000000 0.156425
0.085550 0.000000 0.156425
0.148325 0.000000 0.156425
0.211100 0.000000 0.156425
0.273875 0.000000 0.156425
0.336650 0.000000 0.156425
0.399425 0.000000 0.156425
0.462200 0.000000 0.156425
0.524975 0.000000 0.156425
0.587750 0.000000 0.156425
0.650525 0.000000 0.156425
0.713300 0.000000 0.156425
0.776075 0.000000 0.156425
0.838850 0.000000 0.156425
0.901625 0.000000 0.156425
0.964400 0.000000 0.156425
0.000000 0.031550 0.156425
0.022775 0.031550 0.156425
0.085550 0.031550 0.156425
