director/public/luts/matrix_green.cube
TITLE "Matrix Green"
LUT_3D_SIZE 9
0.000000 0.000000 0.000000
0.085550 0.000000 0.000000
0.211100 0.000000 0.000000
0.336650 0.000000 0.000000
0.462200 0.000000 0.000000
0.587750 0.000000 0.000000
0.713300 0.000000 0.000000
0.838850 0.000000 0.000000
0.964400 0.000000 0.000000
0.000000 0.103100 0.000000
0.085550 0.103100 0.000000
0.211100 0.103100 0.000000
0.336650 0.103100 0.000000
0.462200 0.103100 0.000000
0.587750 0.103100 0.000000
0.713300 0.103100 0.000000
0.838850 0.103100 0.000000
0.964400 0.103100 0.000000
0.000000 0.246200 0.000000
0.085550 0.246200 0.000000
0.211100 0.246200 0.000000
0.336650 0.246200 0.000000
0.462200 0.246200 0.000000
0.587750 0.246200 0.000000
0.713300 0.246200 0.000000
0.838850 0.246200 0.000000
0.964400 0.246200 0.000000
0.000000 0.389300 0.000000
0.085550 0.389300 0.000000
0.211100 0.389300 0.000000
0.336650 0.389300 0.000000
0.462200 0.389300 0.000000
0.587750 0.389300 0.000000
0.713300 0.389300 0.000000
0.838850 0.389300 0.000000
0.964400 0.389300 0.000000
0.000000 0.532400 0.000000
0.085550 0.532400 0.000000
0.211100 0.532400 0.000000
0.336650 0.532400 0.000000
0.462200 0.532400 0.000000
0.587750 0.532400 0.000000
0.713300 0.532400 0.000000
0.838850 0.532400 0.000000
0.964400 0.532400 0.000000
0.000000 0.675500 0.000000
0.085550 0.675500 0.000000
0.211100 0.675500 0.000000
0.336650 0.675500 0.000000
0.462200 0.675500 0.000000
0.587750 0.675500 0.000000
0.713300 0.675500 0.000000
0.838850 0.675500 0.000000
0.964400 0.675500 0.000000
0.000000 0.818600 0.000000
0.085550 0.818600 0.000000
0.211100 0.818600 0.000000
0.336650 0.818600 0.000000
0.462200 0.818600 0.000000
0.587750 0.818600 0.000000
0.713300 0.818600 0.000000
0.838850 0.818600 0.000000
0.964400 0.818600 0.000000
0.000000 0.961700 0.000000
0.085550 0.961700 0.000000
0.211100 0.961700 0.000000
0.336650 0.961700 0.000000
0.462200 0.961700 0.000000
0.587750 0.961700 0.000000
0.713300 0.961700 0.000000
0.838850 0.961700 0.000000
0.964400 0.961700 0.000000
0.000000 1.000000 0.000000
0.085550 1.000000 0.000000
0.211100 1.000000 0.000000
0.336650 1.000000 0.000000
0.462200 1.000000 0.000000
0.587750 1.000000 0.000000
0.713300 1.000000 0.000000
0.838850 1.000000 0.000000
0.964400 1.000000 0.000000
0.000000 0.000000 0.090950
0.085550 0.000000 0.090950
0.211100 0.000000 0.090950
0.336650 0.000000 0.090950
0.462200 0.000000 0.090950
0.587750 0.000000 0.090950
0.713300 0.000000 0.090950
0.838850 0.000000 0.090950
0.964400 0.000000 0.090950
0.000000 0.103100 0.090950
0.085550 0.103100 0.090950
0.211100 0.103100 0.090950
0.336650 0.103100 0.090950
0.462200 0.103100 0.090950
0.587750 0.103100 0.090950
0.713300 0.103100 0.090950
0.838850 0.103100 0.090950
0.964400 0.103100 0.090950
0.000000 0.246200 0.090950
0.085550 0.246200 0.090950
0.211100 0.246200 0.090950
0.336650 0.246200 0.090950
0.462200 0.246200 0.090950
0.587750 0.246200 0.090950
0.713300 0.246200 0.090950
0.838850 0.246200 0.090950
0.964400 0.246200 0.090950
0.000000 0.389300 0.090950
0.085550 0.389300 0.090950
0.211100 0.389300 0.090950
0.336650 0.389300 0.090950
0.462200 0.389300 0.090950
0.587750 0.389300 0.090950
0.713300 0.389300 0.090950
0.838850 0.389300 0.090950
0.964400 0.389300 0.090950
0.000000 0.532400 0.090950
0.085550 0.532400 0.090950
0.211100 0.532400 0.090950
0.336650 0.532400 0.090950
0.462200 0.532400 0.090950
0.587750 0.532400 0.090950
0.713300 0.532400 0.090950
0.838850 0.532400 0.090950
0.964400 0.532400 0.090950
0.000000 0.675500 0.090950
0.085550 0.675500 0.090950
0.211100 0.675500 0.090950
0.336650 0.675500 0.090950
0.462200 0.675500 0.090950
0.587750 0.675500 0.090950
0.713300 0.675500 0.090950
0.838850 0.675500 0.090950
0.964400 0.675500 0.090950
0.000000 0.818600 0.090950
0.085550 0.818600 0.090950
0.211100 0.818600 0.090950
0.336650 0.818600 0.090950
0.462200 0.818600 0.090950
0.587750 0.818600 0.090950
0.713300 0.818600 0.090950
0.838850 0.818600 0.090950
0.964400 0.818600 0.090950
0.000000 0.961700 0.090950
0.085550 0.961700 0.090950
0.211100 0.961700 0.090950
0.336650 0.961700 0.090950
0.462200 0.961700 0.090950
0.587750 0.961700 0.090950
0.713300 0.961700 0.090950
0.838850 0.961700 0.090950
0.964400 0.961700 0.090950
0.000000 1.000000 0.090950
0.085550 1.000000 0.090950
0.211100 1.000000 0.090950
0.336650 1.000000 0.090950
0.462200 1.000000 0.090950
0.587750 1.000000 0.090950
0.713300 1.000000 0.090950
0.838850 1.000000 0.090950
0.964400 1.000000 0.090950
0.000000 0.000000 0.221900
0.085550 0.000000 0.221900
0.211100 0.000000 0.221900
0.336650 0.000000 0.221900
0.462200 0.000000 0.221900
0.587750 0.000000 0.221900
0.713300 0.000000 0.221900
0.838850 0.000000 0.221900
0.964400 0.000000 0.221900
0.000000 0.103100 0.221900
0.085550 0.103100 0.221900
0.211100 0.103100 0.221900
0.336650 0.103100 0.221900
0.462200 0.103100 0.221900
0.587750 0.103100 0.221900
0.713300 0.103100 0.221900
0.838850 0.103100 0.221900
0.964400 0.103100 0.221900
0.000000 0.246200 0.221900
0.085550 0.246200 0.221900
0.211100 0.246200 0.221900
0.336650 0.246200 0.221900
0.462200 0.246200 0.221900
0.587750 0.246200 0.221900
0.713300 0.246200 0.221900
0.838850 0.246200 0.221900
0.964400 0.246200 0.221900
0.000000 0.389300 0.221900
0.085550 0.389300 0.221900
0.211100 0.389300 0.221900
0.336650 0.389300 0.221900
0.462200 0.389300 0.221900
0.587750 0.389300 0.221900
0.713300 0.389300 0.221900
0.838850 0.389300 0.221900
0.964400 0.389300 0.221900
0.000000 0.532400 0.221900
0.085550 0.532400 0.221900
0.211100 0.532400 0.221900
0.336650 0.532400 0.221900
0.462200 0.532400 0.221900
0.587750 0.532400 0.221900
0.713300 0.532400 0.221900
0.838850 0.532400 0.221900
0.964400 0.532400 0.221900
0.000000 0.675500 0.221900
0.085550 0.675500 0.221900
0.211100 0.675500 0.221900
0.336650 0.675500 0.221900
0.462200 0.675500 0.221900
0.587750 0.675500 0.221900
0.713300 0.675500 0.221900
0.838850 0.675500 0.221900
0.964400 0.675500 0.221900
0.000000 0.818600 0.221900
0.085550 0.818600 0.221900
0.211100 0.818600 0.221900
0.336650 0.818600 0.221900
0.462200 0.818600 0.221900
0.587750 0.818600 0.221900
0.713300 0.818600 0.221900
0.838850 0.818600 0.221900
0.964400 0.818600 0.221900
0.000000 0.961700 0.221900
0.085550 0.961700 0.221900
0.211100 0.961700 0.221900
0.336650 0.961700 0.221900
0.462200 0.961700 0.221900
0.587750 0.961700 0.221900
0.713300 0.961700 0.221900
0.838850 0.961700 0.221900
0.964400 0.961700 0.221900
0.000000 1.000000 0.221900
0.085550 1.000000 0.221900
0.211100 1.000000 0.221900
0.336650 1.000000 0.221900
0.462200 1.000000 0.221900
0.587750 1.000000 0.221900
0.713300 1.000000 0.221900
0.838850 1.000000 0.221900
0.964400 1.000000 0.221900
0.000000 0.000000 0.352850
0.085550 0.000000 0.352850
0.211100 0.000000 0.352850
0.336650 0.000000 0.352850
0.462200 0.000000 0.352850
0.587750 0.000000 0.352850
0.713300 0.000000 0.352850
0.838850 0.000000 0.352850
0.964400 0.000000 0.352850
0.000000 0.103100 0.352850
0.085550 0.103100 0.352850
0.211100 0.103100 0.352850
0.336650 0.103100 0.352850
0.462200 0.103100 0.352850
0.587750 0.103100 0.352850
0.713300 0.103100 0.352850
0.838850 0.103100 0.352850
0.964400 0.103100 0.352850
0.000000 0.246200 0.352850
0.085550 0.246200 0.352850
0.211100 0.246200 0.352850
0.336650 0.246200 0.352850
0.462200 0.246200 0.352850
0.587750 0.246200 0.352850
0.713300 0.246200 0.352850
0.838850 0.246200 0.352850
0.964400 0.246200 0.352850
0.000000 0.389300 0.352850
0.085550 0.389300 0.352850
0.211100 0.389300 0.352850
0.336650 0.389300 0.352850
0.462200 0.389300 0.352850
0.587750 0.389300 0.352850
0.713300 0.389300 0.352850
0.838850 0.389300 0.352850
0.964400 0.389300 0.352850
0.000000 0.532400 0.352850
0.085550 0.532400 0.352850
0.211100 0.532400 0.352850
0.336650 0.532400 0.352850
0.462200 0.532400 0.352850
0.587750 0.532400 0.352850
0.713300 0.532400 0.352850
0.838850 0.532400 0.352850
0.964400 0.532400 0.352850
0.000000 0.675500 0.352850
0.085550 0.675500 0.352850
0.211100 0.675500 0.352850
0.336650 0.675500 0.352850
0.462200 0.675500 0.352850
0.587750 0.675500 0.352850
0.713300 0.675500 0.352850
0.838850 0.675500 0.352850
0.964400 0.675500 0.352850
0.000000 0.818600 0.352850
0.085550 0.818600 0.352850
0.211100 0.818600 0.352850
0.336650 0.818600 0.352850
0.462200 0.818600 0.352850
0.587750 0.818600 0.352850
0.713300 0.818600 0.352850
0.838850 0.818600 0.352850
0.964400 0.818600 0.352850
0.000000 0.961700 0.352850
0.085550 0.961700 0.352850
0.211100 0.961700 0.352850
0.336650 0.961700 0.352850
0.462200 0.961700 0.352850
0.587750 0.961700 0.352850
0.713300 0.961700 0.352850
0.838850 0.961700 0.352850
0.964400 0.961700 0.352850
0.000000 1.000000 0.352850
0.085550 1.000000 0.352850
0.211100 1.000000 0.352850
0.336650 1.000000 0.352850
0.462200 1.000000 0.352850
0.587750 1.000000 0.352850
0.713300 1.000000 0.352850
0.838850 1.000000 0.352850
0.964400 1.000000 0.352850
0.000000 0.000000 0.483800
0.085550 0.000000 0.483800
0.211100 0.000000 0.483800
0.336650 0.000000 0.483800
0.462200 0.000000 0.483800
0.587750 0.000000 0.483800
0.713300 0.000000 0.483800
0.838850 0.000000 0.483800
0.964400 0.000000 0.483800
0.000000 0.103100 0.483800
0.085550 0.103100 0.483800
0.211100 0.103100 0.483800
0.336650 0.103100 0.483800
0.462200 0.103100 0.483800
0.587750 0.103100 0.483800
0.713300 0.103100 0.483800
0.838850 0.103100 0.483800
0.964400 0.103100 0.483800
0.000000 0.246200 0.483800
0.085550 0.246200 0.483800
0.211100 0.246200 0.483800
0.336650 0.246200 0.483800
0.462200 0.246200 0.483800
0.587750 0.246200 0.483800
0.713300 0.246200 0.483800
0.838850 0.246200 0.483800
0.964400 0.246200 0.483800
0.000000 0.389300 0.483800
0.085550 0.389300 0.483800
0.211100 0.389300 0.483800
0.336650 0.389300 0.483800
0.462200 0.389300 0.483800
0.587750 0.389300 0.483800
0.713300 0.389300 0.483800
0.838850 0.389300 0.483800
0.964400 0.389300 0.483800
0.000000 0.532400 0.483800
0.085550 0.532400 0.483800
0.211100 0.532400 0.483800
0.336650 0.532400 0.483800
0.462200 0.532400 0.483800
0.587750 0.532400 0.483800
0.713300 0.532400 0.483800
0.838850 0.532400 0.483800
0.964400 0.532400 0.483800
0.000000 0.675500 0.483800
0.085550 0.675500 0.483800
0.211100 0.675500 0.483800
0.336650 0.675500 0.483800
0.462200 0.675500 0.483800
0.587750 0.675500 0.483800
0.713300 0.675500 0.483800
0.838850 0.675500 0.483800
0.964400 0.675500 0.483800
0.000000 0.818600 0.483800
0.085550 0.818600 0.483800
0.211100 0.818600 0.483800
0.336650 0.818600 0.483800
0.462200 0.818600 0.483800
0.587750 0.818600 0.483800
0.713300 0.818600 0.483800
0.838850 0.818600 0.483800
0.964400 0.818600 0.483800
0.000000 0.961700 0.483800
0.085550 0.961700 0.483800
0.211100 0.961700 0.483800
0.336650 0.961700 0.483800
0.462200 0.961700 0.483800
0.587750 0.961700 0.483800
0.713300 0.961700 0.483800
0.838850 0.961700 0.483800
0.964400 0.961700 0.483800
0.000000 1.000000 0.483800
0.085550 1.000000 0.483800
0.211100 1.000000 0.483800
0.336650 1.000000 0.483800
0.462200 1.000000 0.483800
0.587750 1.000000 0.483800
0.713300 1.000000 0.483800
0.838850 1.000000 0.483800
0.964400 1.000000 0.483800
0.000000 0.000000 0.614750
0.085550 0.000000 0.614750
0.211100 0.000000 0.614750
0.336650 0.000000 0.614750
0.462200 0.000000 0.614750
0.587750 0.000000 0.614750
0.713300 0.000000 0.614750
0.838850 0.000000 0.614750
0.964400 0.000000 0.614750
0.000000 0.103100 0.614750
0.085550 0.103100 0.614750
0.211100 0.103100 0.614750
0.336650 0.103100 0.614750
0.462200 0.103100 0.614750
0.587750 0.103100 0.614750
0.713300 0.103100 0.614750
0.838850 0.103100 0.614750
0.964400 0.103100 0.614750
0.000000 0.246200 0.614750
0.085550 0.246200 0.614750
0.211100 0.246200 0.614750
0.336650 0.246200 0.614750
0.462200 0.246200 0.614750
0.587750 0.246200 0.614750
0.713300 0.246200 0.614750
0.838850 0.246200 0.614750
0.964400 0.246200 0.614750
0.000000 0.389300 0.614750
0.085550 0.389300 0.614750
0.211100 0.389300 0.614750
0.336650 0.389300 0.614750
0.462200 0.389300 0.614750
0.587750 0.389300 0.614750
0.713300 0.389300 0.614750
0.838850 0.389300 0.614750
0.964400 0.389300 0.614750
0.000000 0.532400 0.614750
0.085550 0.532400 0.614750
0.211100 0.532400 0.614750
0.336650 0.532400 0.614750
0.462200 0.532400 0.614750
0.587750 0.532400 0.614750
0.713300 0.532400 0.614750
0.838850 0.532400 0.614750
0.964400 0.532400 0.614750
0.000000 0.675500 0.614750
0.085550 0.675500 0.614750
0.211100 0.675500 0.614750
0.336650 0.675500 0.614750
0.462200 0.675500 0.614750
0.587750 0.675500 0.614750
0.713300 0.675500 0.614750
0.838850 0.675500 0.614750
0.964400 0.675500 0.614750
0.000000 0.818600 0.614750
0.085550 0.818600 0.614750
0.211100 0.818600 0.614750
0.336650 0.818600 0.614750
0.462200 0.818600 0.614750
0.587750 0.818600 0.614750
0.713300 0.818600 0.614750
0.838850 0.818600 0.614750
0.964400 0.818600 0.614750
0.000000 0.961700 0.614750
0.085550 0.961700 0.614750
0.211100 0.961700 0.614750
0.336650 0.961700 0.614750
0.462200 0.961700 0.614750
0.587750 0.961700 0.614750
0.713300 0.961700 0.614750
0.838850 0.961700 0.614750
0.964400 0.961700 0.614750
0.000000 1.000000 0.614750
0.085550 1.000000 0.614750
0.211100 1.000000 0.614750
0.336650 1.000000 0.614750
0.462200 1.000000 0.614750
0.587750 1.000000 0.614750
0.713300 1.000000 0.614750
0.838850 1.000000 0.614750
0.964400 1.000000 0.614750
0.000000 0.000000 0.745700
0.085550 0.000000 0.745700
0.211100 0.000000 0.745700
0.336650 0.000000 0.745700
0.462200 0.000000 0.745700
0.587750 0.000000 0.745700
0.713300 0.000000 0.745700
0.838850 0.000000 0.745700
0.964400 0.000000 0.745700
0.000000 0.103100 0.745700
0.085550 0.103100 0.745700
0.211100 0.103100 0.745700
0.336650 0.103100 0.745700
0.462200 0.103100 0.745700
0.587750 0.103100 0.745700
0.713300 0.103100 0.745700
0.838850 0.103100 0.745700
0.964400 0.103100 0.745700
0.000000 0.246200 0.745700
0.085550 0.246200 0.745700
0.211100 0.246200 0.745700
0.336650 0.246200 0.745700
0.462200 0.246200 0.745700
0.587750 0.246200 0.745700
0.713300 0.246200 0.745700
0.838850 0.246200 0.745700
0.964400 0.246200 0.745700
0.000000 0.389300 0.745700
0.085550 0.389300 0.745700
0.211100 0.389300 0.745700
0.336650 0.389300 0.745700
0.462200 0.389300 0.745700
0.587750 0.389300 0.745700
0.713300 0.389300 0.745700
0.838850 0.389300 0.745700
0.964400 0.389300 0.745700
0.000000 0.532400 0.745700
0.085550 0.532400 0.745700
0.211100 0.532400 0.745700
0.336650 0.532400 0.745700
0.462200 0.532400 0.745700
0.587750 0.532400 0.745700
0.713300 0.532400 0.745700
0.838850 0.532400 0.745700
0.964400 0.532400 0.745700
0.000000 0.675500 0.745700
0.085550 0.675500 0.745700
0.211100 0.675500 0.745700
0.336650 0.675500 0.745700
0.462200 0.675500 0.745700
0.587750 0.675500 0.745700
0.713300 0.675500 0.745700
0.838850 0.675500 0.745700
0.964400 0.675500 0.745700
0.000000 0.818600 0.745700
0.085550 0.818600 0.745700
0.211100 0.818600 0.745700
0.336650 0.818600 0.745700
0.462200 0.818600 0.745700
0.587750 0.818600 0.745700
0.713300 0.818600 0.745700
0.838850 0.818600 0.745700
0.964400 0.818600 0.745700
0.000000 0.961700 0.745700
0.085550 0.961700 0.745700
0.211100 0.961700 0.745700
0.336650 0.961700 0.745700
0.462200 0.961700 0.745700
0.587750 0.961700 0.745700
0.713300 0.961700 0.745700
0.838850 0.961700 0.745700
0.964400 0.961700 0.745700
0.000000 1.000000 0.745700
0.085550 1.000000 0.745700
0.211100 1.000000 0.745700
0.336650 1.000000 0.745700
0.462200 1.000000 0.745700
0.587750 1.000000 0.745700
0.713300 1.000000 0.745700
0.838850 1.000000 0.745700
0.964400 1.000000 0.745700
0.000000 0.000000 0.876650
0.085550 0.000000 0.876650
0.211100 0.000000 0.876650
0.336650 0.000000 0.876650
0.462200 0.000000 0.876650
0.587750 0.000000 0.876650
0.713300 0.000000 0.876650
0.838850 0.000000 0.876650
0.964400 0.000000 0.876650
0.000000 0.103100 0.876650
0.085550 0.103100 0.876650
0.211100 0.103100 0.876650
0.336650 0.103100 0.876650
0.462200 0.103100 0.876650
0.587750 0.103100 0.876650
0.713300 0.103100 0.876650
0.838850 0.103100 0.876650
0.964400 0.103100 0.876650
0.000000 0.246200 0.876650
0.085550 0.246200 0.876650
0.211100 0.246200 0.876650
0.336650 0.246200 0.876650
0.462200 0.246200 0.876650
0.587750 0.246200 0.876650
0.713300 0.246200 0.876650
0.838850 0.246200 0.876650
0.964400 0.246200 0.876650
0.000000 0.389300 0.876650
0.085550 0.389300 0.876650
0.211100 0.389300 0.876650
0.336650 0.389300 0.876650
0.462200 0.389300 0.876650
0.587750 0.389300 0.876650
0.713300 0.389300 0.876650
0.838850 0.389300 0.876650
0.964400 0.389300 0.876650
0.000000 0.532400 0.876650
0.085550 0.532400 0.876650
0.211100 0.532400 0.876650
0.336650 0.532400 0.876650
0.462200 0.532400 0.876650
0.587750 0.532400 0.876650
0.713300 0.532400 0.876650
0.838850 0.532400 0.876650
0.964400 0.532400 0.876650
0.000000 0.675500 0.876650
0.085550 0.675500 0.876650
0.211100 0.675500 0.876650
0.336650 0.675500 0.876650
0.462200 0.675500 0.876650
0.587750 0.675500 0.876650
0.713300 0.675500 0.876650
0.838850 0.675500 0.876650
0.964400 0.675500 0.876650
0.000000 0.818600 0.876650
0.085550 0.818600 0.876650
0.211100 0.818600 0.876650
0.336650 0.818600 0.876650
0.462200 0.818600 0.876650
0.587750 0.818600 0.876650
0.713300 0.818600 0.876650
0.838850 0.818600 0.876650
0.964400 0.818600 0.876650
0.000000 0.961700 0.876650
0.085550 0.961700 0.876650
0.211100 0.961700 0.876650
0.336650 0.961700 0.876650
0.462200 0.961700 0.876650
0.587750 0.961700 0.876650
0.713300 0.961700 0.876650
0.838850 0.961700 0.876650
0.964400 0.961700 0.876650
0.000000 1.000000 0.876650
0.085550 1.000000 0.876650
0.211100 1.000000 0.876650
0.336650 1.000000 0.876650
0.462200 1.000000 0.876650
0.587750 1.000000 0.876650
0.713300 1.000000 0.876650
0.838850 1.000000 0.876650
0.964400 1.000000 0.876650
0.000000 0.000000 1.000000
0.085550 0.000000 1.000000
0.211100 0.000000 1.000000
0.336650 0.000000 1.000000
0.462200 0.000000 1.000000
0.587750 0.000000 1.000000
0.713300 0.000000 1.000000
0.838850 0.000000 1.000000
0.964400 0.000000 1.000000
0.000000 0.103100 1.000000
0.085550 0.103100 1.000000
0.211100 0.103100 1.000000
0.336650 0.103100 1.000000
0.462200 0.103100 1.000000
0.587750 0.103100 1.000000
0.713300 0.103100 1.000000
0.838850 0.103100 1.000000
0.964400 0.103100 1.000000
0.000000 0.246200 1.000000
0.085550 0.246200 1.000000
0.211100 0.246200 1.000000
0.336650 0.246200 1.000000
0.462200 0.246200 1.000000
0.587750 0.246200 1.000000
0.713300 0.246200 1.000000
0.838850 0.246200 1.000000
0.964400 0.246200 1.000000
0.000000 0.389300 1.000000
0.085550 0.389300 1.000000
0.211100 0.389300 1.000000
0.336650 0.389300 1.000000
0.462200 0.389300 1.000000
0.587750 0.389300 1.000000
0.713300 0.389300 1.000000
0.838850 0.389300 1.000000
0.964400 0.389300 1.000000
0.000000 0.532400 1.000000
0.085550 0.532400 1.000000
0.211100 0.532400 1.000000
0.336650 0.532400 1.000000
0.462200 0.532400 1.000000
0.587750 0.532400 1.000000
0.713300 0.532400 1.000000
0.838850 0.532400 1.000000
0.964400 0.532400 1.000000
0.000000 0.675500 1.000000
0.085550 0.675500 1.000000
0.211100 0.675500 1.000000
0.336650 0.675500 1.000000
0.462200 0.675500 1.000000
0.587750 0.675500 1.000000
0.713300 0.675500 1.000000
0.838850 0.675500 1.000000
0.964400 0.675500 1.000000
0.000000 0.818600 1.000000
0.085550 0.818600 1.000000
0.211100 0.818600 1.000000
0.336650 0.818600 1.000000
0.462200 0.818600 1.000000
0.587750 0.818600 1.000000
0.713300 0.818600 1.000000
0.838850 0.818600 1.000000
0.964400 0.818600 1.000000
0.000000 0.961700 1.000000
0.085550 0.961700 1.000000
0.211100 0.961700 1.000000
0.336650 0.961700 1.000000
0.462200 0.961700 1.000000
0.587750 0.961700 1.000000
0.713300 0.961700 1.000000
0.838850 0.961700 1.000000
0.964400 0.961700 1.000000
0.000000 1.000000 1.000000
0.085550 1.000000 1.000000
0.211100 1.000000 1.000000
0.336650 1.000000 1.000000
0.462200 1.000000 1.000000
0.587750 1.000000 1.000000
0.713300 1.000000 1.000000
0.838850 1.000000 1.000000
0.964400 1.000000 1.000000
