director/public/luts/matrix_green.cube
TITLE "Matrix Green"
LUT_3D_SIZE 5
0.000000 0.000000 0.000000
0.211100 0.000000 0.000000
0.462200 0.000000 0.000000
0.713300 0.000000 0.000000
0.964400 0.000000 0.000000
0.000000 0.246200 0.000000
0.211100 0.246200 0.000000
0.462200 0.246200 0.000000
0.713300 0.246200 0.000000
0.964400 0.246200 0.000000
0.000000 0.532400 0.000000
0.211100 0.532400 0.000000
0.462200 0.532400 0.000000
0.713300 0.532400 0.000000
0.964400 0.532400 0.000000
0.000000 0.818600 0.000000
0.211100 0.818600 0.000000
0.462200 0.818600 0.000000
0.713300 0.818600 0.000000
0.964400 0.818600 0.000000
0.000000 1.000000 0.000000
0.211100 1.000000 0.000000
0.462200 1.000000 0.000000
0.713300 1.000000 0.000000
0.964400 1.000000 0.000000
0.000000 0.000000 0.221900
0.211100 0.000000 0.221900
0.462200 0.000000 0.221900
0.713300 0.000000 0.221900
0.964400 0.000000 0.221900
0.000000 0.246200 0.221900
0.211100 0.246200 0.221900
0.462200 0.246200 0.221900
0.713300 0.246200 0.221900
0.964400 0.246200 0.221900
0.000000 0.532400 0.221900
0.211100 0.532400 0.221900
0.462200 0.532400 0.221900
0.713300 0.532400 0.221900
0.964400 0.532400 0.221900
0.000000 0.818600 0.221900
0.211100 0.818600 0.221900
0.462200 0.818600 0.221900
0.713300 0.818600 0.221900
0.964400 0.818600 0.221900
0.000000 1.000000 0.221900
0.211100 1.000000 0.221900
0.462200 1.000000 0.221900
0.713300 1.000000 0.221900
0.964400 1.000000 0.221900
0.000000 0.000000 0.483800
0.211100 0.000000 0.483800
0.462200 0.000000 0.483800
0.713300 0.000000 0.483800
0.964400 0.000000 0.483800
0.000000 0.246200 0.483800
0.211100 0.246200 0.483800
0.462200 0.246200 0.483800
0.713300 0.246200 0.483800
0.964400 0.246200 0.483800
0.000000 0.532400 0.483800
0.211100 0.532400 0.483800
0.462200 0.532400 0.483800
0.713300 0.532400 0.483800
0.964400 0.532400 0.483800
0.000000 0.818600 0.483800
0.211100 0.818600 0.483800
0.462200 0.818600 0.483800
0.713300 0.818600 0.483800
0.964400 0.818600 0.483800
0.000000 1.000000 0.483800
0.211100 1.000000 0.483800
0.462200 1.000000 0.483800
0.713300 1.000000 0.483800
0.964400 1.000000 0.483800
0.000000 0.000000 0.745700
0.211100 0.000000 0.745700
0.462200 0.000000 0.745700
0.713300 0.000000 0.745700
0.964400 0.000000 0.745700
0.000000 0.246200 0.745700
0.211100 0.246200 0.745700
0.462200 0.246200 0.745700
0.713300 0.246200 0.745700
0.964400 0.246200 0.745700
0.000000 0.532400 0.745700
0.211100 0.532400 0.745700
0.462200 0.532400 0.745700
0.713300 0.532400 0.745700
0.964400 0.532400 0.745700
0.000000 0.818600 0.745700
0.211100 0.818600 0.745700
0.462200 0.818600 0.745700
0.713300 0.818600 0.745700
0.964400 0.818600 0.745700
0.000000 1.000000 0.745700
0.211100 1.000000 0.745700
0.462200 1.000000 0.745700
0.713300 1.000000 0.745700
0.964400 1.000000 0.745700
0.000000 0.000000 1.000000
0.211100 0.000000 1.000000
0.462200 0.000000 1.000000
0.713300 0.000000 1.000000
0.964400 0.000000 1.000000
0.000000 0.246200 1.000000
0.211100 0.246200 1.000000
0.462200 0.246200 1.000000
0.713300 0.246200 1.000000
0.964400 0.246200 1.000000
0.000000 0.532400 1.000000
0.211100 0.532400 1.000000
0.462200 0.532400 1.000000
0.713300 0.532400 1.000000
0.964400 0.532400 1.000000
0.000000 0.818600 1.000000
0.211100 0.818600 1.000000
0.462200 0.818600 1.000000
0.713300 0.818600 1.000000
0.964400 0.818600 1.000000
0.000000 1.000000 1.000000
0.211100 1.000000 1.000000
0.462200 1.000000 1.000000
0.713300 1.000000 1.000000
0.964400 1.000000 1.000000
