director/public/luts/neon_pink.cube
TITLE "Neon Pink"
LUT_3D_SIZE 5
0.000000 0.000000 0.000000
0.246200 0.000000 0.000000
0.532400 0.000000 0.000000
0.818600 0.000000 0.000000
1.000000 0.000000 0.000000
0.000000 0.213800 0.000000
0.246200 0.213800 0.000000
0.532400 0.213800 0.000000
0.818600 0.213800 0.000000
1.000000 0.213800 0.000000
0.000000 0.467600 0.000000
0.246200 0.467600 0.000000
0.532400 0.467600 0.000000
0.818600 0.467600 0.000000
1.000000 0.467600 0.000000
0.000000 0.721400 0.000000
0.246200 0.721400 0.000000
0.532400 0.721400 0.000000
0.818600 0.721400 0.000000
1.000000 0.721400 0.000000
0.000000 0.975200 0.000000
0.246200 0.975200 0.000000
0.532400 0.975200 0.000000
0.818600 0.975200 0.000000
1.000000 0.975200 0.000000
0.000000 0.000000 0.235400
0.246200 0.000000 0.235400
0.532400 0.000000 0.235400
0.818600 0.000000 0.235400
1.000000 0.000000 0.235400
0.000000 0.213800 0.235400
0.246200 0.213800 0.235400
0.532400 0.213800 0.235400
0.818600 0.213800 0.235400
1.000000 0.213800 0.235400
0.000000 0.467600 0.235400
0.246200 0.467600 0.235400
0.532400 0.467600 0.235400
0.818600 0.467600 0.235400
1.000000 0.467600 0.235400
0.000000 0.721400 0.235400
0.246200 0.721400 0.235400
0.532400 0.721400 0.235400
0.818600 0.721400 0.235400
1.000000 0.721400 0.235400
0.000000 0.975200 0.235400
0.246200 0.975200 0.235400
0.532400 0.975200 0.235400
0.818600 0.975200 0.235400
1.000000 0.975200 0.235400
0.000000 0.000000 0.510800
0.246200 0.000000 0.510800
0.532400 0.000000 0.510800
0.818600 0.000000 0.510800
1.000000 0.000000 0.510800
0.000000 0.213800 0.510800
0.246200 0.213800 0.510800
0.532400 0.213800 0.510800
0.818600 0.213800 0.510800
1.000000 0.213800 0.510800
0.000000 0.467600 0.510800
0.246200 0.467600 0.510800
0.532400 0.467600 0.510800
0.818600 0.467600 0.510800
1.000000 0.467600 0.510800
0.000000 0.721400 0.510800
0.246200 0.721400 0.510800
0.532400 0.721400 0.510800
0.818600 0.721400 0.510800
1.000000 0.721400 0.510800
0.000000 0.975200 0.510800
0.246200 0.975200 0.510800
0.532400 0.975200 0.510800
0.818600 0.975200 0.510800
1.000000 0.975200 0.510800
0.000000 0.000000 0.786200
0.246200 0.000000 0.786200
0.532400 0.000000 0.786200
0.818600 0.000000 0.786200
1.000000 0.000000 0.786200
0.000000 0.213800 0.786200
0.246200 0.213800 0.786200
0.532400 0.213800 0.786200
0.818600 0.213800 0.786200
1.000000 0.213800 0.786200
0.000000 0.467600 0.786200
0.246200 0.467600 0.786200
0.532400 0.467600 0.786200
0.818600 0.467600 0.786200
1.000000 0.467600 0.786200
0.000000 0.721400 0.786200
0.246200 0.721400 0.786200
0.532400 0.721400 0.786200
0.818600 0.721400 0.786200
1.000000 0.721400 0.786200
0.000000 0.975200 0.786200
0.246200 0.975200 0.786200
0.532400 0.975200 0.786200
0.818600 0.975200 0.786200
1.000000 0.975200 0.786200
0.000000 0.000000 1.000000
0.246200 0.000000 1.000000
0.532400 0.000000 1.000000
0.818600 0.000000 1.000000
1.000000 0.000000 1.000000
0.000000 0.213800 1.000000
0.246200 0.213800 1.000000
0.532400 0.213800 1.000000
0.818600 0.213800 1.000000
1.000000 0.213800 1.000000
0.000000 0.467600 1.000000
0.246200 0.467600 1.000000
0.532400 0.467600 1.000000
0.818600 0.467600 1.000000
1.000000 0.467600 1.000000
0.000000 0.721400 1.000000
0.246200 0.721400 1.000000
0.532400 0.721400 1.000000
0.818600 0.721400 1.000000
1.000000 0.721400 1.000000
0.000000 0.975200 1.000000
0.246200 0.975200 1.000000
0.532400 0.975200 1.000000
0.818600 0.975200 1.000000
1.000000 0.975200 1.000000
