director/public/luts/neon_pink.cube
TITLE "Neon Pink"
LUT_3D_SIZE 9
0.000000 0.000000 0.000000
0.103100 0.000000 0.000000
0.246200 0.000000 0.000000
0.389300 0.000000 0.000000
0.532400 0.000000 0.000000
0.675500 0.000000 0.000000
0.818600 0.000000 0.000000
0.961700 0.000000 0.000000
1.000000 0.000000 0.000000
0.000000 0.086900 0.000000
0.103100 0.086900 0.000000
0.246200 0.086900 0.000000
0.389300 0.086900 0.000000
0.532400 0.086900 0.000000
0.675500 0.086900 0.000000
0.818600 0.086900 0.000000
0.961700 0.086900 0.000000
1.000000 0.086900 0.000000
0.000000 0.213800 0.000000
0.103100 0.213800 0.000000
0.246200 0.213800 0.000000
0.389300 0.213800 0.000000
0.532400 0.213800 0.000000
0.675500 0.213800 0.000000
0.818600 0.213800 0.000000
0.961700 0.213800 0.000000
1.000000 0.213800 0.000000
0.000000 0.340700 0.000000
0.103100 0.340700 0.000000
0.246200 0.340700 0.000000
0.389300 0.340700 0.000000
0.532400 0.340700 0.000000
0.675500 0.340700 0.000000
0.818600 0.340700 0.000000
0.961700 0.340700 0.000000
1.000000 0.340700 0.000000
0.000000 0.467600 0.000000
0.103100 0.467600 0.000000
0.246200 0.467600 0.000000
0.389300 0.467600 0.000000
0.532400 0.467600 0.000000
0.675500 0.467600 0.000000
0.818600 0.467600 0.000000
0.961700 0.467600 0.000000
1.000000 0.467600 0.000000
0.000000 0.594500 0.000000
0.103100 0.594500 0.000000
0.246200 0.594500 0.000000
0.389300 0.594500 0.000000
0.532400 0.594500 0.000000
0.675500 0.594500 0.000000
0.818600 0.594500 0.000000
0.961700 0.594500 0.000000
1.000000 0.594500 0.000000
0.000000 0.721400 0.000000
0.103100 0.721400 0.000000
0.246200 0.721400 0.000000
0.389300 0.721400 0.000000
0.532400 0.721400 0.000000
0.675500 0.721400 0.000000
0.818600 0.721400 0.000000
0.961700 0.721400 0.000000
1.000000 0.721400 0.000000
0.000000 0.848300 0.000000
0.103100 0.848300 0.000000
0.246200 0.848300 0.000000
0.389300 0.848300 0.000000
0.532400 0.848300 0.000000
0.675500 0.848300 0.000000
0.818600 0.848300 0.000000
0.961700 0.848300 0.000000
1.000000 0.848300 0.000000
0.000000 0.975200 0.000000
0.103100 0.975200 0.000000
0.246200 0.975200 0.000000
0.389300 0.975200 0.000000
0.532400 0.975200 0.000000
0.675500 0.975200 0.000000
0.818600 0.975200 0.000000
0.961700 0.975200 0.000000
1.000000 0.975200 0.000000
0.000000 0.000000 0.097700
0.103100 0.000000 0.097700
0.246200 0.000000 0.097700
0.389300 0.000000 0.097700
0.532400 0.000000 0.097700
0.675500 0.000000 0.097700
0.818600 0.000000 0.097700
0.961700 0.000000 0.097700
1.000000 0.000000 0.097700
0.000000 0.086900 0.097700
0.103100 0.086900 0.097700
0.246200 0.086900 0.097700
0.389300 0.086900 0.097700
0.532400 0.086900 0.097700
0.675500 0.086900 0.097700
0.818600 0.086900 0.097700
0.961700 0.086900 0.097700
1.000000 0.086900 0.097700
0.000000 0.213800 0.097700
0.103100 0.213800 0.097700
0.246200 0.213800 0.097700
0.389300 0.213800 0.097700
0.532400 0.213800 0.097700
0.675500 0.213800 0.097700
0.818600 0.213800 0.097700
0.961700 0.213800 0.097700
1.000000 0.213800 0.097700
0.000000 0.340700 0.097700
0.103100 0.340700 0.097700
0.246200 0.340700 0.097700
0.389300 0.340700 0.097700
0.532400 0.340700 0.097700
0.675500 0.340700 0.097700
0.818600 0.340700 0.097700
0.961700 0.340700 0.097700
1.000000 0.340700 0.097700
0.000000 0.467600 0.097700
0.103100 0.467600 0.097700
0.246200 0.467600 0.097700
0.389300 0.467600 0.097700
0.532400 0.467600 0.097700
0.675500 0.467600 0.097700
0.818600 0.467600 0.097700
0.961700 0.467600 0.097700
1.000000 0.467600 0.097700
0.000000 0.594500 0.097700
0.103100 0.594500 0.097700
0.246200 0.594500 0.097700
0.389300 0.594500 0.097700
0.532400 0.594500 0.097700
0.675500 0.594500 0.097700
0.818600 0.594500 0.097700
0.961700 0.594500 0.097700
1.000000 0.594500 0.097700
0.000000 0.721400 0.097700
0.103100 0.721400 0.097700
0.246200 0.721400 0.097700
0.389300 0.721400 0.097700
0.532400 0.721400 0.097700
0.675500 0.721400 0.097700
0.818600 0.721400 0.097700
0.961700 0.721400 0.097700
1.000000 0.721400 0.097700
0.000000 0.848300 0.097700
0.103100 0.848300 0.097700
0.246200 0.848300 0.097700
0.389300 0.848300 0.097700
0.532400 0.848300 0.097700
0.675500 0.848300 0.097700
0.818600 0.848300 0.097700
0.961700 0.848300 0.097700
1.000000 0.848300 0.097700
0.000000 0.975200 0.097700
0.103100 0.975200 0.097700
0.246200 0.975200 0.097700
0.389300 0.975200 0.097700
0.532400 0.975200 0.097700
0.675500 0.975200 0.097700
0.818600 0.975200 0.097700
0.961700 0.975200 0.097700
1.000000 0.975200 0.097700
0.000000 0.000000 0.235400
0.103100 0.000000 0.235400
0.246200 0.000000 0.235400
0.389300 0.000000 0.235400
0.532400 0.000000 0.235400
0.675500 0.000000 0.235400
0.818600 0.000000 0.235400
0.961700 0.000000 0.235400
1.000000 0.000000 0.235400
0.000000 0.086900 0.235400
0.103100 0.086900 0.235400
0.246200 0.086900 0.235400
0.389300 0.086900 0.235400
0.532400 0.086900 0.235400
0.675500 0.086900 0.235400
0.818600 0.086900 0.235400
0.961700 0.086900 0.235400
1.000000 0.086900 0.235400
0.000000 0.213800 0.235400
0.103100 0.213800 0.235400
0.246200 0.213800 0.235400
0.389300 0.213800 0.235400
0.532400 0.213800 0.235400
0.675500 0.213800 0.235400
0.818600 0.213800 0.235400
0.961700 0.213800 0.235400
1.000000 0.213800 0.235400
0.000000 0.340700 0.235400
0.103100 0.340700 0.235400
0.246200 0.340700 0.235400
0.389300 0.340700 0.235400
0.532400 0.340700 0.235400
0.675500 0.340700 0.235400
0.818600 0.340700 0.235400
0.961700 0.340700 0.235400
1.000000 0.340700 0.235400
0.000000 0.467600 0.235400
0.103100 0.467600 0.235400
0.246200 0.467600 0.235400
0.389300 0.467600 0.235400
0.532400 0.467600 0.235400
0.675500 0.467600 0.235400
0.818600 0.467600 0.235400
0.961700 0.467600 0.235400
1.000000 0.467600 0.235400
0.000000 0.594500 0.235400
0.103100 0.594500 0.235400
0.246200 0.594500 0.235400
0.389300 0.594500 0.235400
0.532400 0.594500 0.235400
0.675500 0.594500 0.235400
0.818600 0.594500 0.235400
0.961700 0.594500 0.235400
1.000000 0.594500 0.235400
0.000000 0.721400 0.235400
0.103100 0.721400 0.235400
0.246200 0.721400 0.235400
0.389300 0.721400 0.235400
0.532400 0.721400 0.235400
0.675500 0.721400 0.235400
0.818600 0.721400 0.235400
0.961700 0.721400 0.235400
1.000000 0.721400 0.235400
0.000000 0.848300 0.235400
0.103100 0.848300 0.235400
0.246200 0.848300 0.235400
0.389300 0.848300 0.235400
0.532400 0.848300 0.235400
0.675500 0.848300 0.235400
0.818600 0.848300 0.235400
0.961700 0.848300 0.235400
1.000000 0.848300 0.235400
0.000000 0.975200 0.235400
0.103100 0.975200 0.235400
0.246200 0.975200 0.235400
0.389300 0.975200 0.235400
0.532400 0.975200 0.235400
0.675500 0.975200 0.235400
0.818600 0.975200 0.235400
0.961700 0.975200 0.235400
1.000000 0.975200 0.235400
0.000000 0.000000 0.373100
0.103100 0.000000 0.373100
0.246200 0.000000 0.373100
0.389300 0.000000 0.373100
0.532400 0.000000 0.373100
0.675500 0.000000 0.373100
0.818600 0.000000 0.373100
0.961700 0.000000 0.373100
1.000000 0.000000 0.373100
0.000000 0.086900 0.373100
0.103100 0.086900 0.373100
0.246200 0.086900 0.373100
0.389300 0.086900 0.373100
0.532400 0.086900 0.373100
0.675500 0.086900 0.373100
0.818600 0.086900 0.373100
0.961700 0.086900 0.373100
1.000000 0.086900 0.373100
0.000000 0.213800 0.373100
0.103100 0.213800 0.373100
0.246200 0.213800 0.373100
0.389300 0.213800 0.373100
0.532400 0.213800 0.373100
0.675500 0.213800 0.373100
0.818600 0.213800 0.373100
0.961700 0.213800 0.373100
1.000000 0.213800 0.373100
0.000000 0.340700 0.373100
0.103100 0.340700 0.373100
0.246200 0.340700 0.373100
0.389300 0.340700 0.373100
0.532400 0.340700 0.373100
0.675500 0.340700 0.373100
0.818600 0.340700 0.373100
0.961700 0.340700 0.373100
1.000000 0.340700 0.373100
0.000000 0.467600 0.373100
0.103100 0.467600 0.373100
0.246200 0.467600 0.373100
0.389300 0.467600 0.373100
0.532400 0.467600 0.373100
0.675500 0.467600 0.373100
0.818600 0.467600 0.373100
0.961700 0.467600 0.373100
1.000000 0.467600 0.373100
0.000000 0.594500 0.373100
0.103100 0.594500 0.373100
0.246200 0.594500 0.373100
0.389300 0.594500 0.373100
0.532400 0.594500 0.373100
0.675500 0.594500 0.373100
0.818600 0.594500 0.373100
0.961700 0.594500 0.373100
1.000000 0.594500 0.373100
0.000000 0.721400 0.373100
0.103100 0.721400 0.373100
0.246200 0.721400 0.373100
0.389300 0.721400 0.373100
0.532400 0.721400 0.373100
0.675500 0.721400 0.373100
0.818600 0.721400 0.373100
0.961700 0.721400 0.373100
1.000000 0.721400 0.373100
0.000000 0.848300 0.373100
0.103100 0.848300 0.373100
0.246200 0.848300 0.373100
0.389300 0.848300 0.373100
0.532400 0.848300 0.373100
0.675500 0.848300 0.373100
0.818600 0.848300 0.373100
0.961700 0.848300 0.373100
1.000000 0.848300 0.373100
0.000000 0.975200 0.373100
0.103100 0.975200 0.373100
0.246200 0.975200 0.373100
0.389300 0.975200 0.373100
0.532400 0.975200 0.373100
0.675500 0.975200 0.373100
0.818600 0.975200 0.373100
0.961700 0.975200 0.373100
1.000000 0.975200 0.373100
0.000000 0.000000 0.510800
0.103100 0.000000 0.510800
0.246200 0.000000 0.510800
0.389300 0.000000 0.510800
0.532400 0.000000 0.510800
0.675500 0.000000 0.510800
0.818600 0.000000 0.510800
0.961700 0.000000 0.510800
1.000000 0.000000 0.510800
0.000000 0.086900 0.510800
0.103100 0.086900 0.510800
0.246200 0.086900 0.510800
0.389300 0.086900 0.510800
0.532400 0.086900 0.510800
0.675500 0.086900 0.510800
0.818600 0.086900 0.510800
0.961700 0.086900 0.510800
1.000000 0.086900 0.510800
0.000000 0.213800 0.510800
0.103100 0.213800 0.510800
0.246200 0.213800 0.510800
0.389300 0.213800 0.510800
0.532400 0.213800 0.510800
0.675500 0.213800 0.510800
0.818600 0.213800 0.510800
0.961700 0.213800 0.510800
1.000000 0.213800 0.510800
0.000000 0.340700 0.510800
0.103100 0.340700 0.510800
0.246200 0.340700 0.510800
0.389300 0.340700 0.510800
0.532400 0.340700 0.510800
0.675500 0.340700 0.510800
0.818600 0.340700 0.510800
0.961700 0.340700 0.510800
1.000000 0.340700 0.510800
0.000000 0.467600 0.510800
0.103100 0.467600 0.510800
0.246200 0.467600 0.510800
0.389300 0.467600 0.510800
0.532400 0.467600 0.510800
0.675500 0.467600 0.510800
0.818600 0.467600 0.510800
0.961700 0.467600 0.510800
1.000000 0.467600 0.510800
0.000000 0.594500 0.510800
0.103100 0.594500 0.510800
0.246200 0.594500 0.510800
0.389300 0.594500 0.510800
0.532400 0.594500 0.510800
0.675500 0.594500 0.510800
0.818600 0.594500 0.510800
0.961700 0.594500 0.510800
1.000000 0.594500 0.510800
0.000000 0.721400 0.510800
0.103100 0.721400 0.510800
0.246200 0.721400 0.510800
0.389300 0.721400 0.510800
0.532400 0.721400 0.510800
0.675500 0.721400 0.510800
0.818600 0.721400 0.510800
0.961700 0.721400 0.510800
1.000000 0.721400 0.510800
0.000000 0.848300 0.510800
0.103100 0.848300 0.510800
0.246200 0.848300 0.510800
0.389300 0.848300 0.510800
0.532400 0.848300 0.510800
0.675500 0.848300 0.510800
0.818600 0.848300 0.510800
0.961700 0.848300 0.510800
1.000000 0.848300 0.510800
0.000000 0.975200 0.510800
0.103100 0.975200 0.510800
0.246200 0.975200 0.510800
0.389300 0.975200 0.510800
0.532400 0.975200 0.510800
0.675500 0.975200 0.510800
0.818600 0.975200 0.510800
0.961700 0.975200 0.510800
1.000000 0.975200 0.510800
0.000000 0.000000 0.648500
0.103100 0.000000 0.648500
0.246200 0.000000 0.648500
0.389300 0.000000 0.648500
0.532400 0.000000 0.648500
0.675500 0.000000 0.648500
0.818600 0.000000 0.648500
0.961700 0.000000 0.648500
1.000000 0.000000 0.648500
0.000000 0.086900 0.648500
0.103100 0.086900 0.648500
0.246200 0.086900 0.648500
0.389300 0.086900 0.648500
0.532400 0.086900 0.648500
0.675500 0.086900 0.648500
0.818600 0.086900 0.648500
0.961700 0.086900 0.648500
1.000000 0.086900 0.648500
0.000000 0.213800 0.648500
0.103100 0.213800 0.648500
0.246200 0.213800 0.648500
0.389300 0.213800 0.648500
0.532400 0.213800 0.648500
0.675500 0.213800 0.648500
0.818600 0.213800 0.648500
0.961700 0.213800 0.648500
1.000000 0.213800 0.648500
0.000000 0.340700 0.648500
0.103100 0.340700 0.648500
0.246200 0.340700 0.648500
0.389300 0.340700 0.648500
0.532400 0.340700 0.648500
0.675500 0.340700 0.648500
0.818600 0.340700 0.648500
0.961700 0.340700 0.648500
1.000000 0.340700 0.648500
0.000000 0.467600 0.648500
0.103100 0.467600 0.648500
0.246200 0.467600 0.648500
0.389300 0.467600 0.648500
0.532400 0.467600 0.648500
0.675500 0.467600 0.648500
0.818600 0.467600 0.648500
0.961700 0.467600 0.648500
1.000000 0.467600 0.648500
0.000000 0.594500 0.648500
0.103100 0.594500 0.648500
0.246200 0.594500 0.648500
0.389300 0.594500 0.648500
0.532400 0.594500 0.648500
0.675500 0.594500 0.648500
0.818600 0.594500 0.648500
0.961700 0.594500 0.648500
1.000000 0.594500 0.648500
0.000000 0.721400 0.648500
0.103100 0.721400 0.648500
0.246200 0.721400 0.648500
0.389300 0.721400 0.648500
0.532400 0.721400 0.648500
0.675500 0.721400 0.648500
0.818600 0.721400 0.648500
0.961700 0.721400 0.648500
1.000000 0.721400 0.648500
0.000000 0.848300 0.648500
0.103100 0.848300 0.648500
0.246200 0.848300 0.648500
0.389300 0.848300 0.648500
0.532400 0.848300 0.648500
0.675500 0.848300 0.648500
0.818600 0.848300 0.648500
0.961700 0.848300 0.648500
1.000000 0.848300 0.648500
0.000000 0.975200 0.648500
0.103100 0.975200 0.648500
0.246200 0.975200 0.648500
0.389300 0.975200 0.648500
0.532400 0.975200 0.648500
0.675500 0.975200 0.648500
0.818600 0.975200 0.648500
0.961700 0.975200 0.648500
1.000000 0.975200 0.648500
0.000000 0.000000 0.786200
0.103100 0.000000 0.786200
0.246200 0.000000 0.786200
0.389300 0.000000 0.786200
0.532400 0.000000 0.786200
0.675500 0.000000 0.786200
0.818600 0.000000 0.786200
0.961700 0.000000 0.786200
1.000000 0.000000 0.786200
0.000000 0.086900 0.786200
0.103100 0.086900 0.786200
0.246200 0.086900 0.786200
0.389300 0.086900 0.786200
0.532400 0.086900 0.786200
0.675500 0.086900 0.786200
0.818600 0.086900 0.786200
0.961700 0.086900 0.786200
1.000000 0.086900 0.786200
0.000000 0.213800 0.786200
0.103100 0.213800 0.786200
0.246200 0.213800 0.786200
0.389300 0.213800 0.786200
0.532400 0.213800 0.786200
0.675500 0.213800 0.786200
0.818600 0.213800 0.786200
0.961700 0.213800 0.786200
1.000000 0.213800 0.786200
0.000000 0.340700 0.786200
0.103100 0.340700 0.786200
0.246200 0.340700 0.786200
0.389300 0.340700 0.786200
0.532400 0.340700 0.786200
0.675500 0.340700 0.786200
0.818600 0.340700 0.786200
0.961700 0.340700 0.786200
1.000000 0.340700 0.786200
0.000000 0.467600 0.786200
0.103100 0.467600 0.786200
0.246200 0.467600 0.786200
0.389300 0.467600 0.786200
0.532400 0.467600 0.786200
0.675500 0.467600 0.786200
0.818600 0.467600 0.786200
0.961700 0.467600 0.786200
1.000000 0.467600 0.786200
0.000000 0.594500 0.786200
0.103100 0.594500 0.786200
0.246200 0.594500 0.786200
0.389300 0.594500 0.786200
0.532400 0.594500 0.786200
0.675500 0.594500 0.786200
0.818600 0.594500 0.786200
0.961700 0.594500 0.786200
1.000000 0.594500 0.786200
0.000000 0.721400 0.786200
0.103100 0.721400 0.786200
0.246200 0.721400 0.786200
0.389300 0.721400 0.786200
0.532400 0.721400 0.786200
0.675500 0.721400 0.786200
0.818600 0.721400 0.786200
0.961700 0.721400 0.786200
1.000000 0.721400 0.786200
0.000000 0.848300 0.786200
0.103100 0.848300 0.786200
0.246200 0.848300 0.786200
0.389300 0.848300 0.786200
0.532400 0.848300 0.786200
0.675500 0.848300 0.786200
0.818600 0.848300 0.786200
0.961700 0.848300 0.786200
1.000000 0.848300 0.786200
0.000000 0.975200 0.786200
0.103100 0.975200 0.786200
0.246200 0.975200 0.786200
0.389300 0.975200 0.786200
0.532400 0.975200 0.786200
0.675500 0.975200 0.786200
0.818600 0.975200 0.786200
0.961700 0.975200 0.786200
1.000000 0.975200 0.786200
0.000000 0.000000 0.923900
0.103100 0.000000 0.923900
0.246200 0.000000 0.923900
0.389300 0.000000 0.923900
0.532400 0.000000 0.923900
0.675500 0.000000 0.923900
0.818600 0.000000 0.923900
0.961700 0.000000 0.923900
1.000000 0.000000 0.923900
0.000000 0.086900 0.923900
0.103100 0.086900 0.923900
0.246200 0.086900 0.923900
0.389300 0.086900 0.923900
0.532400 0.086900 0.923900
0.675500 0.086900 0.923900
0.818600 0.086900 0.923900
0.961700 0.086900 0.923900
1.000000 0.086900 0.923900
0.000000 0.213800 0.923900
0.103100 0.213800 0.923900
0.246200 0.213800 0.923900
0.389300 0.213800 0.923900
0.532400 0.213800 0.923900
0.675500 0.213800 0.923900
0.818600 0.213800 0.923900
0.961700 0.213800 0.923900
1.000000 0.213800 0.923900
0.000000 0.340700 0.923900
0.103100 0.340700 0.923900
0.246200 0.340700 0.923900
0.389300 0.340700 0.923900
0.532400 0.340700 0.923900
0.675500 0.340700 0.923900
0.818600 0.340700 0.923900
0.961700 0.340700 0.923900
1.000000 0.340700 0.923900
0.000000 0.467600 0.923900
0.103100 0.467600 0.923900
0.246200 0.467600 0.923900
0.389300 0.467600 0.923900
0.532400 0.467600 0.923900
0.675500 0.467600 0.923900
0.818600 0.467600 0.923900
0.961700 0.467600 0.923900
1.000000 0.467600 0.923900
0.000000 0.594500 0.923900
0.103100 0.594500 0.923900
0.246200 0.594500 0.923900
0.389300 0.594500 0.923900
0.532400 0.594500 0.923900
0.675500 0.594500 0.923900
0.818600 0.594500 0.923900
0.961700 0.594500 0.923900
1.000000 0.594500 0.923900
0.000000 0.721400 0.923900
0.103100 0.721400 0.923900
0.246200 0.721400 0.923900
0.389300 0.721400 0.923900
0.532400 0.721400 0.923900
0.675500 0.721400 0.923900
0.818600 0.721400 0.923900
0.961700 0.721400 0.923900
1.000000 0.721400 0.923900
0.000000 0.848300 0.923900
0.103100 0.848300 0.923900
0.246200 0.848300 0.923900
0.389300 0.848300 0.923900
0.532400 0.848300 0.923900
0.675500 0.848300 0.923900
0.818600 0.848300 0.923900
0.961700 0.848300 0.923900
1.000000 0.848300 0.923900
0.000000 0.975200 0.923900
0.103100 0.975200 0.923900
0.246200 0.975200 0.923900
0.389300 0.975200 0.923900
0.532400 0.975200 0.923900
0.675500 0.975200 0.923900
0.818600 0.975200 0.923900
0.961700 0.975200 0.923900
1.000000 0.975200 0.923900
0.000000 0.000000 1.000000
0.103100 0.000000 1.000000
0.246200 0.000000 1.000000
0.389300 0.000000 1.000000
0.532400 0.000000 1.000000
0.675500 0.000000 1.000000
0.818600 0.000000 1.000000
0.961700 0.000000 1.000000
1.000000 0.000000 1.000000
0.000000 0.086900 1.000000
0.103100 0.086900 1.000000
0.246200 0.086900 1.000000
0.389300 0.086900 1.000000
0.532400 0.086900 1.000000
0.675500 0.086900 1.000000
0.818600 0.086900 1.000000
0.961700 0.086900 1.000000
1.000000 0.086900 1.000000
0.000000 0.213800 1.000000
0.103100 0.213800 1.000000
0.246200 0.213800 1.000000
0.389300 0.213800 1.000000
0.532400 0.213800 1.000000
0.675500 0.213800 1.000000
0.818600 0.213800 1.000000
0.961700 0.213800 1.000000
1.000000 0.213800 1.000000
0.000000 0.340700 1.000000
0.103100 0.340700 1.000000
0.246200 0.340700 1.000000
0.389300 0.340700 1.000000
0.532400 0.340700 1.000000
0.675500 0.340700 1.000000
0.818600 0.340700 1.000000
0.961700 0.340700 1.000000
1.000000 0.340700 1.000000
0.000000 0.467600 1.000000
0.103100 0.467600 1.000000
0.246200 0.467600 1.000000
0.389300 0.467600 1.000000
0.532400 0.467600 1.000000
0.675500 0.467600 1.000000
0.818600 0.467600 1.000000
0.961700 0.467600 1.000000
1.000000 0.467600 1.000000
0.000000 0.594500 1.000000
0.103100 0.594500 1.000000
0.246200 0.594500 1.000000
0.389300 0.594500 1.000000
0.532400 0.594500 1.000000
0.675500 0.594500 1.000000
0.818600 0.594500 1.000000
0.961700 0.594500 1.000000
1.000000 0.594500 1.000000
0.000000 0.721400 1.000000
0.103100 0.721400 1.000000
0.246200 0.721400 1.000000
0.389300 0.721400 1.000000
0.532400 0.721400 1.000000
0.675500 0.721400 1.000000
0.818600 0.721400 1.000000
0.961700 0.721400 1.000000
1.000000 0.721400 1.000000
0.000000 0.848300 1.000000
0.103100 0.848300 1.000000
0.246200 0.848300 1.000000
0.389300 0.848300 1.000000
0.532400 0.848300 1.000000
0.675500 0.848300 1.000000
0.818600 0.848300 1.000000
0.961700 0.848300 1.000000
1.000000 0.848300 1.000000
0.000000 0.975200 1.000000
0.103100 0.975200 1.000000
0.246200 0.975200 1.000000
0.389300 0.975200 1.000000
0.532400 0.975200 1.000000
0.675500 0.975200 1.000000
0.818600 0.975200 1.000000
0.961700 0.975200 1.000000
1.000000 0.975200 1.000000
