director/public/luts/neon_pink.cube
TITLE "Neon Pink"
LUT_3D_SIZE 17
0.000000 0.000000 0.000000
0.031550 0.000000 0.000000
0.103100 0.000000 0.000000
0.174650 0.000000 0.000000
0.246200 0.000000 0.000000
0.317750 0.000000 0.000000
0.389300 0.000000 0.000000
0.460850 0.000000 0.000000
0.532400 0.000000 0.000000
0.603950 0.000000 0.000000
0.675500 0.000000 0.000000
0.747050 0.000000 0.000000
0.818600 0.000000 0.000000
0.890150 0.000000 0.000000
0.961700 0.000000 0.000000
1.000000 0.000000 0.000000
1.000000 0.000000 0.000000
0.000000 0.023450 0.000000
0.031550 0.023450 0.000000
0.103100 0.023450 0.000000
0.174650 0.023450 0.000000
0.246200 0.023450 0.000000
0.317750 0.023450 0.000000
0.389300 0.023450 0.000000
0.460850 0.023450 0.000000
0.532400 0.023450 0.000000
0.603950 0.023450 0.000000
0.675500 0.023450 0.000000
0.747050 0.023450 0.000000
0.818600 0.023450 0.000000
0.890150 0.023450 0.000000
0.961700 0.023450 0.000000
1.000000 0.023450 0.000000
1.000000 0.023450 0.000000
0.000000 0.086900 0.000000
0.031550 0.086900 0.000000
0.103100 0.086900 0.000000
0.174650 0.086900 0.000000
0.246200 0.086900 0.000000
0.317750 0.086900 0.000000
0.389300 0.086900 0.000000
0.460850 0.086900 0.000000
0.532400 0.086900 0.000000
0.603950 0.086900 0.000000
0.675500 0.086900 0.000000
0.747050 0.086900 0.000000
0.818600 0.086900 0.000000
0.890150 0.086900 0.000000
0.961700 0.086900 0.000000
1.000000 0.086900 0.000000
1.000000 0.086900 0.000000
0.000000 0.150350 0.000000
0.031550 0.150350 0.000000
0.103100 0.150350 0.000000
0.174650 0.150350 0.000000
0.246200 0.150350 0.000000
0.317750 0.150350 0.000000
0.389300 0.150350 0.000000
0.460850 0.150350 0.000000
0.532400 0.150350 0.000000
0.603950 0.150350 0.000000
0.675500 0.150350 0.000000
0.747050 0.150350 0.000000
0.818600 0.150350 0.000000
0.890150 0.150350 0.000000
0.961700 0.150350 0.000000
1.000000 0.150350 0.000000
1.000000 0.150350 0.000000
0.000000 0.213800 0.000000
0.031550 0.213800 0.000000
0.103100 0.213800 0.000000
0.174650 0.213800 0.000000
0.246200 0.213800 0.000000
0.317750 0.213800 0.000000
0.389300 0.213800 0.000000
0.460850 0.213800 0.000000
0.532400 0.213800 0.000000
0.603950 0.213800 0.000000
0.675500 0.213800 0.000000
0.747050 0.213800 0.000000
0.818600 0.213800 0.000000
0.890150 0.213800 0.000000
0.961700 0.213800 0.000000
1.000000 0.213800 0.000000
1.000000 0.213800 0.000000
0.000000 0.277250 0.000000
0.031550 0.277250 0.000000
0.103100 0.277250 0.000000
0.174650 0.277250 0.000000
0.246200 0.277250 0.000000
0.317750 0.277250 0.000000
0.389300 0.277250 0.000000
0.460850 0.277250 0.000000
0.532400 0.277250 0.000000
0.603950 0.277250 0.000000
0.675500 0.277250 0.000000
0.747050 0.277250 0.000000
0.818600 0.277250 0.000000
0.890150 0.277250 0.000000
0.961700 0.277250 0.000000
1.000000 0.277250 0.000000
1.000000 0.277250 0.000000
0.000000 0.340700 0.000000
0.031550 0.340700 0.000000
0.103100 0.340700 0.000000
0.174650 0.340700 0.000000
0.246200 0.340700 0.000000
0.317750 0.340700 0.000000
0.389300 0.340700 0.000000
0.460850 0.340700 0.000000
0.532400 0.340700 0.000000
0.603950 0.340700 0.000000
0.675500 0.340700 0.000000
0.747050 0.340700 0.000000
0.818600 0.340700 0.000000
0.890150 0.340700 0.000000
0.961700 0.340700 0.000000
1.000000 0.340700 0.000000
1.000000 0.340700 0.000000
0.000000 0.404150 0.000000
0.031550 0.404150 0.000000
0.103100 0.404150 0.000000
0.174650 0.404150 0.000000
0.246200 0.404150 0.000000
0.317750 0.404150 0.000000
0.389300 0.404150 0.000000
0.460850 0.404150 0.000000
0.532400 0.404150 0.000000
0.603950 0.404150 0.000000
0.675500 0.404150 0.000000
0.747050 0.404150 0.000000
0.818600 0.404150 0.000000
0.890150 0.404150 0.000000
0.961700 0.404150 0.000000
1.000000 0.404150 0.000000
1.000000 0.404150 0.000000
0.000000 0.467600 0.000000
0.031550 0.467600 0.000000
0.103100 0.467600 0.000000
0.174650 0.467600 0.000000
0.246200 0.467600 0.000000
0.317750 0.467600 0.000000
0.389300 0.467600 0.000000
0.460850 0.467600 0.000000
0.532400 0.467600 0.000000
0.603950 0.467600 0.000000
0.675500 0.467600 0.000000
0.747050 0.467600 0.000000
0.818600 0.467600 0.000000
0.890150 0.467600 0.000000
0.961700 0.467600 0.000000
1.000000 0.467600 0.000000
1.000000 0.467600 0.000000
0.000000 0.531050 0.000000
0.031550 0.531050 0.000000
0.103100 0.531050 0.000000
0.174650 0.531050 0.000000
0.246200 0.531050 0.000000
0.317750 0.531050 0.000000
0.389300 0.531050 0.000000
0.460850 0.531050 0.000000
0.532400 0.531050 0.000000
0.603950 0.531050 0.000000
0.675500 0.531050 0.000000
0.747050 0.531050 0.000000
0.818600 0.531050 0.000000
0.890150 0.531050 0.000000
0.961700 0.531050 0.000000
1.000000 0.531050 0.000000
1.000000 0.531050 0.000000
0.000000 0.594500 0.000000
0.031550 0.594500 0.000000
0.103100 0.594500 0.000000
0.174650 0.594500 0.000000
0.246200 0.594500 0.000000
0.317750 0.594500 0.000000
0.389300 0.594500 0.000000
0.460850 0.594500 0.000000
0.532400 0.594500 0.000000
0.603950 0.594500 0.000000
0.675500 0.594500 0.000000
0.747050 0.594500 0.000000
0.818600 0.594500 0.000000
0.890150 0.594500 0.000000
0.961700 0.594500 0.000000
1.000000 0.594500 0.000000
1.000000 0.594500 0.000000
0.000000 0.657950 0.000000
0.031550 0.657950 0.000000
0.103100 0.657950 0.000000
0.174650 0.657950 0.000000
0.246200 0.657950 0.000000
0.317750 0.657950 0.000000
0.389300 0.657950 0.000000
0.460850 0.657950 0.000000
0.532400 0.657950 0.000000
0.603950 0.657950 0.000000
0.675500 0.657950 0.000000
0.747050 0.657950 0.000000
0.818600 0.657950 0.000000
0.890150 0.657950 0.000000
0.961700 0.657950 0.000000
1.000000 0.657950 0.000000
1.000000 0.657950 0.000000
0.000000 0.721400 0.000000
0.031550 0.721400 0.000000
0.103100 0.721400 0.000000
0.174650 0.721400 0.000000
0.246200 0.721400 0.000000
0.317750 0.721400 0.000000
0.389300 0.721400 0.000000
0.460850 0.721400 0.000000
0.532400 0.721400 0.000000
0.603950 0.721400 0.000000
0.675500 0.721400 0.000000
0.747050 0.721400 0.000000
0.818600 0.721400 0.000000
0.890150 0.721400 0.000000
0.961700 0.721400 0.000000
1.000000 0.721400 0.000000
1.000000 0.721400 0.000000
0.000000 0.784850 0.000000
0.031550 0.784850 0.000000
0.103100 0.784850 0.000000
0.174650 0.784850 0.000000
0.246200 0.784850 0.000000
0.317750 0.784850 0.000000
0.389300 0.784850 0.000000
0.460850 0.784850 0.000000
0.532400 0.784850 0.000000
0.603950 0.784850 0.000000
0.675500 0.784850 0.000000
0.747050 0.784850 0.000000
0.818600 0.784850 0.000000
0.890150 0.784850 0.000000
0.961700 0.784850 0.000000
1.000000 0.784850 0.000000
1.000000 0.784850 0.000000
0.000000 0.848300 0.000000
0.031550 0.848300 0.000000
0.103100 0.848300 0.000000
0.174650 0.848300 0.000000
0.246200 0.848300 0.000000
0.317750 0.848300 0.000000
0.389300 0.848300 0.000000
0.460850 0.848300 0.000000
0.532400 0.848300 0.000000
0.603950 0.848300 0.000000
0.675500 0.848300 0.000000
0.747050 0.848300 0.000000
0.818600 0.848300 0.000000
0.890150 0.848300 0.000000
0.961700 0.848300 0.000000
1.000000 0.848300 0.000000
1.000000 0.848300 0.000000
0.000000 0.911750 0.000000
0.031550 0.911750 0.000000
0.103100 0.911750 0.000000
0.174650 0.911750 0.000000
0.246200 0.911750 0.000000
0.317750 0.911750 0.000000
0.389300 0.911750 0.000000
0.460850 0.911750 0.000000
0.532400 0.911750 0.000000
0.603950 0.911750 0.000000
0.675500 0.911750 0.000000
0.747050 0.911750 0.000000
0.818600 0.911750 0.000000
0.890150 0.911750 0.000000
0.961700 0.911750 0.000000
1.000000 0.911750 0.000000
1.000000 0.911750 0.000000
0.000000 0.975200 0.000000
0.031550 0.975200 0.000000
0.103100 0.975200 0.000000
0.174650 0.975200 0.000000
0.246200 0.975200 0.000000
0.317750 0.975200 0.000000
0.389300 0.975200 0.000000
0.460850 0.975200 0.000000
0.532400 0.975200 0.000000
0.603950 0.975200 0.000000
0.675500 0.975200 0.000000
0.747050 0.975200 0.000000
0.818600 0.975200 0.000000
0.890150 0.975200 0.000000
0.961700 0.975200 0.000000
1.000000 0.975200 0.000000
1.000000 0.975200 0.000000
0.000000 0.000000 0.028850
0.031550 0.000000 0.028850
0.103100 0.000000 0.028850
0.174650 0.000000 0.028850
0.246200 0.000000 0.028850
0.317750 0.000000 0.028850
0.389300 0.000000 0.028850
0.460850 0.000000 0.028850
0.532400 0.000000 0.028850
0.603950 0.000000 0.028850
0.675500 0.000000 0.028850
0.747050 0.000000 0.028850
0.818600 0.000000 0.028850
0.890150 0.000000 0.028850
0.961700 0.000000 0.028850
1.000000 0.000000 0.028850
1.000000 0.000000 0.028850
0.000000 0.023450 0.028850
0.031550 0.023450 0.028850
0.103100 0.023450 0.028850
0.174650 0.023450 0.028850
0.246200 0.023450 0.028850
0.317750 0.023450 0.028850
0.389300 0.023450 0.028850
0.460850 0.023450 0.028850
0.532400 0.023450 0.028850
0.603950 0.023450 0.028850
0.675500 0.023450 0.028850
0.747050 0.023450 0.028850
0.818600 0.023450 0.028850
0.890150 0.023450 0.028850
0.961700 0.023450 0.028850
1.000000 0.023450 0.028850
1.000000 0.023450 0.028850
0.000000 0.086900 0.028850
0.031550 0.086900 0.028850
0.103100 0.086900 0.028850
0.174650 0.086900 0.028850
0.246200 0.086900 0.028850
0.317750 0.086900 0.028850
0.389300 0.086900 0.028850
0.460850 0.086900 0.028850
0.532400 0.086900 0.028850
0.603950 0.086900 0.028850
0.675500 0.086900 0.028850
0.747050 0.086900 0.028850
0.818600 0.086900 0.028850
0.890150 0.086900 0.028850
0.961700 0.086900 0.028850
1.000000 0.086900 0.028850
1.000000 0.086900 0.028850
0.000000 0.150350 0.028850
0.031550 0.150350 0.028850
0.103100 0.150350 0.028850
0.174650 0.150350 0.028850
0.246200 0.150350 0.028850
0.317750 0.150350 0.028850
0.389300 0.150350 0.028850
0.460850 0.150350 0.028850
0.532400 0.150350 0.028850
0.603950 0.150350 0.028850
0.675500 0.150350 0.028850
0.747050 0.150350 0.028850
0.818600 0.150350 0.028850
0.890150 0.150350 0.028850
0.961700 0.150350 0.028850
1.000000 0.150350 0.028850
1.000000 0.150350 0.028850
0.000000 0.213800 0.028850
0.031550 0.213800 0.028850
0.103100 0.213800 0.028850
0.174650 0.213800 0.028850
0.246200 0.213800 0.028850
0.317750 0.213800 0.028850
0.389300 0.213800 0.028850
0.460850 0.213800 0.028850
0.532400 0.213800 0.028850
0.603950 0.213800 0.028850
0.675500 0.213800 0.028850
0.747050 0.213800 0.028850
0.818600 0.213800 0.028850
0.890150 0.213800 0.028850
0.961700 0.213800 0.028850
1.000000 0.213800 0.028850
1.000000 0.213800 0.028850
0.000000 0.277250 0.028850
0.031550 0.277250 0.028850
0.103100 0.277250 0.028850
0.174650 0.277250 0.028850
0.246200 0.277250 0.028850
0.317750 0.277250 0.028850
0.389300 0.277250 0.028850
0.460850 0.277250 0.028850
0.532400 0.277250 0.028850
0.603950 0.277250 0.028850
0.675500 0.277250 0.028850
0.747050 0.277250 0.028850
0.818600 0.277250 0.028850
0.890150 0.277250 0.028850
0.961700 0.277250 0.028850
1.000000 0.277250 0.028850
1.000000 0.277250 0.028850
0.000000 0.340700 0.028850
0.031550 0.340700 0.028850
0.103100 0.340700 0.028850
0.174650 0.340700 0.028850
0.246200 0.340700 0.028850
0.317750 0.340700 0.028850
0.389300 0.340700 0.028850
0.460850 0.340700 0.028850
0.532400 0.340700 0.028850
0.603950 0.340700 0.028850
0.675500 0.340700 0.028850
0.747050 0.340700 0.028850
0.818600 0.340700 0.028850
0.890150 0.340700 0.028850
0.961700 0.340700 0.028850
1.000000 0.340700 0.028850
1.000000 0.340700 0.028850
0.000000 0.404150 0.028850
0.031550 0.404150 0.028850
0.103100 0.404150 0.028850
0.174650 0.404150 0.028850
0.246200 0.404150 0.028850
0.317750 0.404150 0.028850
0.389300 0.404150 0.028850
0.460850 0.404150 0.028850
0.532400 0.404150 0.028850
0.603950 0.404150 0.028850
0.675500 0.404150 0.028850
0.747050 0.404150 0.028850
0.818600 0.404150 0.028850
0.890150 0.404150 0.028850
0.961700 0.404150 0.028850
1.000000 0.404150 0.028850
1.000000 0.404150 0.028850
0.000000 0.467600 0.028850
0.031550 0.467600 0.028850
0.103100 0.467600 0.028850
0.174650 0.467600 0.028850
0.246200 0.467600 0.028850
0.317750 0.467600 0.028850
0.389300 0.467600 0.028850
0.460850 0.467600 0.028850
0.532400 0.467600 0.028850
0.603950 0.467600 0.028850
0.675500 0.467600 0.028850
0.747050 0.467600 0.028850
0.818600 0.467600 0.028850
0.890150 0.467600 0.028850
0.961700 0.467600 0.028850
1.000000 0.467600 0.028850
1.000000 0.467600 0.028850
0.000000 0.531050 0.028850
0.031550 0.531050 0.028850
0.103100 0.531050 0.028850
0.174650 0.531050 0.028850
0.246200 0.531050 0.028850
0.317750 0.531050 0.028850
0.389300 0.531050 0.028850
0.460850 0.531050 0.028850
0.532400 0.531050 0.028850
0.603950 0.531050 0.028850
0.675500 0.531050 0.028850
0.747050 0.531050 0.028850
0.818600 0.531050 0.028850
0.890150 0.531050 0.028850
0.961700 0.531050 0.028850
1.000000 0.531050 0.028850
1.000000 0.531050 0.028850
0.000000 0.594500 0.028850
0.031550 0.594500 0.028850
0.103100 0.594500 0.028850
0.174650 0.594500 0.028850
0.246200 0.594500 0.028850
0.317750 0.594500 0.028850
0.389300 0.594500 0.028850
0.460850 0.594500 0.028850
0.532400 0.594500 0.028850
0.603950 0.594500 0.028850
0.675500 0.594500 0.028850
0.747050 0.594500 0.028850
0.818600 0.594500 0.028850
0.890150 0.594500 0.028850
0.961700 0.594500 0.028850
1.000000 0.594500 0.028850
1.000000 0.594500 0.028850
0.000000 0.657950 0.028850
0.031550 0.657950 0.028850
0.103100 0.657950 0.028850
0.174650 0.657950 0.028850
0.246200 0.657950 0.028850
0.317750 0.657950 0.028850
0.389300 0.657950 0.028850
0.460850 0.657950 0.028850
0.532400 0.657950 0.028850
0.603950 0.657950 0.028850
0.675500 0.657950 0.028850
0.747050 0.657950 0.028850
0.818600 0.657950 0.028850
0.890150 0.657950 0.028850
0.961700 0.657950 0.028850
1.000000 0.657950 0.028850
1.000000 0.657950 0.028850
0.000000 0.721400 0.028850
0.031550 0.721400 0.028850
0.103100 0.721400 0.028850
0.174650 0.721400 0.028850
0.246200 0.721400 0.028850
0.317750 0.721400 0.028850
0.389300 0.721400 0.028850
0.460850 0.721400 0.028850
0.532400 0.721400 0.028850
0.603950 0.721400 0.028850
0.675500 0.721400 0.028850
0.747050 0.721400 0.028850
0.818600 0.721400 0.028850
0.890150 0.721400 0.028850
0.961700 0.721400 0.028850
1.000000 0.721400 0.028850
1.000000 0.721400 0.028850
0.000000 0.784850 0.028850
0.031550 0.784850 0.028850
0.103100 0.784850 0.028850
0.174650 0.784850 0.028850
0.246200 0.784850 0.028850
0.317750 0.784850 0.028850
0.389300 0.784850 0.028850
0.460850 0.784850 0.028850
0.532400 0.784850 0.028850
0.603950 0.784850 0.028850
0.675500 0.784850 0.028850
0.747050 0.784850 0.028850
0.818600 0.784850 0.028850
0.890150 0.784850 0.028850
0.961700 0.784850 0.028850
1.000000 0.784850 0.028850
1.000000 0.784850 0.028850
0.000000 0.848300 0.028850
0.031550 0.848300 0.028850
0.103100 0.848300 0.028850
0.174650 0.848300 0.028850
0.246200 0.848300 0.028850
0.317750 0.848300 0.028850
0.389300 0.848300 0.028850
0.460850 0.848300 0.028850
0.532400 0.848300 0.028850
0.603950 0.848300 0.028850
0.675500 0.848300 0.028850
0.747050 0.848300 0.028850
0.818600 0.848300 0.028850
0.890150 0.848300 0.028850
0.961700 0.848300 0.028850
1.000000 0.848300 0.028850
1.000000 0.848300 0.028850
0.000000 0.911750 0.028850
0.031550 0.911750 0.028850
0.103100 0.911750 0.028850
0.174650 0.911750 0.028850
0.246200 0.911750 0.028850
0.317750 0.911750 0.028850
0.389300 0.911750 0.028850
0.460850 0.911750 0.028850
0.532400 0.911750 0.028850
0.603950 0.911750 0.028850
0.675500 0.911750 0.028850
0.747050 0.911750 0.028850
0.818600 0.911750 0.028850
0.890150 0.911750 0.028850
0.961700 0.911750 0.028850
1.000000 0.911750 0.028850
1.000000 0.911750 0.028850
0.000000 0.975200 0.028850
0.031550 0.975200 0.028850
0.103100 0.975200 0.028850
0.174650 0.975200 0.028850
0.246200 0.975200 0.028850
0.317750 0.975200 0.028850
0.389300 0.975200 0.028850
0.460850 0.975200 0.028850
0.532400 0.975200 0.028850
0.603950 0.975200 0.028850
0.675500 0.975200 0.028850
0.747050 0.975200 0.028850
0.818600 0.975200 0.028850
0.890150 0.975200 0.028850
0.961700 0.975200 0.028850
1.000000 0.975200 0.028850
1.000000 0.975200 0.028850
0.000000 0.000000 0.097700
0.031550 0.000000 0.097700
0.103100 0.000000 0.097700
0.174650 0.000000 0.097700
0.246200 0.000000 0.097700
0.317750 0.000000 0.097700
0.389300 0.000000 0.097700
0.460850 0.000000 0.097700
0.532400 0.000000 0.097700
0.603950 0.000000 0.097700
0.675500 0.000000 0.097700
0.747050 0.000000 0.097700
0.818600 0.000000 0.097700
0.890150 0.000000 0.097700
0.961700 0.000000 0.097700
1.000000 0.000000 0.097700
1.000000 0.000000 0.097700
0.000000 0.023450 0.097700
0.031550 0.023450 0.097700
0.103100 0.023450 0.097700
0.174650 0.023450 0.097700
0.246200 0.023450 0.097700
0.317750 0.023450 0.097700
0.389300 0.023450 0.097700
0.460850 0.023450 0.097700
0.532400 0.023450 0.097700
0.603950 0.023450 0.097700
0.675500 0.023450 0.097700
0.747050 0.023450 0.097700
0.818600 0.023450 0.097700
0.890150 0.023450 0.097700
0.961700 0.023450 0.097700
1.000000 0.023450 0.097700
1.000000 0.023450 0.097700
0.000000 0.086900 0.097700
0.031550 0.086900 0.097700
0.103100 0.086900 0.097700
0.174650 0.086900 0.097700
0.246200 0.086900 0.097700
0.317750 0.086900 0.097700
0.389300 0.086900 0.097700
0.460850 0.086900 0.097700
0.532400 0.086900 0.097700
0.603950 0.086900 0.097700
0.675500 0.086900 0.097700
0.747050 0.086900 0.097700
0.818600 0.086900 0.097700
0.890150 0.086900 0.097700
0.961700 0.086900 0.097700
1.000000 0.086900 0.097700
1.000000 0.086900 0.097700
0.000000 0.150350 0.097700
0.031550 0.150350 0.097700
0.103100 0.150350 0.097700
0.174650 0.150350 0.097700
0.246200 0.150350 0.097700
0.317750 0.150350 0.097700
0.389300 0.150350 0.097700
0.460850 0.150350 0.097700
0.532400 0.150350 0.097700
0.603950 0.150350 0.097700
0.675500 0.150350 0.097700
0.747050 0.150350 0.097700
0.818600 0.150350 0.097700
0.890150 0.150350 0.097700
0.961700 0.150350 0.097700
1.000000 0.150350 0.097700
1.000000 0.150350 0.097700
0.000000 0.213800 0.097700
0.031550 0.213800 0.097700
0.103100 0.213800 0.097700
0.174650 0.213800 0.097700
0.246200 0.213800 0.097700
0.317750 0.213800 0.097700
0.389300 0.213800 0.097700
0.460850 0.213800 0.097700
0.532400 0.213800 0.097700
0.603950 0.213800 0.097700
0.675500 0.213800 0.097700
0.747050 0.213800 0.097700
0.818600 0.213800 0.097700
0.890150 0.213800 0.097700
0.961700 0.213800 0.097700
1.000000 0.213800 0.097700
1.000000 0.213800 0.097700
0.000000 0.277250 0.097700
0.031550 0.277250 0.097700
0.103100 0.277250 0.097700
0.174650 0.277250 0.097700
0.246200 0.277250 0.097700
0.317750 0.277250 0.097700
0.389300 0.277250 0.097700
0.460850 0.277250 0.097700
0.532400 0.277250 0.097700
0.603950 0.277250 0.097700
0.675500 0.277250 0.097700
0.747050 0.277250 0.097700
0.818600 0.277250 0.097700
0.890150 0.277250 0.097700
0.961700 0.277250 0.097700
1.000000 0.277250 0.097700
1.000000 0.277250 0.097700
0.000000 0.340700 0.097700
0.031550 0.340700 0.097700
0.103100 0.340700 0.097700
0.174650 0.340700 0.097700
0.246200 0.340700 0.097700
0.317750 0.340700 0.097700
0.389300 0.340700 0.097700
0.460850 0.340700 0.097700
0.532400 0.340700 0.097700
0.603950 0.340700 0.097700
0.675500 0.340700 0.097700
0.747050 0.340700 0.097700
0.818600 0.340700 0.097700
0.890150 0.340700 0.097700
0.961700 0.340700 0.097700
1.000000 0.340700 0.097700
1.000000 0.340700 0.097700
0.000000 0.404150 0.097700
0.031550 0.404150 0.097700
0.103100 0.404150 0.097700
0.174650 0.404150 0.097700
0.246200 0.404150 0.097700
0.317750 0.404150 0.097700
0.389300 0.404150 0.097700
0.460850 0.404150 0.097700
0.532400 0.404150 0.097700
0.603950 0.404150 0.097700
0.675500 0.404150 0.097700
0.747050 0.404150 0.097700
0.818600 0.404150 0.097700
0.890150 0.404150 0.097700
0.961700 0.404150 0.097700
1.000000 0.404150 0.097700
1.000000 0.404150 0.097700
0.000000 0.467600 0.097700
0.031550 0.467600 0.097700
0.103100 0.467600 0.097700
0.174650 0.467600 0.097700
0.246200 0.467600 0.097700
0.317750 0.467600 0.097700
0.389300 0.467600 0.097700
0.460850 0.467600 0.097700
0.532400 0.467600 0.097700
0.603950 0.467600 0.097700
0.675500 0.467600 0.097700
0.747050 0.467600 0.097700
0.818600 0.467600 0.097700
0.890150 0.467600 0.097700
0.961700 0.467600 0.097700
1.000000 0.467600 0.097700
1.000000 0.467600 0.097700
0.000000 0.531050 0.097700
0.031550 0.531050 0.097700
0.103100 0.531050 0.097700
0.174650 0.531050 0.097700
0.246200 0.531050 0.097700
0.317750 0.531050 0.097700
0.389300 0.531050 0.097700
0.460850 0.531050 0.097700
0.532400 0.531050 0.097700
0.603950 0.531050 0.097700
0.675500 0.531050 0.097700
0.747050 0.531050 0.097700
0.818600 0.531050 0.097700
0.890150 0.531050 0.097700
0.961700 0.531050 0.097700
1.000000 0.531050 0.097700
1.000000 0.531050 0.097700
0.000000 0.594500 0.097700
0.031550 0.594500 0.097700
0.103100 0.594500 0.097700
0.174650 0.594500 0.097700
0.246200 0.594500 0.097700
0.317750 0.594500 0.097700
0.389300 0.594500 0.097700
0.460850 0.594500 0.097700
0.532400 0.594500 0.097700
0.603950 0.594500 0.097700
0.675500 0.594500 0.097700
0.747050 0.594500 0.097700
0.818600 0.594500 0.097700
0.890150 0.594500 0.097700
0.961700 0.594500 0.097700
1.000000 0.594500 0.097700
1.000000 0.594500 0.097700
0.000000 0.657950 0.097700
0.031550 0.657950 0.097700
0.103100 0.657950 0.097700
0.174650 0.657950 0.097700
0.246200 0.657950 0.097700
0.317750 0.657950 0.097700
0.389300 0.657950 0.097700
0.460850 0.657950 0.097700
0.532400 0.657950 0.097700
0.603950 0.657950 0.097700
0.675500 0.657950 0.097700
0.747050 0.657950 0.097700
0.818600 0.657950 0.097700
0.890150 0.657950 0.097700
0.961700 0.657950 0.097700
1.000000 0.657950 0.097700
1.000000 0.657950 0.097700
0.000000 0.721400 0.097700
0.031550 0.721400 0.097700
0.103100 0.721400 0.097700
0.174650 0.721400 0.097700
0.246200 0.721400 0.097700
0.317750 0.721400 0.097700
0.389300 0.721400 0.097700
0.460850 0.721400 0.097700
0.532400 0.721400 0.097700
0.603950 0.721400 0.097700
0.675500 0.721400 0.097700
0.747050 0.721400 0.097700
0.818600 0.721400 0.097700
0.890150 0.721400 0.097700
0.961700 0.721400 0.097700
1.000000 0.721400 0.097700
1.000000 0.721400 0.097700
0.000000 0.784850 0.097700
0.031550 0.784850 0.097700
0.103100 0.784850 0.097700
0.174650 0.784850 0.097700
0.246200 0.784850 0.097700
0.317750 0.784850 0.097700
0.389300 0.784850 0.097700
0.460850 0.784850 0.097700
0.532400 0.784850 0.097700
0.603950 0.784850 0.097700
0.675500 0.784850 0.097700
0.747050 0.784850 0.097700
0.818600 0.784850 0.097700
0.890150 0.784850 0.097700
0.961700 0.784850 0.097700
1.000000 0.784850 0.097700
1.000000 0.784850 0.097700
0.000000 0.848300 0.097700
0.031550 0.848300 0.097700
0.103100 0.848300 0.097700
0.174650 0.848300 0.097700
0.246200 0.848300 0.097700
0.317750 0.848300 0.097700
0.389300 0.848300 0.097700
0.460850 0.848300 0.097700
0.532400 0.848300 0.097700
0.603950 0.848300 0.097700
0.675500 0.848300 0.097700
0.747050 0.848300 0.097700
0.818600 0.848300 0.097700
0.890150 0.848300 0.097700
0.961700 0.848300 0.097700
1.000000 0.848300 0.097700
1.000000 0.848300 0.097700
0.000000 0.911750 0.097700
0.031550 0.911750 0.097700
0.103100 0.911750 0.097700
0.174650 0.911750 0.097700
0.246200 0.911750 0.097700
0.317750 0.911750 0.097700
0.389300 0.911750 0.097700
0.460850 0.911750 0.097700
0.532400 0.911750 0.097700
0.603950 0.911750 0.097700
0.675500 0.911750 0.097700
0.747050 0.911750 0.097700
0.818600 0.911750 0.097700
0.890150 0.911750 0.097700
0.961700 0.911750 0.097700
1.000000 0.911750 0.097700
1.000000 0.911750 0.097700
0.000000 0.975200 0.097700
0.031550 0.975200 0.097700
0.103100 0.975200 0.097700
0.174650 0.975200 0.097700
0.246200 0.975200 0.097700
0.317750 0.975200 0.097700
0.389300 0.975200 0.097700
0.460850 0.975200 0.097700
0.532400 0.975200 0.097700
0.603950 0.975200 0.097700
0.675500 0.975200 0.097700
0.747050 0.975200 0.097700
0.818600 0.975200 0.097700
0.890150 0.975200 0.097700
0.961700 0.975200 0.097700
1.000000 0.975200 0.097700
1.000000 0.975200 0.097700
0.000000 0.000000 0.166550
0.031550 0.000000 0.166550
0.103100 0.000000 0.166550
0.174650 0.000000 0.166550
0.246200 0.000000 0.166550
0.317750 0.000000 0.166550
0.389300 0.000000 0.166550
0.460850 0.000000 0.166550
0.532400 0.000000 0.166550
0.603950 0.000000 0.166550
0.675500 0.000000 0.166550
0.747050 0.000000 0.166550
0.818600 0.000000 0.166550
0.890150 0.000000 0.166550
0.961700 0.000000 0.166550
1.000000 0.000000 0.166550
1.000000 0.000000 0.166550
0.000000 0.023450 0.166550
0.031550 0.023450 0.166550
0.103100 0.023450 0.166550
